P3
192 128
255
4 2 5 7 5 8 4 2 5 6 4 7 5 3 6 5 3 6 6 4 7 4 2 5 5 3 6 6 4 7 7 5 8 7 5 8 4 2 5 7 5 8 7 5 8 5 3 6 7 5 8 5 3 6 6 4 7 5 3 6 7 5 8 6 4 7 6 4 7 5 3 6 4 2 5 5 3 6 5 3 6 4 2 5 4 2 5 5 3 6 7 5 8 6 4 7 0 0 3 0 0 3 0 0 2 0 0 4 0 0 5 0 0 5 0 0 3 0 0 5 0 0 4 0 0 5 0 0 3 0 0 2 0 0 4 0 0 5 0 0 3 4 5 9 2 3 7 2 3 7 3 4 8 2 3 7 5 6 10 4 5 9 3 4 8 5 6 10 3 4 8 2 3 7 3 4 8 2 3 7 2 3 7 2 3 7 5 6 10 2 3 7 2 3 7 2 3 7 4 5 9 2 3 7 3 4 8 3 4 8 3 4 8 4 5 9 2 3 7 2 3 7 2 3 7 4 5 9 2 3 7 4 5 9 2 3 7 2 3 7 4 5 9 3 4 8 2 3 7 3 4 8 2 3 7 3 4 8 3 4 8 3 4 8 3 4 8 5 6 10 5 6 10 2 3 7 4 5 9 4 5 9 5 6 10 5 6 10 5 6 10 2 3 7 2 3 7 3 4 8 3 4 8 5 6 10 2 3 7 2 3 7 3 4 8 5 6 10 3 4 8 4 5 9 4 5 9 5 6 10 2 3 7 4 5 9 2 3 7 2 3 7 3 4 8 3 4 8 3 4 8 5 6 10 3 4 8 5 6 10 3 4 8 5 6 10 5 6 10 2 3 7 2 3 7 4 5 9 3 4 8 2 3 7 5 6 10 3 4 8 3 4 8 5 6 10 5 6 10 2 3 7 4 5 9 5 6 10 2 3 7 5 6 10 5 6 10 2 3 7 3 4 8 5 6 10 5 6 10 5 6 10 2 3 7 4 5 9 0 0 5 0 0 5 0 0 4 0 0 3 0 0 5 0 0 2 0 0 2 0 0 4 0 0 4 0 0 5 0 0 5 0 0 4 0 0 3 0 0 3 0 0 5 6 4 7 4 2 5 6 4 7 4 2 5 5 3 6 6 4 7 6 4 7 6 4 7 6 4 7 4 2 5 6 4 7 7 5 8 7 5 8 5 3 6 6 4 7 4 2 5 5 3 6 7 5 8 5 3 6 7 5 8 5 3 6 6 4 7 7 5 8 4 2 5 4 2 5 7 5 8 6 4 7 5 3 6 4 2 5 6 4 7 4 2 5
4 2 5 7 5 8 6 4 7 6 4 7 5 3 6 7 5 8 7 5 8 6 4 7 6 4 7 6 4 7 4 2 5 6 4 7 7 5 8 6 4 7 8 5 9 5 3 6 6 4 7 5 3 6 8 6 9 7 5 8 8 6 9 8 5 9 4 2 5 7 5 8 8 6 9 5 3 6 7 5 8 5 3 6 8 6 9 5 3 6 5 3 6 6 4 7 0 0 4 0 0 4 0 0 4 0 0 3 0 0 5 0 0 6 0 0 3 0 0 3 0 0 5 0 0 6 0 0 5 0 0 2 0 0 4 0 0 5 5 6 10 2 3 7 4 5 9 6 7 11 6 7 11 4 5 9 4 4 9 4 5 9 2 3 7 6 7 11 3 4 8 3 4 8 5 6 10 4 5 10 4 5 9 3 4 8 6 7 11 6 7 11 3 4 8 5 6 10 2 3 7 6 7 11 4 5 9 4 5 9 5 5 10 4 5 9 4 5 9 2 3 7 5 6 10 3 4 8 3 4 8 5 6 10 6 7 11 3 4 8 2 3 7 4 5 9 4 5 9 5 6 10 5 6 10 5 6 10 5 6 10 3 4 8 4 5 9 4 5 9 3 4 8 3 4 8 6 7 11 5 6 10 5 6 10 5 6 10 4 5 9 5 6 10 4 5 9 3 4 8 4 5 9 2 3 7 4 5 9 6 7 11 3 4 8 6 7 11 5 6 10 5 6 10 2 3 7 5 6 10 6 7 11 4 5 9 4 5 9 5 6 10 5 6 10 6 7 11 6 7 11 2 3 7 5 6 10 6 7 11 3 4 8 3 4 8 6 7 11 4 5 9 5 6 10 5 5 10 5 6 10 4 5 9 3 4 8 3 4 8 2 3 7 4 5 9 6 7 11 4 5 9 3 4 8 2 3 7 2 3 7 4 5 9 4 5 9 4 5 9 3 4 8 2 3 7 2 3 7 6 7 11 2 3 7 3 4 8 4 5 9 0 0 4 0 0 3 0 0 3 0 0 4 0 0 6 0 0 4 0 0 3 0 0 3 0 0 6 0 0 3 0 0 3 0 0 4 0 0 2 0 0 4 6 4 7 5 3 6 7 5 8 5 3 6 6 4 7 8 6 9 8 6 9 5 3 6 8 6 9 7 5 8 5 3 6 5 3 6 6 4 7 7 5 8 5 3 6 7 5 8 8 6 9 5 3 6 6 4 7 5 3 6 5 3 6 5 3 6 7 5 8 7 5 8 5 3 6 7 5 8 6 4 7 7 5 8 7 5 8 4 2 5 7 5 8
4 2 5 4 2 5 6 4 7 6 4 7 8 6 10 7 5 8 7 5 8 7 5 8 7 5 8 7 5 8 6 4 7 8 6 9 8 6 9 6 3 7 8 6 9 7 5 8 9 7 10 7 4 8 8 6 9 7 5 8 7 5 8 7 5 8 5 3 6 5 3 6 6 4 7 8 6 9 7 5 8 5 3 6 7 5 8 8 6 9 5 3 6 7 5 8 0 0 3 0 0 4 0 0 4 0 0 6 0 0 6 0 0 6 0 0 5 0 0 4 0 0 4 0 0 4 0 0 3 0 0 5 0 0 5 0 0 7 4 5 9 7 8 12 5 6 10 6 7 11 5 6 10 4 5 9 4 5 9 3 4 8 4 5 9 5 6 10 6 7 11 5 6 10 4 5 9 6 7 11 6 7 11 6 7 11 5 6 10 4 5 9 6 7 11 5 6 10 5 6 10 4 5 9 6 7 11 6 7 11 5 6 10 5 6 10 6 7 11 6 7 11 4 5 9 6 7 11 5 6 10 3 4 8 5 6 10 6 7 11 4 5 9 6 7 11 3 4 8 3 4 8 7 8 12 6 7 11 5 6 10 5 6 10 7 8 12 4 5 9 6 7 11 6 7 11 3 4 8 5 6 10 4 5 10 5 6 10 3 4 8 5 6 10 6 7 11 7 7 12 3 4 8 4 5 9 4 5 9 6 7 11 7 8 12 6 7 11 5 6 10 7 7 12 4 5 9 6 7 11 3 4 8 4 5 9 6 7 11 4 5 9 4 5 9 4 5 9 3 4 8 3 4 8 4 5 9 6 7 11 5 6 10 5 6 10 6 7 11 4 5 9 5 6 10 5 6 10 5 6 10 4 5 9 3 4 8 4 5 9 4 5 9 3 4 8 3 4 8 4 5 9 5 6 10 3 4 8 5 6 10 4 5 9 3 4 8 6 7 11 4 5 9 5 6 10 5 5 10 3 4 8 5 6 10 5 6 10 4 5 9 0 0 6 0 0 6 0 0 3 0 0 5 0 0 5 0 0 4 0 0 4 0 0 6 0 0 6 0 0 4 0 0 5 0 0 5 0 0 5 0 0 6 8 6 9 6 4 7 6 4 7 6 4 7 8 6 9 6 4 7 7 4 8 5 3 6 8 6 9 5 3 6 8 6 9 8 6 9 6 4 7 7 5 8 8 6 9 6 4 7 7 5 8 7 5 8 5 3 6 6 4 7 8 6 9 9 7 10 8 6 9 8 6 9 6 4 7 6 3 7 7 5 8 6 4 7 8 5 9 4 2 5 7 5 9
5 3 6 6 4 7 6 4 7 8 6 10 8 6 9 9 7 10 8 6 9 6 4 7 9 7 10 6 3 7 6 4 8 8 6 9 8 6 9 6 4 7 6 4 7 6 4 7 7 5 8 7 5 8 6 4 7 5 3 6 6 4 7 8 6 9 9 6 10 6 4 7 6 4 7 6 4 7 9 7 10 6 4 7 9 6 10 7 5 8 8 6 9 9 7 10 0 0 5 0 0 4 0 0 5 0 0 6 0 1 7 0 0 4 0 0 6 0 0 5 0 0 5 0 0 6 0 0 4 0 0 4 0 0 4 5 6 10 5 5 10 5 6 10 5 6 10 6 7 11 5 5 10 5 6 10 6 7 11 6 7 11 7 8 12 6 7 11 4 5 9 6 7 11 5 6 10 7 8 12 5 6 10 4 4 9 7 8 12 7 8 12 7 8 12 7 7 12 5 6 10 7 8 12 6 7 11 7 8 12 3 4 9 5 6 10 5 6 10 7 8 12 7 8 12 5 6 10 5 6 11 7 7 12 5 6 10 5 6 10 3 4 8 5 6 10 6 7 11 6 7 11 5 6 10 6 7 11 7 8 12 5 6 10 5 6 10 4 5 9 7 8 12 5 6 10 6 7 11 6 7 11 4 4 9 7 8 12 7 8 12 6 7 11 4 5 9 5 6 10 3 4 8 5 6 10 4 5 9 7 8 12 5 6 10 6 7 11 5 6 10 6 7 11 5 6 10 4 5 9 5 6 10 4 5 9 7 8 12 3 4 8 5 6 10 5 6 10 6 7 11 4 5 9 6 7 11 5 6 10 5 6 10 6 7 11 6 7 11 3 4 8 7 8 12 6 7 11 6 7 11 6 7 11 6 7 11 6 7 11 6 7 11 7 8 12 7 8 12 7 8 12 5 6 10 5 6 10 6 7 11 6 6 11 7 8 12 7 8 12 6 7 11 6 7 11 5 6 10 6 7 11 7 7 12 6 7 11 7 8 12 7 7 12 0 0 7 0 1 7 0 1 7 0 0 6 0 0 5 0 0 3 0 0 5 0 0 6 0 0 5 0 0 6 0 0 7 0 0 5 0 0 5 6 4 7 7 5 8 8 6 9 9 7 10 8 6 9 7 5 8 8 6 9 6 4 7 6 4 7 9 7 10 8 6 9 7 5 8 7 5 8 9 7 10 7 5 8 7 5 8 9 7 10 6 4 7 6 4 7 9 6 10 6 4 7 8 6 9 5 3 6 8 6 9 7 5 8 8 6 9 7 5 8 7 5 8 8 5 9 8 6 9 8 6 9
5 3 6 8 6 9 7 5 8 5 3 6 6 4 7 7 5 8 10 8 11 8 6 9 6 4 7 8 6 9 8 6 9 9 7 10 8 6 10 6 4 7 8 6 9 7 5 8 7 5 8 8 6 9 7 5 8 10 7 11 9 7 10 8 6 9 10 8 11 8 6 9 9 7 10 8 6 9 10 8 11 8 5 9 8 6 9 8 6 9 7 5 8 8 5 9 0 2 8 0 0 4 0 1 7 0 0 7 0 1 7 0 0 5 0 0 6 0 0 5 0 1 7 0 0 6 0 0 6 0 0 5 5 5 10 7 8 13 7 8 12 7 8 12 5 6 10 5 6 10 5 5 10 7 8 12 4 5 9 5 6 10 5 6 10 6 7 11 4 5 9 7 8 12 7 8 12 8 9 13 6 7 11 7 8 12 4 5 9 6 7 11 7 8 12 6 7 11 5 6 10 7 8 12 5 6 10 7 8 12 6 7 12 5 5 10 6 7 11 7 8 12 7 8 12 5 6 10 5 6 10 5 6 10 6 7 11 5 6 10 7 8 12 4 5 9 5 6 10 6 7 11 4 5 10 7 8 12 7 8 12 5 6 10 7 8 12 5 6 11 8 8 13 6 7 11 5 6 10 4 5 9 5 6 10 4 5 9 7 8 12 6 7 11 4 5 9 6 7 11 7 8 12 6 7 11 5 5 10 7 8 12 7 8 12 5 6 10 4 5 9 6 7 11 6 7 11 7 8 12 8 8 13 8 9 13 7 8 12 6 6 11 8 8 13 5 5 10 6 7 11 6 7 11 5 6 10 5 6 10 6 6 11 8 9 13 8 9 13 6 7 11 4 5 9 5 5 10 5 6 10 4 5 9 5 6 10 8 8 13 4 5 9 6 7 11 5 6 10 6 7 11 6 7 11 7 8 13 7 8 12 7 8 12 6 7 11 7 8 12 6 7 11 6 6 11 4 5 9 5 6 10 6 7 11 6 7 11 7 8 12 7 8 12 6 6 11 0 0 5 0 0 6 0 1 8 0 0 5 0 1 7 0 0 6 0 0 6 0 0 6 0 0 5 0 0 5 0 0 6 0 2 8 6 4 7 6 4 7 9 7 10 10 7 11 10 8 11 9 7 10 7 5 8 9 7 10 7 5 8 9 7 10 10 8 11 9 7 10 6 4 7 9 7 10 8 6 9 9 6 10 10 8 11 8 6 9 6 4 8 9 7 10 8 5 9 8 5 9 9 6 10 10 8 11 8 6 10 9 7 10 6 4 7 7 5 8 6 4 7 5 3 6 8 6 9
4 2 6 5 3 6 5 3 6 8 6 9 6 4 7 7 4 8 9 7 10 10 8 11 9 7 10 10 8 12 10 8 11 9 7 10 10 8 11 9 7 10 8 6 9 9 7 10 9 7 10 8 6 9 7 5 8 10 8 11 10 8 11 9 7 10 10 8 11 9 7 10 10 8 11 10 8 11 8 6 9 7 5 8 10 8 11 11 8 12 9 7 10 10 8 11 0 1 7 0 1 7 0 1 7 0 0 6 0 2 8 0 2 8 0 2 8 0 0 6 0 0 5 0 2 8 0 0 6 0 0 5 5 6 11 8 9 13 8 8 13 5 6 10 6 7 11 8 9 13 8 9 13 6 7 11 8 8 13 6 7 11 6 7 11 6 7 11 6 7 11 7 8 12 7 8 12 5 6 10 6 6 11 5 6 10 5 5 10 5 6 10 7 8 12 8 9 13 7 8 12 9 9 14 8 9 13 6 7 12 7 8 12 8 9 13 5 5 10 5 6 10 6 7 11 7 8 12 5 6 11 8 9 13 8 9 13 8 9 14 8 9 13 5 6 11 6 6 11 7 8 12 6 6 11 8 9 13 5 6 10 7 7 12 8 9 13 5 6 10 6 7 11 6 7 12 8 8 13 5 6 10 5 6 10 6 7 11 7 7 12 5 6 10 7 8 12 8 9 13 7 8 12 7 7 12 7 8 12 8 9 13 5 6 10 6 7 11 6 7 11 7 8 12 5 6 10 5 6 10 8 8 13 5 6 10 7 8 12 7 8 12 5 6 10 8 9 13 5 6 10 6 7 11 6 7 11 6 7 11 5 6 10 7 8 12 6 7 11 6 7 12 6 7 11 8 9 13 8 8 13 6 7 11 6 7 11 6 7 11 7 8 12 6 7 11 7 8 12 5 6 10 5 6 10 7 8 12 8 9 13 5 6 10 7 7 12 8 8 13 6 6 11 5 6 10 6 7 11 7 8 12 6 7 11 5 6 10 8 9 13 8 9 13 8 9 13 0 1 7 1 2 9 0 2 8 0 0 6 0 0 7 0 1 7 0 0 6 0 0 5 0 2 8 0 0 5 0 2 8 0 0 6 10 8 11 9 7 10 9 7 10 7 4 8 7 5 8 9 7 10 8 6 9 8 6 9 9 6 10 10 8 11 8 6 9 10 8 11 9 7 11 8 6 9 7 5 8 8 6 9 10 8 11 10 8 11 7 5 8 8 6 9 8 6 9 8 6 9 9 7 10 8 6 9 8 6 9 10 7 11 9 7 10 8 6 9 5 3 6 8 6 9 6 4 7
8 6 9 8 6 9 5 3 6 5 3 6 9 7 10 6 4 7 7 5 8 7 5 8 10 7 11 9 7 10 10 8 11 11 8 12 10 8 11 11 9 12 9 7 10 11 8 12 8 6 10 11 9 12 10 8 11 11 9 12 10 7 11 31 51 76 6 19 35 6 19 35 8 21 37 6 19 35 31 51 76 31 51 76 31 51 76 6 19 35 9 6 10 10 8 11 0 1 8 0 1 7 0 0 6 0 0 6 1 3 9 1 3 9 0 0 6 1 3 9 0 0 6 0 0 6 0 2 8 6 7 11 9 10 14 8 9 14 6 7 11 7 8 12 9 10 14 7 8 12 6 7 11 8 9 13 8 9 13 8 8 13 9 10 14 7 8 12 7 8 12 6 7 11 7 7 12 8 9 13 8 9 13 8 9 13 9 9 14 7 7 12 6 6 11 8 9 14 7 8 12 8 9 13 7 8 12 6 7 11 6 7 11 6 7 11 7 8 12 9 10 14 7 7 12 6 7 11 8 9 13 8 9 14 7 8 12 6 7 11 6 6 11 8 9 13 5 6 10 5 6 10 6 6 11 9 9 14 8 8 13 9 10 14 9 10 14 6 7 11 6 7 11 9 10 14 7 8 13 9 10 14 9 10 14 7 7 12 6 6 11 8 9 13 9 9 14 7 8 12 8 9 13 6 7 11 5 6 10 9 9 14 9 10 14 8 9 13 8 9 13 8 9 13 6 6 11 8 9 13 7 8 12 5 6 10 8 9 13 9 9 14 6 7 11 5 6 10 6 7 11 7 7 12 6 7 11 7 8 12 9 10 14 9 10 14 7 8 13 6 7 11 7 8 12 6 7 11 8 9 13 5 6 10 8 9 13 8 9 13 8 9 13 6 6 11 8 9 13 6 7 11 8 9 13 5 6 10 6 6 11 8 9 13 6 7 11 6 7 11 8 9 13 7 8 12 8 8 13 8 9 13 8 9 13 8 9 13 8 9 13 7 8 12 8 9 13 6 6 11 0 0 5 1 3 9 0 0 6 0 0 7 1 3 9 0 1 8 1 3 9 0 0 6 0 1 8 0 0 5 0 0 7 10 8 11 10 8 11 6 19 35 6 19 35 8 21 37 7 20 36 6 19 35 8 21 37 31 51 76 8 21 37 6 19 35 9 7 11 8 6 9 10 7 11 10 8 11 11 9 12 8 6 9 10 8 11 10 8 11 8 5 9 10 8 11 9 7 10 9 7 10 7 5 8 9 6 10 7 5 8 8 6 9 8 5 9 9 7 10 7 5 8 6 4 7
5 3 6 5 3 6 9 7 10 8 5 9 9 7 10 8 5 9 9 7 10 7 5 8 10 8 11 11 9 12 8 6 9 11 9 13 8 6 9 10 8 11 11 9 13 10 8 11 11 8 12 11 9 12 11 8 12 32 52 77 7 20 36 8 21 37 6 19 35 6 19 35 8 21 37 9 22 38 31 51 76 6 19 35 7 20 36 7 20 36 6 19 35 7 20 36 0 2 8 0 1 8 0 2 8 1 3 9 0 1 7 2 3 10 0 0 6 0 2 8 0 1 7 0 2 8 0 2 9 6 7 11 7 8 12 6 7 11 6 7 11 6 7 11 8 9 13 7 8 12 9 10 14 9 10 14 9 10 14 6 7 11 9 10 14 10 10 15 6 7 11 9 10 14 8 9 14 9 9 14 8 8 13 7 8 12 7 8 12 9 10 14 6 7 11 7 7 12 10 10 15 7 8 12 7 7 12 10 10 15 8 9 13 9 10 14 8 9 13 6 7 11 9 10 14 7 8 12 7 8 12 6 7 11 6 7 11 6 7 11 8 9 13 6 7 11 8 9 13 9 10 14 8 9 13 10 10 15 7 8 12 6 7 11 10 11 15 9 10 15 10 10 15 10 11 15 10 10 15 7 8 13 6 7 11 6 7 11 8 9 13 8 9 13 6 7 11 9 10 15 8 9 13 6 7 11 8 9 13 7 7 12 9 10 14 9 9 14 8 9 13 7 8 12 9 10 14 6 7 11 6 7 11 9 10 14 6 7 11 8 9 13 10 11 15 10 10 15 8 9 13 7 8 12 7 7 12 10 11 15 9 9 14 6 7 11 7 8 12 9 10 14 9 10 14 7 8 12 9 9 14 9 10 14 8 9 13 8 9 13 8 8 13 8 8 13 9 10 14 6 7 11 6 7 11 10 11 15 7 7 12 8 9 13 8 9 13 7 8 12 9 10 14 6 7 11 9 10 14 9 10 14 9 10 15 7 8 12 9 9 14 9 9 14 7 8 12 8 8 13 0 2 8 1 3 9 1 2 9 0 1 8 0 2 8 1 3 9 1 3 9 1 2 9 0 2 8 0 0 7 2 4 10 8 21 37 6 19 35 6 19 35 7 20 36 8 21 37 8 21 37 9 22 38 9 22 38 9 22 38 7 20 36 9 22 38 9 22 38 31 51 76 8 6 9 11 9 12 11 9 12 10 7 11 11 8 12 10 8 11 11 9 12 11 9 12 9 6 10 9 6 10 9 7 11 8 6 9 7 5 8 9 6 10 6 4 7 7 5 8 8 6 9 9 6 10
6 4 7 9 7 10 6 4 7 7 4 8 6 4 7 7 4 8 9 7 10 10 8 11 9 7 10 8 6 9 10 8 11 9 7 10 10 8 11 9 7 10 9 7 10 11 9 12 10 8 12 32 52 77 9 22 38 32 52 77 32 52 77 7 20 36 9 22 38 32 52 77 9 22 38 32 52 77 6 19 35 32 52 77 32 52 77 32 52 77 9 22 38 8 21 37 8 21 37 7 20 36 1 3 10 0 1 7 1 2 9 0 0 7 1 3 9 1 3 9 0 0 7 2 4 10 8 9 13 10 11 15 10 11 15 7 8 12 8 9 13 9 10 14 8 9 13 10 10 15 10 11 15 10 11 15 10 10 15 10 10 15 8 9 13 8 9 13 9 9 14 8 9 13 6 7 12 10 11 15 7 8 13 9 10 14 10 11 15 9 10 14 8 9 13 9 9 14 10 10 15 7 7 12 10 11 15 9 9 14 8 9 13 9 10 14 8 9 13 7 8 12 7 7 12 8 8 13 7 7 12 7 8 12 7 7 12 9 9 14 8 9 13 7 8 12 9 10 14 9 10 14 7 8 12 9 10 14 10 11 15 8 9 13 7 8 12 7 8 12 10 11 15 10 11 15 10 11 15 9 9 14 9 10 14 8 9 13 10 11 15 7 7 12 9 9 14 9 10 14 7 8 12 9 10 14 7 8 13 8 9 13 7 8 13 9 10 14 7 8 12 8 9 13 9 9 14 10 11 15 9 10 14 10 11 15 8 9 13 10 11 15 7 8 12 10 10 15 8 9 14 9 10 14 9 9 14 6 7 12 10 11 15 7 8 12 7 8 12 10 11 15 7 8 12 9 9 14 10 11 15 9 10 15 7 8 12 10 11 15 10 10 15 10 10 15 8 9 14 8 8 13 8 8 13 7 8 12 8 8 13 10 11 15 9 9 14 9 10 14 7 8 12 9 9 14 9 10 15 8 9 13 7 7 12 8 9 13 7 8 12 9 10 14 9 10 14 8 9 13 10 11 15 1 3 9 0 2 8 0 1 8 0 0 7 0 0 7 2 4 10 0 0 7 2 4 10 8 21 37 8 21 37 9 22 38 6 19 35 9 22 38 32 52 77 8 21 37 32 52 77 9 22 38 32 52 77 7 20 36 32 52 77 8 21 37 32 52 77 32 52 77 6 19 35 8 21 37 11 9 12 10 8 11 9 7 10 10 7 11 12 10 13 10 8 11 12 9 13 8 6 9 10 7 11 7 5 8 10 8 11 9 7 10 7 5 8 7 5 8 7 5 8 7 5 8
9 6 10 6 4 7 7 5 8 8 6 9 7 4 8 9 6 10 8 6 9 9 7 10 9 7 10 9 7 10 11 9 12 9 7 11 12 10 13 12 10 13 13 11 14 11 8 12 8 21 37 7 20 36 8 21 37 10 23 39 7 20 36 7 20 36 9 22 38 10 23 39 9 22 38 9 22 38 8 21 37 9 22 38 7 20 36 32 52 77 9 22 38 8 21 37 10 23 39 8 21 37 33 53 78 2 3 10 2 4 10 0 2 9 1 3 9 2 4 10 0 1 8 2 4 10 10 11 15 9 10 14 11 11 16 11 11 16 10 11 15 11 12 16 9 10 14 10 11 15 7 8 12 8 9 13 10 11 15 11 12 16 7 8 12 8 9 13 9 10 14 11 12 16 9 10 14 7 8 12 10 11 15 10 11 16 8 9 13 7 8 12 9 10 15 10 11 15 9 10 15 7 8 12 11 12 16 11 12 16 8 8 13 7 8 12 7 8 12 10 11 15 10 11 15 10 11 15 9 10 14 9 9 14 8 9 13 7 8 13 10 10 15 9 10 14 9 10 15 9 10 14 9 10 14 9 10 14 11 11 16 9 10 14 9 10 15 10 11 15 8 9 13 9 10 14 10 11 15 10 10 15 8 9 13 10 11 15 7 8 12 10 10 15 10 11 15 9 9 14 10 11 15 11 11 16 7 8 12 11 12 16 10 10 15 11 11 16 10 11 15 10 11 15 7 8 12 10 11 15 9 9 14 10 11 15 10 11 15 9 9 14 10 11 15 11 12 16 7 8 12 8 9 13 8 8 13 10 11 15 9 9 14 9 10 14 10 11 15 9 10 14 11 12 16 8 9 13 8 9 13 7 8 12 11 12 16 11 11 16 9 10 14 10 10 15 8 9 13 7 8 12 9 10 15 7 8 12 9 10 14 8 8 13 11 11 16 9 10 14 8 9 13 10 11 15 7 8 12 9 9 14 10 10 15 9 10 14 9 10 14 10 10 15 7 8 12 8 9 13 10 11 15 0 1 8 0 1 8 1 3 9 3 5 11 0 1 7 1 3 9 2 4 10 9 22 38 8 21 37 32 52 77 9 22 38 7 20 36 8 21 37 9 22 38 9 22 38 10 23 39 33 53 78 32 52 77 32 52 77 10 23 39 7 20 36 7 20 36 9 22 38 7 20 36 7 20 36 7 20 36 12 10 13 11 9 12 9 7 10 12 9 13 10 8 11 11 8 12 11 8 12 8 6 9 7 5 8 9 7 11 9 6 10 8 5 9 7 5 8 6 4 7 7 5 9
8 6 9 8 6 9 10 7 11 9 7 10 7 5 8 8 5 9 10 8 11 9 7 10 10 8 11 8 6 9 9 7 11 12 9 13 11 9 12 12 10 13 10 8 12 32 52 77 10 23 39 10 23 39 8 21 37 9 22 38 10 23 39 10 23 39 8 21 37 9 22 38 10 23 39 10 23 39 33 53 78 9 22 38 8 21 37 8 21 37 10 23 39 33 53 78 10 23 39 32 52 77 8 21 37 10 23 39 4 5 12 2 3 10 4 5 12 1 3 9 2 4 10 8 9 13 9 10 15 9 9 14 11 12 16 12 12 17 10 11 15 8 9 13 9 10 14 11 11 16 11 11 16 11 12 16 8 9 13 11 12 16 9 10 14 8 9 13 11 12 16 11 12 16 10 11 15 8 9 13 9 9 14 11 12 16 9 10 14 10 11 15 11 12 16 9 9 14 10 10 15 8 9 13 11 12 16 11 11 16 11 12 16 11 12 17 10 11 15 9 9 14 10 11 16 11 11 16 12 12 17 8 8 13 10 10 15 10 11 15 10 10 15 9 10 15 8 9 13 8 9 13 11 12 17 10 11 15 11 12 16 10 11 15 10 10 15 10 10 15 9 10 14 10 11 15 11 12 16 11 12 16 10 10 15 10 10 15 8 9 13 8 9 13 9 9 14 8 9 13 8 8 13 8 9 13 8 9 13 8 9 14 9 10 14 10 11 15 10 11 15 10 11 15 10 10 15 11 12 16 10 10 15 11 11 16 11 11 16 10 11 16 12 12 17 10 11 15 11 12 16 10 10 15 10 11 15 9 9 14 10 10 15 9 10 14 8 8 13 10 11 15 9 10 14 9 10 14 10 11 15 8 9 13 9 10 14 10 10 15 11 12 17 10 10 15 9 10 14 11 12 17 11 12 16 11 12 16 8 8 13 8 9 13 9 9 14 8 9 13 10 11 15 10 11 15 9 10 14 11 12 16 9 9 14 10 11 15 12 12 17 8 9 13 8 9 13 10 11 15 9 10 14 9 10 14 3 5 11 2 4 10 1 3 9 0 2 8 0 2 8 7 20 36 10 23 39 33 53 78 32 52 77 8 21 37 10 23 39 10 23 39 33 53 78 33 53 78 8 21 37 9 22 38 33 53 78 9 22 38 10 23 39 7 20 36 8 21 37 10 23 39 33 53 78 8 21 37 10 23 39 8 21 37 12 10 13 12 10 13 12 10 13 9 6 10 11 8 12 11 8 12 10 8 11 10 8 11 10 8 11 10 8 11 6 4 7 9 7 10 9 6 10 9 6 10
8 6 9 5 3 7 7 4 8 9 7 10 10 7 11 11 8 12 9 7 10 10 8 11 12 9 13 10 8 11 10 8 11 10 8 11 12 10 13 12 9 13 32 52 77 33 53 78 9 22 38 33 53 78 11 24 40 10 23 39 8 21 37 10 23 39 8 21 37 8 21 37 9 22 38 34 54 79 9 22 38 10 23 39 9 22 38 10 23 39 10 23 39 33 53 78 34 54 79 11 24 40 10 23 39 9 22 38 9 22 38 4 5 12 2 4 11 1 3 10 2 4 10 12 13 17 12 13 17 12 13 17 12 12 17 11 12 16 12 13 17 9 10 14 11 12 16 9 9 14 11 12 16 9 10 14 10 11 16 9 10 14 11 12 16 8 9 13 9 9 14 10 11 15 9 9 14 12 13 17 12 13 17 11 11 16 11 12 16 12 13 17 11 12 16 9 10 14 9 9 14 10 11 15 12 13 17 8 9 13 11 12 16 10 11 15 9 10 14 10 11 15 10 11 15 12 13 17 9 10 14 10 10 15 9 10 15 9 9 14 12 12 17 10 11 15 10 10 15 12 13 17 12 13 17 12 13 17 10 11 15 12 13 17 9 9 14 9 10 14 9 9 14 11 11 16 11 12 16 11 11 16 9 10 14 11 12 17 10 11 15 9 9 14 11 11 16 11 12 16 9 10 14 12 13 17 12 12 17 10 10 15 11 12 16 10 11 15 12 13 17 12 13 17 11 12 16 10 11 15 12 12 17 9 10 15 10 11 15 11 12 16 8 9 14 12 13 17 11 12 16 12 13 17 9 10 14 11 12 16 11 11 16 9 10 14 10 11 15 10 10 15 11 12 16 11 11 16 8 9 14 10 11 15 11 12 16 11 12 16 12 13 17 11 12 16 11 12 16 11 12 16 9 9 14 8 9 13 10 11 15 9 10 14 9 10 14 8 9 14 9 10 14 12 12 17 12 13 17 11 12 16 12 12 17 12 13 17 11 11 16 11 12 16 11 12 16 9 10 14 11 12 16 9 9 14 1 2 9 4 6 12 4 6 12 3 4 11 8 21 37 10 23 39 9 22 38 11 24 40 11 24 40 10 23 39 33 53 78 11 24 40 34 54 79 33 53 78 10 23 39 11 24 40 8 21 37 10 23 39 8 21 37 10 23 39 33 53 78 9 22 38 33 53 78 9 22 38 11 24 40 9 22 38 9 22 38 12 10 13 10 7 11 10 8 11 12 10 13 9 7 10 10 8 12 10 8 11 8 5 9 7 5 8 8 5 9 6 4 7 8 5 9 6 4 8
7 5 8 7 4 8 8 6 9 10 8 11 7 5 8 8 6 9 8 6 9 8 5 9 9 7 10 9 6 10 9 7 10 12 9 13 9 7 10 9 22 38 7 20 36 10 23 39 9 22 38 8 21 37 9 22 38 33 53 78 10 23 39 34 54 79 9 22 38 8 21 37 11 24 40 8 21 37 34 54 79 33 53 78 33 53 78 11 24 40 8 21 37 10 23 39 9 22 38 9 22 38 34 54 79 34 54 79 10 23 39 10 23 39 2 4 10 2 3 10 11 11 16 12 13 17 12 13 17 11 12 16 10 10 15 11 12 16 11 12 16 12 13 17 12 13 17 12 13 17 9 10 15 10 10 15 12 12 17 12 12 17 10 11 15 10 11 15 13 13 18 10 11 15 12 13 17 11 12 16 12 13 17 11 12 16 9 10 14 10 10 15 13 14 18 11 12 16 13 13 18 13 13 18 10 11 15 11 12 16 10 10 15 12 12 17 13 13 18 9 10 14 9 10 14 11 11 16 10 11 16 13 14 18 11 11 16 12 13 17 13 13 18 10 11 15 12 13 17 10 10 15 9 10 15 10 11 15 9 10 14 13 13 18 9 10 14 12 13 17 12 12 17 11 12 16 12 13 18 11 12 16 12 13 17 12 13 17 12 13 17 12 12 17 11 12 16 10 11 15 11 12 16 10 10 15 9 10 14 9 10 14 10 11 15 11 11 16 11 11 16 11 12 16 12 13 17 11 12 16 10 10 15 11 11 16 10 11 16 11 12 16 13 13 18 11 12 16 13 13 18 10 10 15 10 10 15 11 12 16 11 11 16 10 11 16 10 10 15 11 12 16 12 12 17 13 13 18 11 12 16 11 12 16 10 11 15 11 11 16 13 13 18 10 11 16 9 10 14 11 12 16 10 11 15 11 12 17 9 10 15 10 11 15 10 11 15 13 13 18 10 10 15 13 13 18 11 11 16 11 11 16 11 12 16 12 13 17 10 11 15 10 10 15 11 12 16 10 11 15 13 13 18 9 10 15 12 12 17 3 5 11 1 3 9 9 22 38 33 53 78 10 23 39 10 23 39 11 24 40 9 22 38 10 23 39 9 22 38 11 24 40 11 24 40 9 22 38 10 23 39 9 22 38 9 22 38 34 54 79 11 24 40 34 54 79 11 24 40 9 22 38 8 21 37 9 22 38 10 23 39 9 22 38 9 22 38 7 20 36 13 10 14 10 8 11 10 8 11 11 9 12 8 6 10 8 6 9 9 7 11 7 5 8 7 5 8 8 5 9 10 7 11 7 5 8
7 4 8 8 6 9 10 7 11 8 6 9 8 6 9 9 6 10 8 6 9 8 6 9 10 7 11 9 6 10 9 7 10 9 7 10 7 20 36 7 20 36 9 22 38 33 53 78 8 21 37 9 22 38 11 24 40 9 22 38 9 22 38 11 24 40 34 54 79 11 24 40 11 24 40 9 22 38 10 23 39 9 22 38 10 23 39 9 22 38 34 54 79 11 24 40 9 22 38 12 25 41 10 23 39 10 23 39 9 22 38 9 22 38 10 23 39 5 7 13 10 10 15 12 13 17 13 14 18 11 12 16 10 10 15 12 12 17 13 13 18 13 14 18 12 12 17 10 10 15 11 12 16 11 12 16 10 11 15 12 13 17 13 14 18 13 14 18 13 14 18 13 13 18 11 12 16 11 12 16 11 12 16 10 11 15 11 12 16 12 13 17 12 13 18 13 13 18 13 13 18 10 11 16 11 11 16 11 11 16 12 12 17 11 12 17 13 13 18 13 14 19 13 14 18 13 14 18 10 11 15 13 14 18 10 10 15 10 10 15 11 12 17 10 11 15 10 11 15 10 11 16 10 10 15 10 11 15 13 13 18 11 11 16 11 12 17 13 13 18 10 10 15 13 14 18 11 12 16 11 12 16 11 12 16 12 12 17 11 12 16 12 12 17 13 13 18 10 10 15 12 13 17 13 13 18 13 13 18 11 12 17 10 11 15 12 12 17 11 12 16 12 13 17 13 14 19 13 14 18 13 14 18 13 14 18 10 11 16 12 13 17 13 13 18 11 11 16 11 12 16 11 12 16 12 12 17 12 13 17 12 13 17 10 10 15 11 11 16 13 13 18 12 13 18 13 13 18 11 12 16 13 14 19 11 11 16 13 13 18 13 14 18 12 13 18 13 14 18 11 12 17 10 11 15 10 11 15 12 13 17 10 10 15 12 12 17 10 10 15 14 14 19 13 14 18 13 14 18 13 13 18 10 11 15 11 12 16 10 10 15 13 13 18 10 10 15 10 10 15 12 13 17 12 13 17 11 12 16 5 7 13 34 54 79 10 23 39 11 24 40 11 24 40 34 54 79 11 24 40 10 23 39 34 54 79 11 24 40 10 23 39 34 54 79 11 24 40 11 24 40 10 23 39 9 22 38 34 54 79 11 24 40 9 22 38 34 54 79 11 24 40 33 53 78 10 23 39 10 23 39 10 23 39 10 23 39 7 20 36 32 52 77 12 10 13 9 7 10 9 7 10 9 7 11 9 6 10 10 8 11 11 9 12 10 7 11 8 5 9 10 7 11 9 6 10
8 5 9 8 5 9 10 7 11 9 7 11 9 7 10 9 7 10 10 7 11 8 6 9 10 7 11 9 7 11 11 8 12 13 10 14 6 19 35 7 20 36 7 20 36 10 23 39 9 22 38 9 22 38 10 23 39 9 22 38 11 24 40 11 24 40 12 25 41 10 23 39 11 24 40 11 24 40 11 24 40 11 24 40 12 25 41 9 22 38 12 25 41 9 22 38 10 23 39 11 24 40 35 55 80 11 24 40 35 55 80 11 24 40 11 24 40 3 5 12 11 12 16 10 11 16 12 13 17 11 12 16 10 11 15 11 11 16 13 13 18 13 14 19 12 12 17 11 12 16 11 11 16 13 14 19 14 14 19 11 11 16 12 13 18 12 13 17 11 11 16 10 11 15 11 11 16 11 11 16 11 11 16 14 14 19 12 13 17 13 14 18 13 14 18 11 12 16 12 13 17 11 12 16 12 12 17 11 11 16 13 13 18 13 14 18 11 11 16 13 14 19 13 14 18 14 14 19 11 12 16 12 12 17 12 13 17 11 12 16 13 14 19 11 11 16 11 12 16 12 13 18 12 12 17 14 14 19 12 12 17 13 13 18 12 13 17 14 14 19 13 13 18 11 12 16 11 11 16 12 12 17 10 11 15 10 11 15 10 11 16 12 13 18 11 11 16 13 14 19 13 14 19 11 12 16 10 11 15 12 12 17 12 13 17 12 12 17 10 11 15 14 14 19 12 13 17 12 13 17 14 15 19 13 13 18 11 12 16 11 11 16 12 13 17 11 11 16 14 14 19 13 14 19 13 14 18 13 13 18 13 13 18 13 14 19 11 11 16 13 14 18 11 12 16 10 11 15 11 12 16 13 13 18 11 11 16 12 13 17 10 11 16 14 14 19 12 12 17 13 13 18 14 14 19 12 13 17 11 12 16 13 14 18 11 12 16 12 12 17 12 13 17 12 12 17 10 11 15 11 12 17 11 11 16 14 15 19 11 11 16 10 11 15 11 12 16 14 14 19 13 13 18 11 11 16 14 14 19 5 7 14 35 55 80 12 25 41 34 54 79 11 24 40 11 24 40 10 23 39 34 54 79 11 24 40 34 54 79 11 24 40 35 55 80 10 23 39 10 23 39 35 55 80 11 24 40 35 55 80 10 23 39 10 23 39 34 54 79 9 22 38 10 23 39 34 54 79 10 23 39 33 53 78 9 22 38 7 20 36 32 52 77 11 9 12 10 8 11 10 8 11 11 9 12 9 6 10 9 7 10 8 5 9 10 7 11 10 8 11 8 6 9 6 4 7
8 6 9 6 4 8 7 5 9 7 5 8 9 7 10 10 8 11 10 8 11 8 6 9 8 6 9 11 8 12 9 7 11 8 21 37 9 22 38 8 21 37 9 22 38 33 53 78 11 24 40 10 23 39 34 54 79 11 24 40 11 24 40 12 25 41 11 24 40 11 24 40 11 24 40 35 55 80 11 24 40 35 55 80 12 25 41 11 24 40 35 55 80 11 24 40 13 26 42 12 25 41 11 24 40 11 24 40 13 26 42 10 23 39 10 23 39 11 24 40 12 13 17 12 13 17 11 12 17 15 15 20 14 15 19 12 13 17 14 14 19 13 13 18 12 12 17 13 14 18 11 12 16 14 14 19 13 14 18 11 12 16 12 12 17 11 12 16 12 12 17 11 12 16 11 12 16 14 15 20 13 14 18 14 15 19 12 12 17 14 15 19 12 13 17 11 12 16 12 12 17 11 12 16 13 14 19 12 13 17 14 14 19 13 13 18 14 14 19 12 13 17 13 14 18 14 15 19 14 15 19 11 12 16 14 14 19 12 12 17 14 14 19 14 15 19 11 12 16 12 13 17 13 13 18 11 12 16 13 13 18 13 14 18 14 14 19 15 15 20 13 13 18 13 14 18 14 15 19 14 15 19 13 13 18 12 12 17 14 15 19 15 15 20 14 15 19 15 15 20 15 15 20 12 12 17 13 13 18 11 12 16 12 12 17 15 15 20 11 11 16 14 15 20 14 14 19 13 14 18 12 13 17 14 14 19 14 15 19 13 13 18 13 13 18 12 13 17 12 13 17 13 13 18 13 13 18 13 13 18 11 12 16 13 14 18 13 14 18 14 15 20 14 14 19 14 14 19 15 15 20 14 15 19 11 12 16 12 12 17 11 12 16 11 12 16 11 12 16 14 15 20 15 15 20 13 14 18 12 12 17 11 12 16 11 12 16 14 14 19 11 12 16 13 14 18 15 15 20 12 13 17 12 13 17 14 15 19 12 12 17 14 14 19 13 14 18 11 12 17 14 14 19 13 14 18 13 13 18 11 24 40 35 55 80 12 25 41 10 23 39 36 56 81 12 25 41 12 25 41 11 24 40 13 26 42 12 25 41 35 55 80 11 24 40 35 55 80 12 25 41 35 55 80 11 24 40 12 25 41 9 22 38 11 24 40 11 24 40 9 22 38 33 53 78 34 54 79 9 22 38 8 21 37 10 23 39 7 20 36 32 52 77 7 20 36 11 8 12 9 7 10 10 8 11 9 6 10 12 9 13 8 6 9 10 7 11 9 7 11 9 6 10 7 4 8
10 7 11 8 5 9 9 6 10 9 7 10 8 6 10 10 7 11 10 8 12 10 7 11 10 7 11 12 10 13 10 8 11 7 20 36 8 21 37 32 52 77 33 53 78 8 21 37 8 21 37 33 53 78 34 54 79 10 23 39 11 24 40 12 25 41 10 23 39 35 55 80 11 24 40 12 25 41 11 24 40 11 24 40 12 25 41 35 55 80 12 25 41 36 56 81 13 26 42 12 25 41 12 25 41 12 25 41 13 26 42 11 24 40 13 26 42 10 23 39 14 14 19 13 13 18 14 15 19 13 14 18 12 13 17 12 12 17 12 13 17 14 15 19 12 12 17 13 13 18 13 13 18 14 14 19 13 14 18 14 15 19 12 13 17 13 13 18 15 15 20 12 13 17 12 13 17 12 13 17 12 12 17 13 13 18 15 16 20 15 16 20 15 15 20 14 15 19 13 13 18 13 14 19 12 12 17 12 12 17 13 13 18 14 15 20 14 15 19 14 15 20 14 14 19 15 15 20 14 15 19 13 13 18 13 14 18 14 14 19 15 15 20 14 14 19 12 13 18 14 15 20 14 14 19 15 16 20 13 13 18 13 14 18 14 15 19 11 12 17 15 16 20 12 13 18 12 12 17 13 14 18 12 13 17 15 15 20 14 15 19 14 15 19 15 15 20 12 13 17 13 13 18 14 14 19 12 12 17 14 14 19 12 13 17 15 15 20 15 15 20 12 12 17 13 14 19 12 12 17 12 12 17 13 14 18 14 15 20 14 15 19 12 13 17 12 12 17 14 15 19 15 15 20 13 13 18 14 14 19 11 12 17 13 13 18 15 15 20 14 15 19 15 16 20 13 14 18 14 15 19 13 14 19 14 15 19 14 15 19 14 15 20 11 12 17 13 13 18 11 12 17 15 15 20 14 15 19 14 15 20 12 12 17 14 15 20 14 14 19 15 15 20 12 13 17 12 12 17 13 13 18 12 12 17 14 14 19 12 13 17 14 14 19 13 14 18 12 13 17 12 12 17 13 13 18 15 15 20 13 26 42 10 23 39 13 26 42 11 24 40 12 25 41 13 26 42 11 24 40 13 26 42 10 23 39 13 26 42 11 24 40 11 24 40 11 24 40 35 55 80 12 25 41 11 24 40 10 23 39 11 24 40 11 24 40 10 23 39 10 23 39 11 24 40 9 22 38 10 23 39 8 21 37 32 52 77 8 21 37 7 20 36 7 20 36 12 10 13 12 9 13 12 9 13 11 9 12 10 7 11 9 7 10 9 6 10 9 7 10 8 6 9 9 7 10
9 6 10 9 6 10 10 7 11 11 8 12 11 9 12 12 9 13 11 9 12 12 9 13 9 7 10 11 9 12 31 51 76 8 21 37 8 21 37 9 22 38 33 53 78 33 53 78 10 23 39 10 23 39 8 21 37 11 24 40 10 23 39 34 54 79 12 25 41 10 23 39 12 25 41 13 26 42 10 23 39 12 25 41 13 26 42 12 25 41 11 24 40 11 24 40 36 56 81 36 56 81 11 24 40 11 24 40 11 24 40 36 56 81 36 56 81 12 25 41 11 24 40 15 15 20 15 16 21 15 16 21 13 13 18 14 14 19 13 14 18 13 13 18 15 16 21 15 16 20 14 14 19 15 15 20 16 16 21 14 14 19 14 15 19 13 14 18 16 16 21 14 15 20 13 13 18 16 16 21 14 14 19 14 15 20 13 14 19 15 16 20 12 13 17 16 16 21 15 15 20 15 15 20 13 14 19 15 16 21 14 15 19 14 15 20 14 15 20 12 13 18 14 14 19 16 16 21 16 16 21 15 16 20 16 16 21 13 13 18 12 12 17 13 14 18 14 15 19 14 15 20 15 15 20 13 13 18 12 12 17 15 15 20 14 15 19 15 16 20 14 14 19 12 13 18 12 13 17 12 12 17 13 14 18 15 16 20 15 15 20 13 13 18 15 16 20 13 14 18 12 13 17 14 15 19 14 15 20 12 13 17 13 13 18 16 16 21 12 13 18 12 13 17 14 14 19 14 15 19 14 14 19 14 15 19 14 14 19 14 14 19 16 16 21 14 15 19 16 16 21 15 16 20 14 14 19 13 13 18 12 13 17 12 12 17 16 16 21 12 13 18 16 16 21 15 15 20 13 14 19 13 13 18 13 14 19 15 15 20 15 15 20 16 16 21 14 15 19 13 14 18 13 14 19 15 16 20 16 16 21 12 13 18 15 16 20 16 16 21 15 16 21 13 14 19 12 13 17 15 16 21 12 12 17 16 16 21 14 14 19 15 15 20 13 13 18 14 14 19 13 13 18 13 14 18 13 26 42 36 56 81 13 26 42 12 25 41 13 26 42 12 25 41 12 25 41 12 25 41 36 56 81 12 25 41 36 56 81 11 24 40 12 25 41 36 56 81 13 26 42 13 26 42 13 26 42 12 25 41 35 55 80 35 55 80 10 23 39 9 22 38 9 22 38 34 54 79 10 23 39 9 22 38 8 21 37 9 22 38 8 21 37 7 20 36 7 20 36 10 8 11 9 6 10 8 6 10 12 9 13 10 7 11 10 7 11 7 4 8 8 5 9 6 4 7
9 7 10 8 6 9 8 5 9 8 6 9 10 7 11 10 8 11 9 6 10 9 6 10 10 8 12 13 10 14 8 21 37 8 21 37 8 21 37 8 21 37 9 22 38 10 23 39 8 21 37 10 23 39 8 21 37 9 22 38 35 55 80 12 25 41 12 25 41 36 56 81 11 24 40 11 24 40 36 56 81 12 25 41 12 25 41 37 57 82 13 26 42 12 25 41 36 56 81 36 56 81 13 26 42 14 27 43 12 25 41 13 26 42 14 27 43 37 57 82 11 24 40 13 13 18 14 14 19 16 17 21 14 15 19 13 13 18 16 17 22 15 15 20 13 13 18 14 14 19 15 15 20 14 15 19 16 16 21 16 16 21 14 14 19 13 14 18 16 16 21 15 15 20 14 15 19 16 16 21 13 13 18 14 14 19 14 15 19 16 17 21 14 15 20 14 14 19 13 13 18 15 15 20 15 16 21 13 13 18 14 14 19 15 16 20 15 16 20 13 13 18 15 15 20 17 17 22 13 13 18 13 14 18 14 14 19 15 15 20 16 16 21 13 14 18 13 13 18 16 16 21 16 16 21 15 15 20 13 14 18 16 17 21 14 15 19 14 14 19 13 14 18 14 14 19 14 15 20 16 16 21 15 15 20 13 14 18 13 13 18 14 14 19 15 15 20 14 14 19 13 14 18 15 15 20 15 15 20 17 17 22 15 16 21 15 16 20 16 16 21 16 17 21 16 17 22 15 15 20 13 13 18 16 16 21 13 14 18 15 16 21 14 14 19 16 16 21 15 15 20 16 16 21 16 16 21 16 16 21 15 15 20 14 15 19 17 17 22 15 15 20 14 14 19 14 14 19 15 16 21 16 17 21 16 17 21 15 15 20 13 13 18 15 15 20 15 15 20 14 14 19 15 15 20 15 16 20 16 16 21 16 17 21 16 17 22 14 14 19 13 14 18 16 16 21 16 16 21 16 16 21 13 14 19 13 14 18 15 15 20 13 13 18 13 13 18 14 14 19 16 17 22 15 16 20 13 26 42 12 25 41 12 25 41 37 57 82 12 25 41 13 26 42 12 25 41 12 25 41 12 25 41 37 57 82 13 26 42 13 26 42 12 25 41 11 24 40 13 26 42 11 24 40 11 24 40 11 24 40 12 25 41 34 54 79 11 24 40 9 22 38 33 53 78 11 24 40 9 22 38 9 22 38 7 20 36 7 20 36 32 52 77 32 52 77 8 21 37 9 7 11 10 8 12 11 8 12 9 7 10 10 8 11 8 5 9 9 6 10 8 6 9 10 8 11
28 17 15 26 16 14 28 18 16 28 18 15 26 16 13 26 16 13 30 19 17 28 17 15 30 20 17 24 29 39 26 31 41 25 30 40 50 62 81 27 32 42 28 33 43 51 63 82 28 33 43 27 32 42 29 34 44 29 34 44 29 34 44 53 65 84 53 65 84 53 65 84 30 35 45 30 35 45 54 66 85 31 36 46 32 37 47 32 37 47 32 37 47 55 67 86 31 36 46 32 37 47 55 67 86 30 35 45 30 35 45 55 67 86 30 35 45 55 67 86 55 67 86 31 36 46 13 14 19 14 14 19 16 16 21 16 17 22 14 15 20 14 15 19 16 17 21 15 15 20 15 15 20 15 15 20 17 17 22 15 15 20 13 14 19 17 17 22 17 17 22 15 16 20 15 16 20 17 17 22 16 16 21 15 16 20 16 16 21 16 17 21 15 16 21 16 16 21 14 14 19 16 17 22 15 16 20 15 16 20 14 15 20 16 16 21 15 16 21 15 15 20 14 14 19 17 17 22 16 17 21 16 17 21 14 15 20 14 15 19 16 16 21 14 15 19 15 15 20 14 14 19 14 15 20 14 15 19 17 17 22 15 15 20 16 16 21 14 15 20 15 16 20 14 15 19 14 14 19 14 15 19 16 16 21 17 18 22 14 14 19 17 17 22 17 18 22 15 15 20 15 16 20 16 16 21 15 15 20 14 15 19 14 14 19 13 14 19 15 15 20 15 15 20 15 16 20 16 16 21 14 14 19 14 14 19 15 15 20 15 15 20 17 17 22 17 17 22 16 16 21 16 17 22 14 14 19 14 15 19 14 14 19 15 16 21 17 18 22 15 15 20 14 14 19 14 14 19 13 14 19 15 15 20 15 16 20 16 17 21 14 14 19 15 15 20 16 16 21 17 17 22 15 15 20 16 16 21 14 15 20 16 16 21 14 14 19 14 14 19 14 14 19 17 17 22 14 14 19 16 16 21 16 17 21 16 16 21 16 17 21 16 16 21 15 16 20 17 17 22 16 16 21 30 35 45 30 35 45 32 37 47 32 37 47 31 36 46 55 67 86 32 37 47 32 37 47 55 67 86 55 67 86 30 35 45 31 36 46 30 35 45 32 37 47 31 36 46 54 66 85 30 35 45 53 65 84 29 34 44 30 35 45 27 32 42 27 32 42 28 33 43 29 34 44 51 63 82 26 31 41 28 33 43 26 31 41 50 62 81 49 61 80 50 62 81 25 30 40 49 61 80 29 18 16 29 19 17 28 18 16 27 16 14 29 19 16 25 15 12 27 16 14 27 16 14
25 15 13 25 15 12 26 16 13 26 15 13 29 18 16 26 16 13 27 16 14 28 18 15 28 17 15 49 61 80 24 29 39 25 30 40 27 32 42 25 30 40 26 31 41 28 33 43 27 32 42 26 31 41 27 32 42 27 32 42 29 34 44 29 34 44 28 33 43 54 66 85 31 36 46 54 66 85 31 36 46 54 66 85 55 67 86 30 35 45 32 37 47 56 68 87 30 35 45 30 35 45 31 36 46 32 37 47 31 36 46 33 38 48 31 36 46 30 35 45 32 37 47 55 67 86 14 15 19 15 15 20 16 17 22 16 16 21 15 15 20 16 17 21 15 16 21 15 15 20 14 15 19 15 15 20 17 17 22 16 17 21 16 16 21 18 18 23 17 17 22 15 15 20 16 17 21 17 17 22 15 15 20 18 18 23 15 16 20 14 15 20 17 18 23 16 16 21 18 18 23 14 14 19 16 16 21 17 17 22 16 17 21 16 16 21 16 17 22 15 15 20 16 16 21 17 18 23 16 16 21 16 17 22 16 16 21 14 15 19 15 15 20 14 14 19 15 15 20 15 15 20 16 16 21 16 17 22 16 16 21 16 17 21 16 16 21 14 15 19 18 18 23 18 18 23 17 17 22 17 17 22 15 16 20 17 17 22 14 15 19 16 17 22 16 16 21 17 18 23 16 16 21 16 16 21 14 14 19 14 15 20 17 17 22 16 16 21 15 15 20 14 14 19 17 18 22 14 15 19 15 15 20 14 14 19 16 16 21 15 15 20 14 14 19 16 16 21 15 15 20 14 14 19 17 17 22 16 16 21 17 17 22 17 18 23 16 16 21 17 17 22 15 16 20 16 16 21 17 18 22 15 16 21 17 18 22 15 15 20 14 15 20 16 16 21 15 15 20 16 16 21 14 15 20 17 18 23 16 16 21 15 15 20 15 16 20 14 14 19 16 16 21 15 16 20 17 17 22 17 18 22 17 18 22 17 18 22 15 16 20 17 18 23 16 17 22 15 15 20 16 16 21 31 36 46 31 36 46 31 36 46 32 37 47 31 36 46 31 36 46 31 36 46 30 35 45 31 36 46 31 36 46 31 36 46 32 37 47 31 36 46 55 67 86 32 37 47 30 35 45 54 66 85 30 35 45 31 36 46 30 35 45 29 34 44 29 34 44 29 34 44 29 34 44 52 64 83 51 63 82 26 31 41 50 62 81 26 31 41 27 32 42 25 30 40 26 31 41 24 29 39 29 18 16 28 17 15 27 16 14 27 16 14 28 17 15 26 15 13 28 18 15 28 18 15
4 3 8 5 3 8 5 4 9 3 1 6 5 3 8 5 4 9 7 5 10 5 4 9 2 16 33 3 17 34 2 16 33 3 17 34 2 16 33 3 17 34 4 18 35 3 17 34 28 49 75 28 49 75 4 18 35 7 21 38 6 20 37 6 20 37 5 19 36 6 20 37 8 22 39 6 20 37 8 22 39 9 23 40 8 22 39 8 22 39 33 54 80 8 22 39 9 23 40 10 24 41 10 24 41 33 54 80 8 22 39 8 22 39 10 24 41 9 23 40 9 23 40 8 22 39 14 27 43 18 18 23 18 18 23 18 18 23 15 15 20 17 17 22 15 16 20 17 17 22 16 17 22 18 18 23 18 18 23 15 15 20 16 17 21 18 18 23 16 16 21 16 16 21 18 18 23 15 15 20 15 15 20 18 18 23 16 16 21 18 19 23 15 16 21 16 16 21 15 16 20 17 17 22 15 16 20 15 15 20 16 16 21 18 19 23 17 17 22 15 15 20 15 16 20 15 15 20 18 18 23 18 19 23 18 18 23 15 15 20 16 16 21 15 15 20 16 16 21 17 18 22 15 15 20 17 17 22 15 15 20 16 16 21 17 18 23 16 16 21 18 19 24 17 17 22 15 15 20 15 16 20 16 16 21 16 17 22 15 15 20 16 16 21 18 18 23 18 18 23 18 19 23 18 19 24 16 16 21 17 18 22 16 16 21 15 15 20 16 17 21 17 17 22 15 15 20 16 16 21 15 16 20 15 15 20 17 18 23 18 19 23 17 17 22 18 18 23 14 15 20 16 16 21 18 18 23 17 18 22 15 15 20 18 18 23 15 15 20 17 17 22 18 18 23 15 16 20 15 16 20 17 17 22 15 16 21 16 16 21 16 17 21 15 16 21 17 17 22 16 16 21 17 17 22 17 17 22 18 18 23 15 15 20 15 16 20 15 15 20 17 17 22 17 18 22 16 16 21 15 16 20 17 18 22 15 16 20 18 18 23 17 17 22 18 18 23 17 18 22 15 28 44 10 24 41 9 23 40 8 22 39 8 22 39 8 22 39 33 54 80 9 23 40 33 54 80 9 23 40 8 22 39 10 24 41 32 53 79 9 23 40 32 53 79 8 22 39 8 22 39 7 21 38 31 52 78 5 19 36 7 21 38 5 19 36 6 20 37 29 50 76 6 20 37 5 19 36 5 19 36 3 17 34 4 18 35 3 17 34 4 18 35 3 17 34 2 16 33 26 47 73 26 47 73 6 5 9 6 4 9 6 5 10 5 3 8 3 1 6 5 3 8 3 2 7
3 1 6 6 4 9 4 2 7 4 3 7 3 1 6 4 2 7 6 4 9 5 3 8 1 15 32 2 16 33 1 15 32 26 47 73 3 17 34 2 16 33 2 16 33 4 18 35 28 49 75 3 17 34 28 49 75 4 18 35 5 19 36 6 20 37 4 18 35 31 52 78 7 21 38 6 20 37 8 22 39 31 52 78 9 23 40 8 22 39 9 23 40 33 54 80 9 23 40 9 23 40 9 23 40 33 54 80 8 22 39 11 25 42 11 25 42 34 55 81 10 24 41 10 24 41 38 58 83 18 18 23 16 17 22 18 18 23 19 19 24 15 15 20 15 16 20 19 19 24 17 17 22 16 16 21 17 17 22 16 17 22 16 17 21 18 18 23 16 17 21 17 18 23 19 19 24 16 16 21 18 18 23 16 16 21 16 16 21 17 17 22 18 19 24 17 17 22 17 18 22 17 17 22 18 18 23 16 17 22 17 17 22 18 18 23 19 19 24 15 16 20 15 16 20 18 19 24 15 16 21 17 17 22 17 18 23 17 17 22 16 16 21 17 17 22 17 17 22 17 18 22 18 18 23 17 17 22 18 18 23 19 19 24 17 17 22 16 16 21 17 18 23 16 16 21 16 16 21 15 16 21 16 16 21 19 19 24 18 19 24 17 18 22 19 19 24 17 17 22 17 17 22 16 16 21 18 18 23 16 16 21 17 18 22 19 19 24 16 16 21 16 17 21 18 18 23 18 18 23 18 18 23 18 18 23 16 17 22 17 17 22 16 16 21 17 18 23 16 16 21 17 17 22 19 19 24 18 18 23 15 16 21 17 18 22 16 16 21 19 19 24 16 16 21 18 18 23 15 16 20 16 17 21 19 19 24 16 16 21 18 18 23 18 18 23 17 17 22 16 17 21 17 17 22 15 16 21 18 18 23 16 16 21 17 17 22 19 19 24 17 17 22 19 19 24 16 16 21 16 17 21 19 19 24 18 18 23 19 19 24 15 16 21 18 18 23 18 18 23 13 26 42 10 24 41 9 23 40 10 24 41 10 24 41 10 24 41 10 24 41 8 22 39 33 54 80 8 22 39 9 23 40 8 22 39 33 54 80 9 23 40 7 21 38 8 22 39 6 20 37 7 21 38 7 21 38 8 22 39 5 19 36 6 20 37 7 21 38 4 18 35 4 18 35 28 49 75 5 19 36 27 48 74 28 49 75 5 19 36 27 48 74 1 15 32 1 15 32 26 47 73 26 47 73 5 3 8 7 6 11 3 2 7 5 3 8 4 2 7 3 2 7 3 2 6
4 2 7 4 2 7 6 4 9 7 5 10 4 2 7 5 3 8 7 6 11 0 14 31 3 17 34 2 16 33 1 15 32 26 47 73 4 18 35 27 48 74 5 19 36 3 17 34 3 17 34 6 20 37 6 20 37 6 20 37 5 19 36 6 20 37 5 19 36 6 20 37 6 20 37 31 52 78 9 23 40 7 21 38 9 23 40 32 53 79 32 53 79 7 21 38 10 24 41 10 24 41 9 23 40 10 24 41 8 22 39 33 54 80 10 24 41 10 24 41 11 25 42 34 55 81 39 59 84 14 27 43 17 17 22 16 17 22 19 19 24 19 19 24 16 16 21 16 16 21 18 18 23 16 16 21 18 18 23 17 17 22 16 16 21 19 19 24 16 17 22 19 19 24 17 18 23 16 16 21 19 19 24 16 17 21 19 20 24 19 20 25 19 20 25 17 17 22 18 19 23 19 19 24 19 19 24 17 17 22 16 16 21 16 16 21 20 20 25 20 20 25 17 17 22 18 18 23 19 19 24 16 17 22 19 19 24 16 17 22 18 19 24 16 16 21 19 19 24 18 18 23 17 17 22 18 18 23 18 19 23 17 17 22 17 17 22 18 18 23 16 16 21 18 18 23 18 18 23 19 20 25 18 18 23 18 18 23 18 18 23 18 18 23 16 16 21 17 17 22 20 20 25 16 17 22 16 16 21 20 20 25 17 18 23 19 20 25 17 17 22 18 18 23 18 18 23 19 19 24 19 19 24 18 18 23 17 17 22 19 19 24 17 17 22 19 19 24 18 18 23 16 16 21 17 17 22 16 16 21 17 18 23 16 17 22 17 17 22 19 19 24 19 19 24 17 18 22 18 19 24 19 20 25 18 18 23 19 19 24 19 19 24 18 18 23 19 20 25 17 17 22 17 17 22 19 20 25 18 19 23 17 17 22 16 17 21 17 18 22 18 18 23 16 16 21 19 20 25 18 18 23 16 17 22 19 19 24 19 19 24 16 16 21 16 17 21 14 27 43 14 27 43 9 23 40 10 24 41 9 23 40 11 25 42 10 24 41 34 55 81 10 24 41 8 22 39 8 22 39 33 54 80 33 54 80 10 24 41 10 24 41 32 53 79 9 23 40 7 21 38 8 22 39 6 20 37 7 21 38 6 20 37 7 21 38 7 21 38 4 18 35 6 20 37 4 18 35 4 18 35 4 18 35 4 18 35 5 19 36 4 18 35 1 15 32 2 16 33 26 47 73 2 16 33 3 17 34 6 4 9 7 5 10 4 2 7 5 3 8 3 1 6 5 3 8
4 2 7 4 3 8 6 5 10 3 2 7 5 3 8 4 2 7 4 2 7 0 14 31 1 15 32 1 15 32 1 15 32 27 48 74 2 16 33 3 17 34 27 48 74 28 49 75 28 49 75 29 50 76 6 20 37 5 19 36 6 20 37 5 19 36 30 51 77 8 22 39 8 22 39 6 20 37 7 21 38 7 21 38 9 23 40 7 21 38 7 21 38 9 23 40 9 23 40 9 23 40 33 54 80 34 55 81 34 55 81 10 24 41 34 55 81 11 25 42 11 25 42 10 24 41 15 28 44 14 27 43 16 17 22 18 18 23 18 18 23 19 19 24 18 18 23 18 18 23 18 19 23 19 20 25 17 18 23 20 20 25 18 18 23 17 17 22 18 18 23 18 18 23 19 19 24 17 17 22 17 18 23 18 18 23 20 20 25 17 18 23 17 18 23 17 17 22 20 20 25 17 17 22 17 17 22 18 18 23 19 19 24 18 18 23 19 19 24 18 19 24 18 18 23 17 18 23 19 20 25 20 20 25 17 17 22 17 18 23 20 20 25 19 19 24 17 17 22 19 19 24 18 18 23 19 19 24 20 20 25 18 19 24 16 17 22 19 20 25 19 19 24 18 18 23 17 17 22 19 20 25 20 20 25 19 19 24 17 18 23 18 18 23 20 20 25 17 17 22 16 17 22 18 18 23 17 18 22 17 17 22 17 17 22 19 19 24 20 20 25 19 19 24 18 18 23 19 19 24 17 18 23 16 17 22 20 20 25 20 20 25 18 19 24 20 20 25 18 18 23 19 19 24 18 18 23 20 20 25 17 17 22 19 19 24 20 20 25 20 20 25 19 19 24 18 18 23 19 19 24 20 20 25 20 20 25 18 18 23 19 19 24 19 19 24 17 17 22 20 20 25 17 17 22 18 18 23 16 17 22 18 18 23 19 19 24 20 20 25 19 20 24 18 18 23 20 20 25 19 19 24 20 20 25 18 18 23 18 18 23 19 19 24 18 18 23 39 59 84 15 28 44 9 23 40 10 24 41 11 25 42 9 23 40 35 56 82 12 26 43 11 25 42 9 23 40 9 23 40 10 24 41 32 53 79 33 54 80 32 53 79 9 23 40 6 20 37 31 52 78 8 22 39 7 21 38 6 20 37 7 21 38 7 21 38 5 19 36 6 20 37 5 19 36 5 19 36 5 19 36 2 16 33 4 18 35 27 48 74 27 48 74 4 18 35 2 16 33 3 17 34 0 14 31 1 15 32 5 3 8 4 2 7 4 2 7 5 3 8 3 1 6 3 1 6
3 2 7 5 3 8 5 3 8 4 2 7 4 3 8 5 3 8 4 3 8 1 15 32 1 15 32 3 17 34 3 17 34 2 16 33 2 16 33 27 48 74 27 48 74 4 18 35 5 19 36 28 49 75 4 18 35 6 20 37 4 18 35 5 19 36 30 51 77 7 21 38 7 21 38 6 20 37 9 23 40 7 21 38 8 22 39 7 21 38 7 21 38 9 23 40 10 24 41 10 24 41 11 25 42 34 55 81 34 55 81 35 56 82 12 26 43 12 26 43 11 25 42 11 25 42 14 27 43 17 30 46 19 20 25 18 18 23 18 18 23 18 18 23 19 19 24 21 21 26 21 21 26 18 19 24 20 20 25 17 17 22 19 19 24 20 20 25 20 20 25 18 18 23 18 18 23 19 19 24 20 21 26 21 21 26 20 20 25 19 19 24 21 21 26 21 21 26 17 17 22 19 20 25 19 19 24 19 19 24 18 18 23 17 18 23 18 19 24 19 19 24 20 20 25 19 20 25 20 20 25 18 18 23 18 18 23 19 20 25 20 20 25 18 18 23 19 19 24 18 19 24 18 18 23 18 18 23 20 21 26 20 21 26 18 18 23 18 18 23 21 21 26 20 20 25 20 20 25 18 18 23 18 18 23 19 19 24 20 20 25 17 17 22 19 19 24 21 21 26 19 20 25 18 18 23 19 19 24 20 21 26 20 20 25 18 19 24 19 19 24 19 19 24 17 17 22 19 19 24 18 18 23 17 18 23 21 21 26 20 21 26 19 19 24 20 20 25 18 18 23 21 21 26 18 18 23 18 18 23 21 21 26 17 17 22 19 19 24 20 20 25 20 21 26 19 19 24 20 20 25 18 18 23 20 20 25 19 19 24 19 19 24 21 21 26 20 20 25 17 17 22 19 19 24 19 20 24 21 21 26 20 20 25 18 18 23 19 20 25 20 21 25 19 20 24 17 18 23 20 21 26 19 19 24 20 20 25 18 18 23 17 17 22 19 19 24 15 28 44 40 60 85 9 23 40 35 56 82 10 24 41 11 25 42 12 26 43 10 24 41 34 55 81 10 24 41 9 23 40 33 54 80 33 54 80 33 54 80 7 21 38 9 23 40 7 21 38 8 22 39 5 19 36 5 19 36 30 51 77 30 51 77 6 20 37 29 50 76 5 19 36 6 20 37 28 49 75 5 19 36 4 18 35 5 19 36 3 17 34 4 18 35 1 15 32 3 17 34 3 17 34 2 16 33 25 46 72 6 4 9 4 2 7 7 5 10 3 2 7 3 1 6 3 2 7
4 2 7 4 2 7 5 4 9 4 2 7 7 5 10 4 2 7 7 5 10 1 15 32 0 14 31 3 17 34 2 16 33 1 15 32 27 48 74 4 18 35 4 18 35 5 19 36 3 17 34 29 50 76 6 20 37 5 19 36 6 20 37 29 50 76 6 20 37 31 52 78 31 52 78 8 22 39 8 22 39 31 52 78 9 23 40 32 53 79 8 22 39 7 21 38 9 23 40 33 54 80 8 22 39 34 55 81 11 25 42 10 24 41 35 56 82 12 26 43 12 26 43 36 57 83 17 30 46 17 30 46 19 19 24 21 21 26 20 20 25 21 21 26 21 21 27 18 18 23 21 21 26 20 20 25 21 21 26 20 20 25 21 21 26 18 18 23 21 21 26 18 19 24 19 20 25 20 20 25 19 19 24 20 20 25 19 20 25 19 19 24 20 20 25 19 19 24 20 20 25 20 20 25 20 20 25 19 19 24 21 21 26 19 19 24 20 20 25 20 20 25 19 19 24 19 20 25 21 21 26 20 21 26 18 18 23 19 19 24 21 22 27 19 19 24 21 21 26 19 19 24 20 20 25 18 18 23 22 22 27 18 18 23 20 20 25 19 19 24 20 20 25 18 18 23 20 20 25 21 21 26 21 21 26 20 20 25 18 18 23 19 19 24 21 21 26 19 19 24 21 21 26 21 21 26 18 19 24 18 18 23 18 19 24 18 18 23 18 18 24 18 18 23 19 19 24 19 19 24 20 20 25 18 18 23 18 19 24 21 21 26 19 19 24 20 20 25 20 20 25 20 20 25 19 19 24 19 20 25 20 20 25 19 19 24 21 22 27 18 18 23 18 19 24 21 21 26 19 20 25 20 20 25 20 21 26 18 19 24 19 19 24 19 19 24 21 21 26 18 18 23 19 20 25 18 18 23 20 20 25 19 19 24 20 21 26 19 19 24 21 22 27 19 19 24 18 18 23 20 20 25 19 19 24 21 21 26 20 20 25 18 18 23 18 18 23 40 60 85 16 29 45 11 25 42 12 26 43 35 56 82 35 56 82 12 26 43 11 25 42 34 55 81 11 25 42 8 22 39 33 54 80 33 54 80 10 24 41 8 22 39 6 20 37 7 21 38 31 52 78 7 21 38 30 51 77 5 19 36 6 20 37 5 19 36 6 20 37 5 19 36 5 19 36 5 19 36 5 19 36 4 18 35 4 18 35 27 48 74 2 16 33 4 18 35 26 47 73 2 16 33 1 15 32 25 46 72 4 3 8 7 5 10 5 3 8 7 5 10 6 4 9 3 1 6
13 8 11 12 7 10 12 7 10 13 9 12 6 4 9 7 5 10 2 16 33 9 20 35 32 50 74 9 20 35 8 19 34 1 15 32 3 17 34 3 17 34 9 20 35 12 23 38 11 22 37 36 54 78 29 50 76 4 18 35 5 19 36 36 54 78 12 23 38 13 24 39 14 25 40 7 21 38 6 20 37 8 22 39 14 25 40 39 57 81 17 28 43 40 58 82 9 23 40 33 54 80 9 23 40 16 27 42 17 28 43 41 59 83 17 28 43 35 56 82 12 26 43 13 27 44 16 29 45 41 61 86 16 29 45 21 21 26 20 20 25 19 19 25 21 21 26 21 22 27 19 19 24 20 20 25 22 22 27 21 21 26 22 22 27 21 21 26 21 22 27 20 21 26 19 19 24 19 19 24 19 19 24 18 19 24 21 21 26 19 19 24 21 21 26 19 20 25 21 21 26 20 21 26 22 22 27 21 21 27 21 21 26 19 19 24 21 21 26 18 19 24 21 21 26 19 19 24 19 19 24 21 21 26 21 21 26 20 20 25 22 22 27 21 21 27 21 21 26 18 19 24 20 20 25 21 21 26 20 20 25 19 19 24 18 18 23 20 21 26 19 20 25 21 21 26 21 22 27 22 22 27 19 19 24 20 20 25 19 19 24 20 20 25 20 20 25 19 20 25 22 22 27 21 21 27 19 19 24 19 19 24 20 20 25 21 21 26 21 21 26 22 22 27 22 22 27 21 21 27 19 20 25 19 19 24 22 22 27 21 21 26 21 21 26 21 21 26 20 20 25 21 21 26 19 19 24 21 21 26 20 21 26 19 19 24 20 20 25 21 21 26 18 18 23 19 19 24 20 21 26 20 20 25 21 21 26 21 21 26 20 21 26 20 20 25 22 22 27 20 20 25 21 21 26 22 22 27 22 22 27 20 20 25 19 19 25 20 20 25 20 20 25 19 19 24 20 20 25 20 20 25 21 21 26 20 21 26 19 19 24 22 22 27 16 29 45 40 60 85 15 28 44 11 25 42 36 57 83 10 24 41 18 29 44 19 30 45 17 28 43 16 27 42 10 24 41 11 25 42 10 24 41 16 27 42 14 25 40 40 58 82 14 25 40 31 52 78 8 22 39 8 22 39 13 24 39 13 24 39 11 22 37 36 54 78 4 18 35 5 19 36 29 50 76 11 22 37 12 23 38 11 22 37 11 22 37 4 18 35 2 16 33 2 16 33 10 21 36 9 20 35 9 20 35 9 20 35 0 14 31 7 5 10 5 3 8 14 9 13 13 8 11 11 6 9
12 7 11 12 7 10 14 9 12 13 8 11 6 4 9 5 3 8 2 16 33 7 18 33 8 19 34 10 21 36 10 21 36 3 17 34 4 18 35 4 18 35 34 52 76 12 23 38 10 21 36 13 24 39 6 20 37 6 20 37 30 51 77 11 22 37 13 24 39 15 26 41 14 25 40 7 21 38 8 22 39 8 22 39 15 26 41 39 57 81 16 27 42 17 28 43 8 22 39 8 22 39 10 24 41 18 29 44 41 59 83 18 29 44 18 29 44 12 26 43 12 26 43 36 57 83 16 29 45 17 30 46 41 61 86 21 21 26 21 21 26 19 19 25 19 19 24 19 19 24 19 20 25 20 20 25 21 21 26 22 22 27 21 21 26 22 22 28 19 20 25 19 19 24 23 23 28 21 21 26 20 20 25 20 20 25 23 23 28 22 22 27 21 21 26 22 22 27 19 20 25 22 22 27 22 22 27 21 21 26 22 22 27 21 21 26 22 22 27 19 19 25 22 23 28 19 19 24 20 21 26 22 22 27 21 21 26 20 20 25 22 22 27 20 20 25 23 23 28 22 22 27 19 19 24 22 23 28 22 22 27 19 19 24 23 23 28 20 21 26 19 19 24 20 20 25 23 23 28 22 23 28 23 23 28 19 19 24 22 22 27 22 22 27 20 20 25 20 20 25 22 22 27 21 21 26 19 19 24 21 21 26 22 23 28 23 23 28 19 19 24 19 19 24 19 19 24 23 23 28 19 19 24 20 20 25 20 20 26 22 22 27 21 22 27 22 22 27 20 20 25 20 20 25 21 21 26 21 21 26 22 22 27 22 22 27 22 22 27 20 20 25 21 21 26 20 20 25 22 22 27 20 20 25 20 20 25 19 19 24 21 21 27 19 19 24 23 23 28 23 23 28 22 22 27 22 22 27 22 23 28 23 23 28 22 22 27 19 19 24 21 22 27 19 19 24 19 19 24 21 21 26 21 21 26 20 20 25 20 20 25 22 22 27 18 31 47 16 29 45 42 62 87 13 27 44 13 27 44 36 57 83 18 29 44 17 28 43 18 29 44 16 27 42 10 24 41 8 22 39 10 24 41 17 28 43 14 25 40 39 57 81 15 26 41 9 23 40 7 21 38 8 22 39 38 56 80 37 55 79 13 24 39 14 25 40 29 50 76 5 19 36 3 17 34 12 23 38 35 53 77 11 22 37 10 21 36 4 18 35 2 16 33 4 18 35 9 20 35 9 20 35 9 20 35 9 20 35 25 46 72 7 5 10 5 3 8 11 6 9 11 6 9 13 8 11
14 9 12 12 7 10 13 8 11 14 10 13 7 5 10 8 6 11 1 15 32 7 18 33 10 21 36 8 19 34 34 52 76 4 18 35 27 48 74 3 17 34 10 21 36 9 20 35 10 21 36 11 22 37 4 18 35 5 19 36 5 19 36 13 24 39 12 23 38 13 24 39 14 25 40 31 52 78 8 22 39 8 22 39 15 26 41 15 26 41 39 57 81 16 27 42 33 54 80 9 23 40 11 25 42 16 27 42 18 29 44 19 30 45 17 28 43 10 24 41 11 25 42 11 25 42 18 31 47 17 30 46 42 62 87 20 20 25 21 21 26 20 20 25 20 20 25 19 20 25 22 23 28 21 21 26 21 21 26 21 21 26 22 22 27 23 23 28 22 22 28 19 20 25 22 23 28 22 22 27 21 21 26 23 23 28 22 22 27 22 22 28 22 22 27 22 23 28 22 22 27 21 21 26 23 23 28 20 20 25 23 23 28 20 21 26 23 23 28 22 22 27 21 21 26 20 20 25 22 22 27 23 23 28 21 21 27 20 20 25 21 21 26 21 21 26 20 20 26 22 22 27 21 21 26 20 20 25 21 22 27 20 21 26 20 21 26 21 21 26 22 22 27 21 22 27 21 21 26 21 21 26 20 20 25 21 21 26 23 23 28 23 23 28 21 21 26 21 21 26 22 22 28 22 22 27 21 21 27 22 22 27 20 20 26 22 23 28 20 20 25 23 23 28 21 21 26 21 21 27 22 22 27 21 21 27 23 23 28 22 22 27 19 19 25 20 20 25 21 21 26 20 20 25 22 23 28 20 20 26 23 23 28 20 20 25 21 21 26 20 20 25 21 21 26 22 22 27 20 20 25 23 23 28 21 21 26 21 21 26 22 22 27 22 22 27 22 23 28 20 21 26 19 19 25 20 20 25 22 22 28 21 22 27 19 19 25 23 23 28 22 22 28 22 22 27 23 23 28 21 21 27 21 21 26 19 20 25 23 23 28 22 22 27 18 31 47 19 32 48 41 61 86 13 27 44 11 25 42 35 56 82 19 30 45 18 29 44 41 59 83 16 27 42 34 55 81 10 24 41 33 54 80 40 58 82 17 28 43 16 27 42 14 25 40 6 20 37 6 20 37 31 52 78 15 26 41 14 25 40 37 55 79 14 25 40 6 20 37 29 50 76 6 20 37 12 23 38 10 21 36 10 21 36 11 22 37 27 48 74 2 16 33 4 18 35 9 20 35 9 20 35 32 50 74 8 19 34 0 13 30 6 5 10 5 3 8 12 7 11 14 9 13 14 9 12
11 6 9 12 7 10 11 6 9 12 7 10 6 4 9 5 3 8 1 15 32 33 51 75 9 20 35 9 20 35 9 20 35 4 18 35 27 48 74 3 17 34 11 22 37 10 21 36 11 22 37 36 54 78 5 19 36 6 20 37 29 50 76 11 22 37 13 24 39 15 26 41 15 26 41 8 22 39 7 21 38 6 20 37 14 25 40 16 27 42 15 26 41 16 27 42 10 24 41 11 25 42 11 25 42 17 28 43 17 28 43 17 28 43 17 28 43 11 25 42 10 24 41 12 26 43 41 61 86 16 29 45 42 62 87 21 21 26 23 23 28 21 21 26 21 21 26 22 22 27 20 20 25 23 23 28 22 22 27 20 20 25 22 22 27 19 20 25 20 20 25 21 21 26 21 22 27 22 22 27 21 21 26 21 21 26 20 20 25 20 20 26 21 21 26 22 22 28 20 20 25 20 20 25 21 21 26 23 23 28 21 21 27 23 23 28 23 23 28 21 21 26 22 22 27 20 20 25 21 21 26 20 20 25 20 20 25 21 21 26 22 22 27 20 20 25 21 21 27 21 21 26 20 20 25 20 20 25 20 20 25 23 23 28 23 23 28 22 22 27 20 20 26 20 21 26 20 20 25 23 23 28 21 21 26 21 22 27 20 21 26 21 21 26 20 20 25 21 21 26 23 23 28 20 20 25 23 23 28 22 22 27 21 21 26 21 21 26 20 21 26 20 20 25 21 21 26 23 23 28 22 22 28 22 22 27 21 21 26 21 21 26 20 20 25 20 20 25 20 20 26 22 22 28 23 23 28 21 21 26 22 22 27 23 23 28 23 23 28 23 23 28 21 21 26 21 21 26 20 20 25 23 23 28 22 22 27 21 21 26 21 21 26 20 21 26 20 20 25 23 23 29 23 23 29 20 20 25 22 22 27 20 20 25 21 21 26 21 21 26 23 23 28 20 20 25 21 21 26 20 20 25 22 22 27 21 21 26 23 23 29 21 22 27 18 31 47 42 62 87 18 31 47 11 25 42 36 57 83 11 25 42 19 30 45 42 60 84 41 59 83 16 27 42 11 25 42 10 24 41 9 23 40 39 57 81 17 28 43 15 26 41 13 24 39 6 20 37 8 22 39 6 20 37 13 24 39 13 24 39 14 25 40 11 22 37 30 51 77 5 19 36 6 20 37 12 23 38 35 53 77 34 52 76 11 22 37 2 16 33 4 18 35 3 17 34 8 19 34 10 21 36 32 50 74 8 19 34 2 16 33 6 4 10 4 2 7 13 8 11 12 7 10 14 9 12
12 7 10 14 9 13 13 8 12 14 9 12 7 5 10 1 15 32 0 13 30 8 19 34 7 18 33 33 51 75 8 19 34 27 48 74 4 18 35 27 48 74 9 20 35 11 22 37 35 53 77 10 21 36 29 50 76 4 18 35 6 20 37 37 55 79 37 55 79 14 25 40 13 24 39 7 21 38 31 52 78 31 52 78 39 57 81 16 27 42 15 26 41 17 28 43 8 22 39 10 24 41 8 22 39 41 59 83 18 29 44 19 30 45 17 28 43 35 56 82 13 27 44 36 57 83 16 29 45 19 32 48 18 31 47 41 61 86 21 21 26 20 20 25 22 22 28 21 21 26 21 21 27 22 22 27 22 22 27 20 20 25 23 23 28 21 21 26 23 23 28 23 23 28 21 21 26 23 23 28 21 21 27 20 20 25 21 21 27 21 21 27 22 22 27 22 22 27 23 23 28 21 21 26 22 22 27 20 20 25 23 23 28 20 20 25 22 22 27 23 23 28 23 23 28 21 21 26 20 20 25 23 23 28 23 23 28 22 23 28 21 21 26 20 20 26 23 23 28 21 21 26 21 21 26 21 21 26 21 21 27 21 21 26 20 20 25 23 23 29 22 22 28 20 20 25 21 21 26 21 22 27 22 22 27 21 21 26 21 21 26 20 20 25 24 24 29 20 20 26 22 22 28 21 21 27 22 22 28 21 21 26 22 22 27 21 21 27 23 23 28 21 21 26 21 22 27 21 21 26 22 22 27 22 22 27 23 24 29 21 21 27 22 22 27 21 21 26 23 23 29 23 23 29 20 20 25 22 23 28 22 22 27 21 21 26 22 22 27 22 22 27 23 23 28 21 21 27 21 21 26 20 20 25 20 20 25 23 23 28 20 20 25 23 23 28 23 23 28 23 23 28 22 22 27 20 20 26 21 21 26 21 21 26 21 21 26 20 20 25 20 20 25 21 21 26 23 23 28 23 23 28 21 21 26 21 21 27 24 24 29 18 31 47 19 32 48 17 30 46 17 30 46 12 26 43 10 24 41 12 26 43 17 28 43 19 30 45 17 28 43 17 28 43 34 55 81 10 24 41 9 23 40 16 27 42 16 27 42 14 25 40 16 27 42 31 52 78 6 20 37 8 22 39 12 23 38 12 23 38 14 25 40 13 24 39 29 50 76 4 18 35 4 18 35 13 24 39 13 24 39 12 23 38 10 21 36 5 19 36 27 48 74 2 16 33 33 51 75 33 51 75 7 18 33 32 50 74 1 15 32 1 15 32 5 3 8 14 9 12 12 7 10 11 6 9
13 8 12 14 9 12 12 7 10 15 10 13 7 5 11 2 16 33 1 15 32 7 18 33 33 51 75 9 20 35 10 21 36 1 15 32 3 17 34 27 48 74 9 20 35 10 21 36 12 23 38 10 21 36 6 20 37 6 20 37 5 19 36 13 24 39 13 24 39 37 55 79 13 24 39 8 22 39 32 53 79 31 52 78 39 57 81 14 25 40 16 27 42 17 28 43 10 24 41 11 25 42 9 23 40 18 29 44 17 28 43 19 30 45 17 28 43 11 25 42 12 26 43 13 27 44 19 32 48 16 29 45 41 61 86 16 29 45 22 22 27 21 21 27 22 22 27 23 23 28 21 21 26 22 22 27 23 23 28 21 21 27 23 23 28 20 20 25 21 21 26 20 20 25 24 24 29 22 22 27 22 22 27 22 22 28 23 23 29 21 21 27 22 22 27 23 23 28 21 21 26 23 23 28 20 20 26 23 23 28 22 22 27 21 21 26 20 20 25 20 20 25 23 23 28 21 21 26 23 23 28 23 23 28 21 21 26 21 21 26 24 24 29 22 22 27 23 23 28 21 21 26 22 22 27 22 22 27 22 22 27 21 21 27 22 22 27 23 23 28 22 22 28 22 22 28 20 20 25 21 21 26 20 20 26 22 22 27 23 23 28 20 20 25 21 21 26 21 21 27 23 23 28 20 20 26 20 20 26 23 23 28 20 20 25 21 21 26 21 21 26 21 21 26 23 23 29 23 23 29 21 21 26 22 22 27 20 20 25 22 22 27 21 21 26 22 22 28 20 20 26 20 20 25 20 20 25 22 22 27 20 20 25 20 20 26 23 23 29 22 22 27 20 20 25 23 23 28 23 23 28 20 20 25 22 22 27 22 22 28 21 21 26 22 22 27 22 22 28 20 20 25 22 22 27 23 23 28 24 24 29 20 20 25 23 23 28 21 21 26 21 21 26 22 22 27 20 20 25 22 22 27 23 23 28 23 23 28 23 23 29 18 31 47 19 32 48 18 31 47 17 30 46 11 25 42 13 27 44 11 25 42 18 29 44 18 29 44 41 59 83 17 28 43 34 55 81 10 24 41 9 23 40 16 27 42 15 26 41 15 26 41 15 26 41 31 52 78 8 22 39 6 20 37 14 25 40 13 24 39 12 23 38 14 25 40 29 50 76 4 18 35 5 19 36 12 23 38 13 24 39 11 22 37 11 22 37 4 18 35 4 18 35 3 17 34 33 51 75 7 18 33 10 21 36 7 18 33 2 16 33 25 46 72 5 3 8 11 6 10 13 8 11 13 8 11
13 8 11 13 8 11 12 7 10 12 7 10 6 4 10 25 46 72 2 16 33 9 20 35 9 20 35 9 20 35 11 22 37 4 18 35 3 17 34 4 18 35 10 21 36 11 22 37 11 22 37 13 24 39 5 19 36 6 20 37 6 20 37 13 24 39 13 24 39 12 23 38 13 24 39 6 20 37 6 20 37 9 23 40 15 26 41 40 58 82 39 57 81 15 26 41 33 54 80 10 24 41 8 22 39 41 59 83 16 27 42 41 59 83 42 60 84 13 27 44 12 26 43 11 25 42 41 61 86 17 30 46 41 61 86 16 29 45 22 22 28 23 23 29 21 21 26 20 20 25 23 23 28 22 22 27 22 22 28 20 20 25 23 23 28 22 22 27 21 20 26 23 23 28 23 23 28 22 22 28 21 21 26 23 22 28 23 23 28 21 21 26 21 21 26 24 24 29 22 22 27 21 21 27 24 23 29 23 23 29 20 20 25 24 24 29 24 24 29 24 24 29 22 22 28 23 23 28 22 22 27 23 23 28 21 21 26 24 24 29 23 23 29 20 20 26 21 21 26 20 20 25 24 24 29 22 22 27 21 21 26 22 22 28 22 22 27 21 21 26 23 23 28 20 20 26 20 20 25 20 20 25 22 22 28 22 22 27 23 23 28 24 24 29 20 20 26 21 21 26 22 22 27 21 21 26 24 24 29 20 20 26 21 21 27 21 21 26 23 23 28 23 23 28 23 23 28 21 21 26 20 20 25 23 23 29 23 23 28 20 20 26 23 23 28 23 23 28 24 24 29 22 22 27 21 21 27 20 20 26 23 23 28 23 23 28 21 21 27 23 23 28 21 21 26 22 22 27 22 22 27 21 21 26 23 23 29 22 22 27 20 20 25 23 23 28 22 22 28 21 21 26 20 20 26 22 22 27 22 22 27 23 23 28 23 23 28 22 22 27 22 22 27 22 22 27 21 21 26 21 21 26 22 22 28 22 22 28 23 23 28 42 62 87 19 32 48 18 31 47 18 31 47 13 27 44 13 27 44 10 24 41 17 28 43 42 60 84 16 27 42 16 27 42 9 23 40 34 55 81 9 23 40 17 28 43 39 57 81 15 26 41 39 57 81 7 21 38 8 22 39 7 21 38 15 26 41 12 23 38 13 24 39 14 25 40 7 21 38 4 18 35 29 50 76 12 23 38 35 53 77 10 21 36 11 22 37 3 17 34 27 48 74 2 16 33 10 21 36 33 51 75 8 19 34 8 19 34 2 16 33 1 15 32 8 6 11 12 7 10 11 6 9 14 9 12
13 8 11 13 8 11 14 9 12 14 9 12 6 4 9 0 14 31 2 16 33 32 50 74 32 50 74 10 21 36 10 21 36 3 17 34 2 16 33 2 16 33 11 22 37 11 22 37 13 24 39 10 21 36 5 19 36 29 50 76 29 50 76 13 24 39 14 25 40 38 56 80 14 25 40 7 21 38 31 52 78 7 21 38 16 27 42 16 27 42 14 25 40 17 28 43 33 54 80 33 54 80 9 23 40 41 59 83 16 27 42 17 28 43 18 29 44 11 25 42 35 56 82 35 56 82 41 61 86 18 31 47 41 61 86 41 61 86 22 22 27 24 24 29 22 22 27 20 20 25 24 24 29 22 21 27 22 22 28 23 23 29 24 24 29 22 22 27 21 21 26 24 24 29 21 21 27 21 21 26 20 20 25 23 23 29 20 20 25 24 24 29 21 21 27 21 21 26 22 22 28 20 20 26 24 24 29 22 22 27 23 22 28 20 20 26 24 24 29 21 21 27 24 23 29 23 23 28 20 20 25 20 20 26 23 23 28 22 22 28 23 23 28 24 24 29 23 23 28 23 23 28 21 21 26 21 21 26 22 21 27 22 22 28 24 24 29 20 20 25 22 22 28 21 21 26 23 23 29 21 21 26 21 21 27 22 22 28 23 23 28 22 22 27 22 22 27 21 21 27 22 22 28 22 22 27 21 21 27 21 21 27 22 22 27 23 23 28 21 21 26 24 23 29 23 23 28 21 21 27 24 24 29 22 22 27 23 23 29 22 22 27 23 23 28 24 24 29 23 23 28 23 23 28 23 23 29 23 23 28 21 20 26 23 23 28 22 22 28 23 23 28 22 22 27 24 24 29 21 21 27 22 22 27 21 21 27 23 23 28 22 22 28 23 23 29 23 23 29 22 22 28 22 22 27 23 23 29 22 22 28 24 24 29 21 21 27 24 24 29 21 20 26 21 21 26 23 23 28 23 23 28 22 22 28 23 23 28 23 23 28 16 29 45 18 31 47 19 32 48 18 31 47 13 27 44 35 56 82 12 26 43 42 60 84 19 30 45 42 60 84 41 59 83 34 55 81 11 25 42 10 24 41 39 57 81 16 27 42 39 57 81 15 26 41 7 21 38 31 52 78 7 21 38 13 24 39 13 24 39 37 55 79 13 24 39 4 18 35 4 18 35 3 17 34 10 21 36 12 23 38 11 22 37 10 21 36 27 48 74 3 17 34 1 15 32 9 20 35 33 51 75 32 50 74 9 20 35 0 13 30 0 13 30 7 5 10 14 9 12 12 7 10 12 7 11
13 8 12 13 8 11 11 6 10 15 10 13 8 6 12 1 15 32 2 16 33 9 20 35 33 51 75 33 51 75 8 19 34 2 16 33 27 48 74 3 17 34 9 20 35 34 52 76 10 21 36 35 53 77 29 50 76 6 20 37 5 19 36 12 23 38 13 24 39 13 24 39 38 56 80 31 52 78 7 21 38 8 22 39 16 27 42 14 25 40 14 25 40 15 26 41 33 54 80 33 54 80 9 23 40 16 27 42 41 59 83 18 29 44 18 29 44 35 56 82 13 27 44 13 27 44 18 31 47 16 29 45 18 31 47 18 31 47 24 24 29 24 23 29 24 24 29 21 21 26 21 21 27 24 24 29 22 22 27 24 24 29 23 23 29 22 22 27 23 23 29 22 22 27 22 22 27 23 23 29 22 22 27 22 22 27 23 23 28 22 21 27 22 22 28 21 21 26 21 21 27 24 24 29 22 22 27 24 24 29 23 23 28 23 22 28 23 23 28 22 22 27 23 23 28 20 20 26 20 20 26 24 24 29 22 21 27 21 21 26 23 23 28 22 22 27 20 20 26 23 23 28 21 21 26 22 22 28 23 23 28 22 22 27 24 24 29 21 21 26 21 21 26 24 24 29 22 22 28 22 22 28 21 21 27 23 23 28 23 23 28 21 21 26 22 22 27 22 22 27 24 23 29 21 21 26 24 24 29 24 24 29 22 22 27 22 22 27 21 21 26 24 24 29 24 23 29 23 23 28 23 23 28 23 22 28 22 22 27 22 22 27 21 21 27 21 21 27 23 23 28 23 23 29 22 22 27 23 23 29 24 24 29 24 24 29 20 20 26 22 22 27 24 24 29 22 22 27 22 22 28 23 23 29 21 21 26 21 21 27 22 22 28 22 22 27 22 22 27 22 22 28 22 21 27 24 24 29 23 23 28 21 21 26 23 23 28 22 21 27 22 22 27 24 24 29 24 24 29 21 21 26 21 21 27 23 23 29 23 23 28 42 62 87 17 30 46 18 31 47 16 29 45 36 57 83 11 25 42 10 24 41 42 60 84 42 60 84 41 59 83 17 28 43 8 22 39 8 22 39 8 22 39 17 28 43 15 26 41 14 25 40 14 25 40 8 22 39 6 20 37 30 51 77 15 26 41 13 24 39 13 24 39 13 24 39 5 19 36 4 18 35 6 20 37 11 22 37 10 21 36 10 21 36 34 52 76 4 18 35 4 18 35 4 18 35 9 20 35 8 19 34 10 21 36 8 19 34 0 14 31 2 16 33 8 6 11 15 10 14 13 8 11 15 10 13
12 7 10 14 9 13 13 8 12 16 10 14 8 6 11 0 14 31 1 15 32 33 51 75 9 20 35 8 19 34 10 21 36 3 17 34 3 17 34 4 18 35 34 52 76 10 21 36 12 23 38 12 23 38 28 49 75 6 20 37 6 20 37 13 24 39 13 24 39 15 26 41 37 55 79 6 20 37 7 21 38 7 21 38 39 57 81 14 25 40 15 26 41 16 27 42 9 23 40 34 55 81 10 24 41 16 27 42 18 29 44 16 27 42 19 30 45 36 57 83 36 57 83 12 26 43 17 30 46 18 31 47 42 62 87 17 30 46 21 21 26 21 21 26 24 24 29 22 22 28 22 22 27 21 21 26 23 23 28 21 21 27 22 22 27 23 22 28 21 20 26 23 23 29 21 21 26 22 22 27 24 24 30 22 22 27 24 24 30 21 21 26 22 22 28 20 20 26 22 22 28 24 24 30 22 22 27 21 21 27 24 24 29 22 21 27 21 21 26 21 21 27 21 20 26 20 20 26 24 24 29 20 20 26 23 23 29 23 23 28 22 22 27 22 21 27 24 24 29 22 22 27 24 24 29 23 23 28 22 22 27 24 24 29 22 22 27 23 23 29 24 23 29 22 22 28 23 23 28 22 22 28 24 23 29 22 21 27 21 21 26 21 21 27 22 22 28 22 22 27 21 21 26 23 23 28 23 23 29 22 22 27 21 21 26 24 24 29 23 23 29 23 23 28 22 22 27 23 22 28 23 22 28 24 24 29 24 24 30 21 20 26 24 24 30 23 23 28 23 23 28 24 24 29 21 21 26 23 23 28 23 22 28 23 23 28 21 21 27 21 21 26 24 24 30 22 22 27 22 22 28 21 21 26 24 24 29 22 22 27 22 22 28 22 22 27 21 21 27 23 22 28 24 24 29 20 20 26 21 21 26 24 24 29 22 22 27 23 23 28 21 21 27 23 23 28 24 24 29 24 24 29 22 21 27 23 23 28 20 20 26 18 31 47 17 30 46 18 31 47 17 30 46 12 26 43 10 24 41 36 57 83 19 30 45 19 30 45 18 29 44 17 28 43 10 24 41 10 24 41 8 22 39 15 26 41 14 25 40 39 57 81 16 27 42 7 21 38 7 21 38 30 51 77 38 56 80 13 24 39 14 25 40 37 55 79 29 50 76 3 17 34 29 50 76 11 22 37 10 21 36 35 53 77 34 52 76 27 48 74 3 17 34 2 16 33 33 51 75 9 20 35 10 21 36 9 20 35 0 14 31 24 45 71 8 5 11 15 10 13 13 8 11 12 7 10
14 9 13 11 6 10 12 7 10 16 10 14 6 3 9 0 14 31 2 16 33 9 20 35 8 19 34 9 20 35 34 52 76 3 17 34 2 16 33 3 17 34 12 23 38 11 22 37 35 53 77 10 21 36 3 17 34 29 50 76 29 50 76 36 54 78 13 24 39 38 56 80 14 25 40 8 22 39 7 21 38 6 20 37 16 27 42 15 26 41 15 26 41 17 28 43 8 22 39 10 24 41 10 24 41 18 29 44 18 29 44 17 28 43 17 28 43 11 25 42 11 25 42 12 26 43 17 30 46 17 30 46 17 30 46 16 29 45 21 21 26 24 24 30 21 21 26 23 23 29 24 24 29 23 23 28 21 21 27 22 22 28 23 23 29 23 23 28 22 22 27 21 20 26 21 21 26 24 24 29 22 22 27 24 24 29 22 22 27 24 24 29 24 24 29 24 24 30 24 24 29 22 22 27 24 24 30 24 24 30 21 21 26 22 22 27 22 22 28 23 23 29 23 23 29 23 23 28 23 23 28 21 21 26 21 21 26 24 24 30 21 21 26 21 21 27 23 23 28 22 22 27 22 22 27 24 24 29 22 22 27 21 21 26 24 24 30 21 21 26 23 23 28 23 22 28 21 21 26 23 22 28 21 21 27 24 24 30 22 22 27 24 24 29 22 22 27 21 21 26 21 21 27 21 21 26 22 22 28 21 21 26 22 22 27 21 21 27 23 22 28 24 23 29 24 24 29 24 24 29 24 24 29 22 22 28 24 24 29 23 23 28 24 24 29 22 22 28 23 22 28 21 21 26 23 23 28 21 21 27 21 21 26 24 24 29 21 20 26 23 23 28 21 21 27 23 23 29 24 24 29 22 22 28 23 23 28 22 21 27 23 23 28 22 22 28 23 23 29 23 22 28 21 21 27 21 21 26 24 24 29 21 21 26 24 24 30 24 24 29 23 23 29 22 22 28 22 22 27 24 24 29 23 22 28 23 23 28 24 23 29 17 30 46 41 61 86 17 30 46 16 29 45 11 25 42 13 27 44 10 24 41 42 60 84 16 27 42 17 28 43 41 59 83 10 24 41 10 24 41 8 22 39 15 26 41 14 25 40 39 57 81 14 25 40 7 21 38 8 22 39 7 21 38 38 56 80 14 25 40 12 23 38 36 54 78 4 18 35 29 50 76 5 19 36 13 24 39 10 21 36 11 22 37 10 21 36 5 19 36 3 17 34 3 17 34 8 19 34 10 21 36 9 20 35 32 50 74 0 14 31 0 14 31 9 7 12 14 8 12 12 7 11 15 10 14
35 21 17 35 21 17 37 23 19 37 23 20 31 19 18 23 28 38 48 60 79 32 34 42 56 65 82 31 33 41 32 34 42 26 31 41 50 62 81 25 30 40 32 34 42 58 67 84 35 37 45 33 35 43 52 64 83 27 32 42 28 33 43 35 37 45 34 36 44 37 39 47 37 39 47 29 34 44 54 66 85 30 35 45 62 71 88 39 41 49 62 71 88 39 41 49 31 36 46 32 37 47 31 36 46 40 42 50 65 74 91 41 43 51 65 74 91 59 71 90 59 71 90 36 41 51 17 30 46 18 31 47 18 31 47 18 31 47 22 22 27 24 24 30 22 22 28 24 24 29 23 23 28 21 21 26 21 21 27 24 24 29 21 21 27 24 24 29 22 22 28 23 23 29 25 24 30 21 21 26 23 23 28 23 23 29 25 24 30 22 22 28 22 22 28 23 23 28 24 24 29 24 23 29 21 21 26 23 23 29 24 24 29 22 21 27 22 21 27 23 23 28 23 23 28 21 21 27 22 22 28 21 21 26 23 23 28 22 21 27 21 21 26 22 21 27 21 21 27 24 24 29 21 21 26 23 22 28 24 23 29 21 21 27 23 23 28 22 22 28 23 22 28 22 22 27 24 24 30 24 24 29 23 23 29 21 20 26 23 23 28 22 22 28 24 24 29 21 21 27 22 22 27 22 22 27 23 23 28 22 21 27 22 22 28 23 23 28 22 22 28 23 23 29 24 23 29 23 22 28 23 23 29 23 23 28 24 23 29 23 23 29 23 23 29 22 22 27 23 23 29 24 23 29 22 22 28 22 22 27 22 22 27 22 22 28 23 23 28 23 22 28 23 23 28 21 21 27 23 22 28 23 23 28 24 24 30 23 23 28 24 24 30 23 23 28 24 23 29 22 22 28 23 23 28 23 23 29 21 21 27 23 23 28 23 23 28 23 23 29 23 23 28 24 24 29 22 22 28 22 21 27 21 21 26 24 24 29 22 22 28 16 29 45 17 30 46 17 30 46 18 31 47 34 39 49 34 39 49 58 70 89 65 74 91 39 41 49 41 43 51 64 73 90 33 38 48 32 37 47 31 36 46 39 41 49 38 40 48 63 72 89 39 41 49 32 37 47 29 34 44 28 33 43 37 39 47 60 69 86 37 39 47 35 37 45 28 33 43 27 32 42 52 64 83 58 67 84 35 37 45 34 36 44 32 34 42 27 32 42 27 32 42 25 30 40 33 35 43 56 65 82 32 34 42 30 32 40 25 30 40 22 27 37 31 20 18 38 24 21 36 21 18 35 21 17
38 23 20 37 23 19 36 22 18 36 22 18 32 21 20 47 59 78 48 60 79 32 34 42 30 32 40 32 34 42 56 65 82 26 31 41 24 29 39 50 62 81 57 66 83 33 35 43 35 37 45 59 68 85 28 33 43 52 64 83 27 32 42 35 37 45 36 38 46 37 39 47 38 40 48 30 35 45 54 66 85 32 37 47 39 41 49 39 41 49 62 71 88 40 42 50 31 36 46 31 36 46 32 37 47 39 41 49 39 41 49 64 73 90 42 44 52 59 71 90 35 40 50 59 71 90 41 61 86 16 29 45 16 29 45 18 31 47 24 23 29 22 21 27 22 21 27 22 22 27 21 21 26 21 21 27 22 21 27 21 21 26 21 21 27 24 24 30 24 23 29 23 23 29 25 24 30 23 23 28 25 24 30 23 23 28 22 22 27 24 24 29 23 23 28 22 22 27 24 24 29 24 24 30 23 23 28 23 22 28 22 22 27 23 23 28 23 23 29 22 22 27 24 24 29 24 24 29 23 23 29 25 24 30 23 23 28 23 23 28 21 21 27 24 23 29 24 24 30 24 24 29 21 21 26 23 23 28 21 21 27 24 24 30 25 24 30 24 24 30 22 22 27 22 22 27 23 23 28 23 23 28 22 22 27 24 24 29 22 22 28 24 24 30 25 25 30 21 21 26 23 23 28 21 21 26 23 23 29 24 23 29 24 24 29 23 22 28 24 23 29 23 23 28 22 22 27 23 22 28 22 22 28 21 21 27 22 21 27 22 22 28 23 22 28 24 24 30 22 22 27 23 23 29 22 22 27 24 24 30 22 21 27 23 22 28 24 24 29 21 21 26 22 21 27 21 21 26 22 21 27 24 24 29 22 21 27 22 22 27 21 21 27 23 23 28 22 22 28 24 24 30 24 24 29 23 23 29 21 21 26 24 24 29 21 21 26 23 22 28 24 24 29 23 23 28 22 22 28 23 23 28 22 22 27 22 22 28 24 24 29 42 62 87 42 62 87 19 32 48 16 29 45 59 71 90 35 40 50 34 39 49 42 44 52 39 41 49 41 43 51 41 43 51 32 37 47 33 38 48 34 39 49 62 71 88 37 39 47 37 39 47 62 71 88 55 67 86 31 36 46 29 34 44 38 40 48 37 39 47 35 37 45 60 69 86 29 34 44 28 33 43 29 34 44 58 67 84 34 36 44 35 37 45 34 36 44 26 31 41 27 32 42 50 62 81 33 35 43 32 34 42 55 64 81 55 64 81 25 30 40 25 30 40 31 20 19 36 22 19 35 21 18 38 23 20
14 9 12 15 9 13 16 11 14 15 9 13 6 4 10 25 46 72 1 15 32 10 21 36 10 21 36 9 20 35 8 19 34 26 47 73 4 18 35 27 48 74 11 22 37 12 23 38 10 21 36 10 21 36 29 50 76 4 18 35 6 20 37 37 55 79 12 23 38 14 25 40 37 55 79 6 20 37 7 21 38 9 23 40 16 27 42 16 27 42 17 28 43 16 27 42 10 24 41 33 54 80 8 22 39 18 29 44 16 27 42 16 27 42 42 60 84 36 57 83 12 26 43 12 26 43 18 31 47 16 29 45 17 30 46 19 32 48 21 21 26 21 21 27 24 24 29 22 22 28 24 24 29 24 24 30 24 24 29 23 23 29 24 24 29 23 23 28 24 24 30 22 22 28 21 21 26 23 23 29 22 22 27 22 22 28 25 25 30 25 24 30 21 21 27 23 23 28 23 23 29 24 24 30 23 23 28 25 24 30 22 22 27 22 22 28 21 21 27 22 22 28 24 24 30 22 22 28 22 22 27 23 23 29 23 22 28 23 23 28 22 22 27 23 23 28 22 21 27 22 22 27 23 23 28 25 25 30 23 23 28 24 23 29 23 23 28 22 22 28 24 23 29 23 23 28 22 21 27 23 22 28 21 21 26 23 23 29 22 21 27 23 23 28 22 22 27 24 24 29 25 24 30 21 21 27 24 24 29 24 24 29 23 23 29 21 21 27 24 24 30 21 21 26 25 24 30 22 22 28 24 23 29 24 24 29 22 21 27 24 24 30 24 24 29 23 23 28 21 21 26 22 22 28 23 22 28 22 22 27 23 23 28 23 23 29 22 22 28 24 24 30 22 21 27 24 23 29 24 24 30 24 24 30 24 24 30 25 24 30 22 22 27 24 23 29 25 25 30 23 23 28 23 23 29 22 21 27 21 21 27 22 22 27 25 25 30 23 23 28 22 22 27 22 21 27 24 24 29 21 21 27 22 22 28 23 23 28 23 22 28 41 61 86 17 30 46 42 62 87 17 30 46 13 27 44 35 56 82 13 27 44 17 28 43 17 28 43 16 27 42 18 29 44 11 25 42 10 24 41 8 22 39 15 26 41 17 28 43 15 26 41 15 26 41 8 22 39 7 21 38 5 19 36 14 25 40 13 24 39 13 24 39 14 25 40 6 20 37 7 21 38 4 18 35 12 23 38 10 21 36 10 21 36 34 52 76 2 16 33 3 17 34 2 16 33 33 51 75 8 19 34 8 19 34 9 20 35 2 16 33 24 45 71 8 6 12 14 8 12 13 7 11 15 10 13
12 7 11 13 7 11 14 9 12 15 10 14 6 4 9 25 46 72 2 16 33 8 19 34 32 50 74 10 21 36 34 52 76 1 15 32 27 48 74 3 17 34 10 21 36 12 23 38 10 21 36 10 21 36 29 50 76 5 19 36 29 50 76 13 24 39 37 55 79 13 24 39 12 23 38 31 52 78 8 22 39 7 21 38 39 57 81 15 26 41 15 26 41 40 58 82 10 24 41 33 54 80 10 24 41 18 29 44 17 28 43 18 29 44 18 29 44 12 26 43 35 56 82 11 25 42 18 31 47 18 31 47 16 29 45 17 30 46 24 24 29 22 21 27 23 22 28 25 25 30 22 22 27 23 23 29 22 21 27 24 24 30 25 24 30 24 24 30 23 23 29 24 23 29 21 21 27 25 25 30 24 24 30 21 21 27 23 22 28 23 23 28 22 22 28 24 23 29 25 25 30 24 24 30 21 21 26 24 23 29 22 22 27 25 25 30 25 25 30 24 23 29 24 24 29 24 24 30 21 21 27 24 24 30 22 22 27 24 24 29 21 21 27 23 23 29 24 24 29 23 23 28 22 21 27 24 24 29 25 25 30 23 23 28 22 22 27 22 21 27 23 23 28 22 22 27 22 22 28 24 23 29 23 23 28 22 22 27 21 21 27 22 21 27 22 22 27 23 23 28 24 24 29 24 24 29 24 23 29 21 21 27 21 21 27 24 24 30 23 22 28 24 24 29 25 24 30 22 21 27 21 21 27 25 25 30 22 22 28 25 25 30 23 22 28 24 23 29 23 23 28 25 24 30 25 25 30 22 22 28 23 23 28 24 23 29 22 21 27 22 22 27 23 23 28 22 21 27 23 23 29 24 24 29 24 24 29 24 24 29 24 24 29 22 22 28 22 21 27 25 24 30 25 25 30 24 24 29 23 22 28 24 23 29 24 24 30 22 22 27 23 22 28 21 21 27 22 22 27 23 22 28 25 25 30 23 22 28 22 22 28 42 62 87 17 30 46 18 31 47 17 30 46 11 25 42 12 26 43 10 24 41 19 30 45 17 28 43 18 29 44 15 26 41 9 23 40 10 24 41 33 54 80 15 26 41 16 27 42 16 27 42 16 27 42 7 21 38 6 20 37 8 22 39 14 25 40 13 24 39 12 23 38 37 55 79 6 20 37 6 20 37 6 20 37 10 21 36 12 23 38 34 52 76 34 52 76 2 16 33 2 16 33 27 48 74 10 21 36 9 20 35 10 21 36 9 20 35 2 16 33 24 45 71 8 6 11 16 11 14 14 9 13 15 10 13
14 9 12 14 9 12 16 11 14 14 9 12 7 5 10 1 15 32 0 14 31 33 51 75 8 19 34 10 21 36 11 22 37 3 17 34 4 18 35 4 18 35 10 21 36 12 23 38 11 22 37 11 22 37 5 19 36 5 19 36 5 19 36 12 23 38 14 25 40 14 25 40 14 25 40 6 20 37 8 22 39 7 21 38 39 57 81 39 57 81 15 26 41 16 27 42 9 23 40 9 23 40 10 24 41 41 59 83 19 30 45 19 30 45 19 30 45 35 56 82 11 25 42 13 27 44 16 29 45 16 29 45 18 31 47 17 30 46 22 22 27 25 25 30 23 23 29 22 22 27 22 21 27 23 22 28 23 23 29 23 22 28 23 22 28 23 23 28 25 24 30 22 22 27 23 22 28 24 24 30 24 24 30 21 21 27 23 22 28 23 23 28 22 21 27 22 21 27 22 22 27 24 24 29 24 23 29 22 21 27 23 23 28 25 25 30 24 24 29 23 23 29 23 22 28 24 24 29 25 25 30 24 24 29 24 24 29 25 24 30 22 22 28 22 21 27 23 23 28 22 22 27 24 24 29 24 24 30 24 24 29 23 23 28 23 23 28 24 23 29 22 22 28 22 22 27 23 23 28 21 21 27 25 25 30 24 23 29 23 22 28 23 23 28 23 23 29 21 21 27 21 21 27 22 22 27 24 23 29 22 22 28 24 24 29 24 23 29 23 22 28 25 25 31 22 22 27 24 24 30 21 21 27 25 24 30 24 23 29 21 21 27 24 24 29 25 25 30 22 22 28 24 23 29 24 24 29 22 22 28 25 25 30 24 24 29 24 23 29 23 23 29 25 24 30 22 21 27 25 25 31 24 24 30 23 23 29 22 22 28 22 22 27 22 21 27 24 24 30 24 24 29 24 24 30 23 23 29 24 24 29 22 22 27 24 24 29 23 22 28 22 22 28 23 23 29 24 24 30 24 24 29 25 24 30 24 24 30 24 24 29 19 32 48 18 31 47 18 31 47 16 29 45 13 27 44 12 26 43 10 24 41 19 30 45 18 29 44 18 29 44 18 29 44 11 25 42 33 54 80 33 54 80 15 26 41 15 26 41 15 26 41 16 27 42 7 21 38 8 22 39 6 20 37 12 23 38 14 25 40 13 24 39 13 24 39 29 50 76 4 18 35 6 20 37 11 22 37 10 21 36 11 22 37 11 22 37 3 17 34 3 17 34 3 17 34 10 21 36 8 19 34 9 20 35 9 20 35 25 46 72 0 14 31 7 4 10 14 9 12 13 8 11 13 8 12
14 8 12 12 7 11 13 8 12 17 11 15 8 6 11 2 16 33 0 14 31 7 18 33 33 51 75 33 51 75 9 20 35 27 48 74 4 18 35 27 48 74 12 23 38 11 22 37 12 23 38 36 54 78 6 20 37 29 50 76 6 20 37 37 55 79 14 25 40 13 24 39 13 24 39 8 22 39 8 22 39 8 22 39 39 57 81 15 26 41 16 27 42 16 27 42 11 25 42 10 24 41 9 23 40 17 28 43 18 29 44 41 59 83 18 29 44 11 25 42 12 26 43 13 27 44 16 29 45 18 31 47 18 31 47 18 31 47 25 25 30 24 24 30 24 23 29 23 23 29 23 23 29 25 25 30 22 22 28 25 25 30 25 24 30 24 24 29 23 23 29 24 24 29 24 24 29 23 23 28 22 21 27 24 24 29 24 24 29 24 23 29 24 24 29 25 25 30 22 22 28 24 24 29 21 21 27 23 23 29 22 22 28 22 22 27 24 23 29 25 24 30 22 22 28 22 22 27 24 23 29 21 21 27 22 22 28 22 22 27 22 22 28 25 25 30 23 22 28 22 21 27 25 25 30 24 23 29 25 24 30 25 24 30 23 23 29 23 23 29 24 24 30 23 23 29 25 25 30 24 24 30 25 24 30 24 23 29 23 23 29 25 25 31 22 22 28 22 21 27 24 24 29 23 23 28 25 25 30 25 25 31 25 25 30 23 23 29 22 22 27 25 24 30 23 22 28 22 22 28 24 24 29 24 24 30 22 21 27 23 23 29 22 22 28 23 22 28 24 24 29 24 23 29 23 23 28 25 25 30 25 25 31 22 21 27 24 24 29 23 23 28 23 23 29 24 24 29 25 25 31 23 23 29 22 21 27 21 21 27 25 25 30 23 22 28 23 22 28 25 24 30 23 23 29 21 21 27 23 23 29 25 24 30 24 24 30 22 22 28 24 24 30 24 23 29 25 25 31 22 22 27 24 24 30 24 24 30 22 21 27 19 32 48 42 62 87 16 29 45 18 31 47 11 25 42 36 57 83 35 56 82 19 30 45 17 28 43 18 29 44 41 59 83 9 23 40 34 55 81 33 54 80 16 27 42 15 26 41 14 25 40 15 26 41 8 22 39 6 20 37 5 19 36 15 26 41 14 25 40 14 25 40 12 23 38 6 20 37 6 20 37 3 17 34 36 54 78 10 21 36 35 53 77 11 22 37 4 18 35 3 17 34 26 47 73 9 20 35 8 19 34 33 51 75 32 50 74 1 15 32 0 14 31 7 5 10 16 11 15 13 7 11 14 9 13
15 9 13 14 9 13 14 9 12 14 9 13 9 6 12 0 14 31 25 46 72 9 20 35 9 20 35 8 19 34 8 19 34 26 47 73 27 48 74 27 48 74 34 52 76 10 21 36 13 24 39 11 22 37 5 19 36 4 18 35 7 21 38 37 55 79 12 23 38 14 25 40 15 26 41 7 21 38 9 23 40 9 23 40 15 26 41 15 26 41 40 58 82 15 26 41 8 22 39 9 23 40 11 25 42 18 29 44 17 28 43 41 59 83 19 30 45 12 26 43 35 56 82 11 25 42 18 31 47 42 62 87 17 30 46 18 31 47 25 25 30 25 25 30 23 23 28 22 21 27 23 23 28 25 25 31 25 24 30 25 24 30 24 23 29 24 24 29 24 24 30 25 24 30 23 23 28 24 23 29 24 24 30 25 25 31 24 23 29 23 22 28 25 25 30 24 24 29 24 24 30 23 23 28 23 23 28 23 22 28 25 25 30 24 24 30 25 24 30 22 22 28 25 24 30 25 25 31 25 24 30 23 23 29 24 23 29 24 24 29 23 23 29 23 22 28 23 23 28 25 24 30 25 25 30 24 23 29 24 23 29 25 25 30 22 21 27 23 22 28 25 25 31 25 25 31 22 21 27 25 25 31 24 24 29 24 24 29 24 23 29 24 24 29 22 21 27 22 22 27 25 25 31 22 21 27 25 24 30 24 24 29 22 22 28 25 25 30 24 23 29 25 25 31 22 21 27 22 21 27 22 22 27 25 25 30 23 22 28 23 23 28 25 25 30 22 21 27 22 21 27 25 25 31 24 24 29 22 21 27 24 23 29 24 24 30 22 22 28 25 25 30 25 24 30 24 24 29 24 24 30 23 23 28 22 22 28 25 24 30 23 23 29 25 25 31 22 22 27 22 21 27 24 24 30 22 22 28 24 23 29 22 22 27 23 22 28 25 25 31 25 25 31 23 23 28 23 23 28 23 22 28 23 23 28 25 25 30 25 25 31 16 29 45 41 61 86 16 29 45 41 61 86 11 25 42 12 26 43 35 56 82 17 28 43 19 30 45 41 59 83 16 27 42 10 24 41 33 54 80 10 24 41 17 28 43 16 27 42 39 57 81 38 56 80 6 20 37 31 52 78 7 21 38 37 55 79 13 24 39 13 24 39 11 22 37 5 19 36 5 19 36 3 17 34 12 23 38 35 53 77 11 22 37 12 23 38 4 18 35 3 17 34 1 15 32 10 21 36 9 20 35 33 51 75 32 50 74 1 15 32 1 15 32 8 6 11 15 10 14 13 8 11 16 11 15
13 8 12 13 8 12 14 9 12 16 11 15 9 6 12 1 15 32 2 16 33 9 20 35 9 20 35 8 19 34 33 51 75 4 18 35 2 16 33 28 49 75 9 20 35 12 23 38 10 21 36 35 53 77 6 20 37 4 18 35 29 50 76 11 22 37 14 25 40 12 23 38 13 24 39 31 52 78 8 22 39 9 23 40 15 26 41 14 25 40 14 25 40 16 27 42 9 23 40 10 24 41 10 24 41 17 28 43 16 27 42 18 29 44 19 30 45 11 25 42 36 57 83 36 57 83 41 61 86 18 31 47 18 31 47 19 32 48 24 24 29 22 21 27 23 23 28 26 26 31 26 26 31 24 23 28 26 25 31 25 24 29 24 23 28 25 24 29 25 24 29 26 25 30 25 25 30 24 23 29 26 25 31 24 23 29 24 23 29 23 23 29 22 22 28 23 22 28 24 24 29 25 25 31 26 25 31 22 22 28 22 22 28 25 24 30 24 23 29 22 22 27 25 24 30 23 23 29 22 22 27 23 23 29 23 22 28 24 24 30 24 24 30 25 24 30 24 24 29 22 21 27 25 25 31 23 23 29 25 25 30 22 21 27 25 24 30 24 24 29 23 23 28 23 22 28 25 24 30 22 21 27 24 24 30 23 22 28 22 22 28 25 24 30 25 25 31 22 22 27 24 23 29 26 25 31 24 24 30 25 25 31 25 24 30 25 25 30 25 24 30 23 22 28 24 23 29 23 23 29 23 23 29 23 23 29 23 22 28 23 23 29 22 21 27 25 25 30 22 22 28 25 25 31 23 23 28 22 22 27 24 23 29 23 23 29 22 21 27 22 22 27 25 24 30 24 24 30 22 22 28 23 22 28 24 23 29 22 21 27 22 22 27 25 25 30 22 22 27 23 22 28 23 23 28 26 25 31 25 24 29 26 25 30 26 25 30 25 24 29 25 24 29 27 26 31 24 24 29 22 22 27 22 22 27 23 22 28 23 23 28 16 29 45 16 29 45 18 31 47 18 31 47 13 27 44 10 24 41 12 26 43 19 30 45 17 28 43 18 29 44 16 27 42 9 23 40 9 23 40 33 54 80 16 27 42 40 58 82 14 25 40 15 26 41 9 23 40 7 21 38 7 21 38 15 26 41 14 25 40 11 22 37 37 55 79 7 21 38 7 21 38 29 50 76 12 23 38 35 53 77 12 23 38 34 52 76 3 17 34 27 48 74 4 18 35 8 19 34 8 19 34 33 51 75 7 18 33 0 14 31 0 14 31 9 6 12 13 8 12 15 9 13 16 10 14
15 10 13 15 10 14 14 8 12 16 11 15 8 5 11 0 14 31 2 16 33 32 50 74 9 20 35 7 18 33 33 51 75 3 17 34 2 16 33 4 18 35 12 23 38 35 53 77 12 23 38 35 53 77 5 19 36 29 50 76 29 50 76 12 23 38 37 55 79 37 55 79 13 24 39 8 22 39 7 21 38 8 22 39 16 27 42 16 27 42 15 26 41 15 26 41 33 54 80 9 23 40 8 22 39 16 27 42 16 27 42 42 60 84 42 60 84 10 24 41 12 26 43 13 27 44 18 31 47 17 30 46 17 30 46 19 32 48 25 24 30 27 26 31 26 25 30 25 24 29 25 24 29 27 25 30 25 24 28 28 26 31 26 24 28 29 27 31 28 26 30 26 24 29 28 27 31 27 26 31 26 25 30 27 26 32 26 25 31 25 24 30 23 23 29 24 24 30 22 22 28 25 25 30 23 22 28 22 22 28 25 25 31 25 24 30 24 24 30 23 22 28 23 23 29 24 23 29 24 24 30 22 22 28 24 23 29 24 23 29 25 25 31 23 23 29 23 22 28 22 22 28 23 23 28 22 21 27 24 24 30 25 24 30 22 22 28 24 23 29 24 24 30 26 25 31 22 22 27 22 22 28 22 22 27 22 22 28 24 23 29 23 23 29 23 22 28 23 22 28 22 22 28 25 24 30 23 23 28 24 24 30 23 23 29 25 24 30 25 24 30 23 23 29 25 25 31 22 22 27 23 22 28 24 24 30 23 23 28 24 24 30 23 22 28 22 22 28 23 22 28 23 23 29 25 25 31 24 23 29 24 24 30 23 22 28 25 24 30 26 25 31 26 25 31 25 24 30 22 22 27 22 22 28 24 24 30 26 25 31 26 26 31 26 25 30 25 23 28 25 24 28 25 24 28 25 23 28 29 27 32 27 25 30 29 27 31 28 26 31 26 24 28 28 26 31 27 26 30 28 27 31 24 23 28 24 23 29 25 24 29 18 31 47 41 61 86 42 62 87 16 29 45 11 25 42 12 26 43 11 25 42 42 60 84 41 59 83 41 59 83 17 28 43 34 55 81 8 22 39 8 22 39 16 27 42 39 57 81 14 25 40 15 26 41 8 22 39 7 21 38 7 21 38 13 24 39 38 56 80 37 55 79 12 23 38 5 19 36 6 20 37 6 20 37 36 54 78 10 21 36 11 22 37 34 52 76 2 16 33 2 16 33 4 18 35 33 51 75 9 20 35 10 21 36 9 20 35 25 46 72 24 45 71 10 8 14 15 10 13 14 9 13 13 8 12
14 9 13 13 7 11 15 9 13 15 9 13 9 7 13 1 15 32 2 16 33 8 19 34 33 51 75 8 19 34 10 21 36 1 15 32 3 17 34 3 17 34 35 53 77 11 22 37 35 53 77 13 24 39 29 50 76 4 18 35 5 19 36 11 22 37 14 25 40 13 24 39 14 25 40 8 22 39 8 22 39 7 21 38 39 57 81 16 27 42 16 27 42 17 28 43 10 24 41 34 55 81 34 55 81 17 28 43 16 27 42 16 27 42 18 29 44 13 27 44 12 26 43 12 26 43 41 61 86 17 30 46 20 32 48 18 30 45 25 24 29 28 26 31 30 28 32 30 28 32 29 27 31 28 26 30 30 28 31 28 26 29 30 27 31 30 28 32 30 28 32 29 27 31 30 28 32 30 28 32 27 25 29 29 27 32 26 24 29 26 25 30 23 22 28 23 22 28 24 23 29 24 24 30 26 25 31 25 25 30 25 25 30 24 23 29 22 22 27 22 22 28 23 23 29 25 25 30 23 22 28 23 23 28 25 25 31 26 25 31 24 23 29 23 22 28 24 24 30 25 25 31 26 25 31 23 22 28 23 22 28 25 25 31 25 24 30 24 23 29 25 25 31 25 24 30 24 23 29 23 22 28 25 24 30 25 24 30 24 24 29 26 25 31 23 22 28 24 23 29 25 25 31 23 23 29 23 23 29 23 22 28 25 24 30 25 24 30 24 23 29 25 25 31 23 23 28 24 24 30 25 25 31 22 22 28 25 25 30 24 23 29 24 23 29 25 24 30 25 25 31 22 22 28 25 25 30 24 24 29 25 24 30 23 22 28 24 23 29 25 25 31 22 22 28 24 24 30 25 25 31 24 23 29 27 26 31 28 26 31 26 25 30 29 27 32 29 27 32 27 26 30 27 25 29 30 28 32 28 26 29 28 26 30 30 27 31 28 26 30 30 28 32 30 28 32 27 25 28 28 26 30 29 27 31 28 27 31 28 26 31 20 32 47 20 32 48 42 62 87 17 30 46 36 57 83 11 25 42 12 26 43 42 60 84 41 59 83 17 28 43 16 27 42 11 25 42 11 25 42 33 54 80 15 26 41 17 28 43 14 25 40 39 57 81 32 53 79 31 52 78 6 20 37 38 56 80 12 23 38 11 22 37 12 23 38 29 50 76 29 50 76 6 20 37 10 21 36 12 23 38 11 22 37 11 22 37 3 17 34 26 47 73 4 18 35 9 20 35 33 51 75 33 51 75 8 19 34 1 15 32 0 13 30 7 4 10 15 10 14 15 10 13 14 9 12
15 10 14 14 8 12 17 11 15 14 8 12 10 7 13 24 45 71 1 15 32 9 20 35 8 19 34 8 19 34 9 20 35 3 17 34 27 48 74 2 16 33 11 22 37 35 53 77 35 53 77 12 23 38 5 19 36 5 19 36 29 50 76 12 23 38 14 25 40 13 24 39 13 24 39 6 20 37 31 52 78 32 53 79 13 24 39 39 57 81 17 28 43 15 26 41 9 23 40 9 23 40 9 23 40 41 59 83 16 27 42 42 60 84 18 29 44 35 56 82 12 26 43 11 25 42 42 62 86 19 31 47 22 34 49 23 34 49 28 26 30 28 26 30 29 27 30 28 25 29 28 26 29 30 27 30 31 28 31 29 26 29 31 28 31 31 28 31 29 27 30 30 27 31 29 26 30 29 26 30 30 28 31 27 25 29 30 28 32 29 27 31 28 27 31 26 25 30 27 26 32 26 25 31 25 25 31 23 23 29 24 23 29 24 24 30 25 24 30 26 25 31 23 22 28 23 22 28 24 23 29 23 22 28 22 22 28 26 25 31 25 24 30 26 25 31 25 25 31 24 23 29 26 25 31 26 25 31 25 25 31 24 24 30 25 24 30 24 24 29 23 23 28 24 24 29 25 25 31 25 24 30 24 24 30 26 26 31 23 23 29 23 22 28 23 22 28 24 24 30 26 26 31 23 23 29 25 25 31 26 25 31 24 24 30 25 25 30 23 23 29 25 24 30 25 24 30 26 25 31 24 23 29 22 22 28 25 24 30 24 24 30 23 23 28 23 23 29 23 22 28 23 22 28 23 22 28 26 25 31 25 25 31 23 22 28 25 25 31 24 23 29 22 22 28 23 23 28 26 25 31 28 27 32 29 27 32 29 28 32 27 25 29 28 26 30 28 26 30 30 27 31 29 26 30 30 27 30 30 27 30 31 28 31 32 29 32 29 27 30 32 29 32 31 28 31 30 27 30 31 28 32 29 27 30 29 27 31 28 26 30 21 33 47 21 33 48 19 31 46 20 32 48 11 25 42 12 26 43 36 57 83 18 29 44 17 28 43 18 29 44 17 28 43 9 23 40 9 23 40 10 24 41 15 26 41 16 27 42 14 25 40 39 57 81 32 53 79 6 20 37 8 22 39 13 24 39 12 23 38 13 24 39 13 24 39 5 19 36 5 19 36 5 19 36 35 53 77 12 23 38 11 22 37 10 21 36 4 18 35 2 16 33 2 16 33 10 21 36 10 21 36 10 21 36 7 18 33 0 14 31 2 16 33 8 6 12 15 9 13 16 10 14 16 11 15
13 8 12 13 8 12 17 12 15 15 10 14 9 7 13 1 15 32 25 46 72 8 19 34 32 50 74 10 21 36 8 19 34 27 48 74 3 17 34 3 17 34 11 22 37 11 22 37 10 21 36 11 22 37 6 20 37 29 50 76 6 20 37 14 25 40 14 25 40 13 24 39 14 25 40 31 52 78 7 21 38 9 23 40 14 25 40 39 57 81 14 25 40 17 28 43 33 54 80 11 25 42 9 23 40 41 59 83 17 28 43 42 60 84 17 28 43 13 27 44 13 26 43 13 26 42 20 32 47 21 33 47 20 32 46 47 65 88 28 26 29 30 27 30 33 30 33 30 27 29 33 30 33 32 28 31 34 30 32 31 28 30 34 30 33 33 29 32 31 28 30 34 30 33 30 27 29 32 29 32 33 30 33 33 30 33 30 28 31 39 32 33 36 30 31 36 30 31 35 29 31 33 28 30 24 23 28 25 24 30 23 23 29 25 25 31 32 27 30 33 28 31 33 28 31 34 29 32 32 27 30 22 22 28 24 24 30 24 23 29 26 25 31 32 27 30 32 27 30 33 29 31 32 27 30 35 30 33 23 23 28 25 24 30 24 24 30 24 23 29 31 27 30 33 28 31 32 28 31 33 29 32 32 28 31 25 24 30 22 22 28 25 24 30 26 25 31 35 31 33 33 29 32 33 28 31 32 27 30 35 30 33 24 24 30 24 24 29 23 22 28 26 25 31 31 27 30 33 28 31 33 28 31 34 29 32 33 29 32 23 22 28 23 23 29 25 24 30 25 25 30 34 29 32 32 27 30 35 30 33 34 30 33 32 27 30 26 25 31 23 23 29 24 23 28 28 27 32 37 31 33 39 33 34 37 30 31 40 34 35 38 31 31 33 30 33 31 28 31 30 27 29 33 29 32 33 29 32 34 31 33 34 30 33 35 31 33 34 30 33 31 28 30 31 27 30 32 28 31 33 30 33 30 27 30 32 29 32 31 28 32 24 35 48 46 64 88 21 33 47 44 63 86 38 58 84 13 27 43 12 26 43 17 28 43 19 30 45 41 59 83 17 28 43 9 23 40 9 23 40 8 22 39 17 28 43 15 26 41 15 26 41 14 25 40 31 52 78 8 22 39 31 52 78 15 26 41 37 55 79 13 24 39 12 23 38 29 50 76 5 19 36 4 18 35 11 22 37 35 53 77 11 22 37 11 22 37 4 18 35 2 16 33 2 16 33 9 20 35 33 51 75 32 50 74 9 20 35 0 14 31 1 15 32 7 5 11 17 12 16 16 10 14 16 11 15
16 10 14 14 9 13 15 9 13 16 11 15 10 8 14 0 14 31 0 14 31 8 19 34 33 51 75 33 51 75 10 21 36 3 17 34 4 18 35 2 16 33 9 20 35 12 23 38 11 22 37 11 22 37 29 50 76 5 19 36 5 19 36 11 22 37 12 23 38 13 24 39 13 24 39 8 22 39 6 20 37 31 52 78 39 57 81 14 25 40 17 28 43 17 28 43 33 54 80 9 23 40 34 55 81 17 28 43 17 28 43 42 60 84 19 30 44 13 27 43 13 27 43 15 28 44 22 34 48 22 33 47 24 35 48 23 34 47 34 31 33 31 28 30 32 28 31 33 29 31 35 31 33 35 31 32 34 30 32 36 31 33 36 32 34 33 29 30 33 29 31 34 30 31 33 29 31 35 31 33 34 30 32 32 28 31 33 30 33 40 33 33 39 33 33 38 32 32 39 33 34 37 32 33 26 25 30 26 25 30 23 22 28 26 25 31 32 27 30 33 28 31 32 28 31 32 27 30 34 30 33 25 25 31 26 25 31 26 25 31 24 23 29 35 31 34 35 31 34 32 27 30 32 28 31 35 31 34 25 25 31 23 22 28 24 24 30 26 25 31 35 31 34 34 29 32 33 28 31 33 28 31 34 29 32 25 25 31 24 23 29 23 22 28 25 24 30 35 31 34 33 28 31 34 30 33 34 29 32 32 28 31 26 25 31 26 25 31 24 24 30 24 23 29 35 30 33 35 31 34 35 31 34 35 31 34 33 28 31 23 23 29 24 24 30 23 22 28 26 25 31 32 27 30 34 29 32 33 28 31 35 31 34 35 30 33 26 25 31 27 26 31 29 27 32 28 27 31 38 31 33 39 32 33 38 31 31 40 33 34 41 34 34 33 29 32 32 29 31 33 29 32 34 31 32 34 30 32 34 30 32 34 29 31 34 30 31 36 31 33 36 32 34 34 30 31 35 31 33 32 28 30 34 31 33 31 28 30 30 27 30 25 35 48 25 35 49 47 65 88 21 33 47 40 59 84 38 58 83 12 26 42 18 29 43 16 27 42 18 29 44 17 28 43 9 23 40 8 22 39 9 23 40 16 27 42 14 25 40 39 57 81 15 26 41 32 53 79 7 21 38 7 21 38 14 25 40 15 26 41 37 55 79 13 24 39 4 18 35 5 19 36 6 20 37 10 21 36 12 23 38 12 23 38 12 23 38 4 18 35 27 48 74 3 17 34 9 20 35 7 18 33 8 19 34 32 50 74 2 16 33 0 13 30 7 5 11 15 9 13 15 10 14 16 11 15
14 9 13 16 10 14 17 12 16 16 10 14 11 8 14 2 16 33 2 16 33 8 19 34 10 21 36 10 21 36 33 51 75 2 16 33 3 17 34 2 16 33 10 21 36 10 21 36 10 21 36 36 54 78 5 19 36 29 50 76 5 19 36 13 24 39 13 24 39 15 26 41 38 56 80 6 20 37 31 52 78 31 52 78 14 25 40 15 26 41 40 58 82 40 58 82 8 22 39 10 24 41 10 24 41 41 59 83 18 29 44 19 29 44 19 30 44 12 25 41 39 59 83 41 60 84 22 33 47 48 65 88 25 36 49 50 67 88 32 28 31 34 30 32 33 29 31 35 31 33 36 31 33 36 31 32 37 32 33 35 30 31 36 31 32 36 31 32 37 32 33 37 32 33 35 30 31 36 31 33 34 30 31 36 32 34 35 31 34 44 36 36 39 32 32 41 35 35 38 32 32 38 32 33 29 27 32 27 26 31 24 23 28 26 25 31 33 28 31 35 30 33 32 28 31 32 28 31 35 30 33 26 26 32 23 22 28 25 25 31 24 23 29 32 28 31 35 31 34 35 30 33 34 29 32 33 29 32 25 25 31 25 24 30 23 23 29 23 22 28 33 28 31 32 27 30 35 30 33 34 29 32 35 30 33 26 25 31 25 25 31 26 25 31 26 25 31 33 28 31 35 31 34 33 28 31 32 27 30 34 29 32 25 24 30 23 23 29 24 24 30 24 23 29 32 27 30 32 27 30 35 31 34 34 29 32 33 28 31 25 24 30 24 23 29 24 23 29 24 24 30 35 30 33 35 30 33 35 30 33 34 29 32 35 30 33 26 25 30 27 26 31 28 26 30 31 29 33 39 33 33 41 34 34 40 32 32 42 35 34 44 37 36 36 32 34 33 29 30 36 32 33 37 33 34 38 33 34 35 31 32 36 31 32 37 32 33 37 32 33 35 30 31 37 32 33 36 32 33 34 29 31 33 29 30 35 31 33 35 31 34 27 37 50 25 36 48 24 35 48 47 65 88 17 29 44 16 29 45 13 26 42 21 31 45 19 30 44 41 59 83 41 59 83 9 23 40 34 55 81 10 24 41 40 58 82 39 57 81 15 26 41 38 56 80 6 20 37 7 21 38 6 20 37 14 25 40 14 25 40 13 24 39 36 54 78 5 19 36 6 20 37 3 17 34 36 54 78 10 21 36 11 22 37 11 22 37 2 16 33 3 17 34 26 47 73 33 51 75 7 18 33 9 20 35 32 50 74 0 14 31 1 15 32 10 7 13 15 9 13 17 12 16 16 10 14
13 8 12 16 10 14 16 11 15 15 9 13 8 5 11 0 13 30 1 15 32 8 19 34 32 50 74 8 19 34 9 20 35 2 16 33 27 48 74 2 16 33 34 52 76 35 53 77 12 23 38 12 23 38 29 50 76 5 19 36 4 18 35 37 55 79 13 24 39 13 24 39 12 23 38 6 20 37 6 20 37 9 23 40 13 24 39 39 57 81 17 28 43 15 26 41 33 54 80 10 24 41 9 23 40 16 27 42 41 59 83 19 30 44 19 29 43 39 59 83 18 30 45 42 60 84 24 35 48 25 35 48 26 35 48 26 36 47 36 31 33 35 30 32 35 30 31 38 33 33 39 34 34 38 33 34 37 31 32 37 32 32 38 33 33 38 33 33 38 32 33 36 31 32 37 32 33 35 30 31 38 34 35 38 33 34 35 31 32 43 35 34 42 34 33 43 36 36 41 34 34 39 32 33 28 25 29 28 26 31 28 26 31 25 24 29 36 31 34 34 30 33 33 28 31 33 28 31 35 31 34 26 26 32 23 23 29 24 24 30 24 23 29 33 29 32 32 28 31 32 27 30 35 30 33 32 28 31 24 23 29 25 25 31 25 24 30 25 25 31 35 31 34 35 30 33 32 27 30 33 28 31 34 29 32 27 26 32 26 26 32 26 25 31 27 26 32 32 28 31 35 30 33 35 30 33 32 27 30 35 30 33 25 24 30 25 24 30 24 24 30 26 25 31 33 28 31 32 28 31 33 28 31 35 31 34 33 29 32 26 26 32 26 25 32 26 25 31 25 25 31 35 31 34 33 28 31 34 30 33 36 31 34 34 29 31 26 24 29 29 27 31 31 29 33 32 29 33 41 34 34 40 32 32 41 34 33 45 37 35 46 38 36 38 33 34 36 32 33 38 33 34 37 32 33 38 32 33 39 34 34 36 31 31 38 33 33 38 33 33 38 32 33 38 33 33 39 34 34 38 33 34 38 33 34 37 32 33 35 31 32 26 36 48 26 36 48 50 67 88 24 34 47 17 29 44 15 28 42 39 59 83 45 62 84 20 30 44 41 59 83 16 27 42 8 22 39 9 23 40 33 54 80 15 26 41 39 57 81 15 26 41 13 24 39 7 21 38 6 20 37 7 21 38 13 24 39 12 23 38 14 25 40 13 24 39 6 20 37 29 50 76 28 49 75 12 23 38 13 24 39 10 21 36 9 20 35 4 18 35 3 17 34 1 15 32 11 22 37 8 19 34 7 18 33 7 18 33 25 46 72 0 14 31 10 8 14 16 10 14 15 10 14 17 11 15
17 11 15 17 12 16 18 12 16 16 10 14 8 5 11 1 15 32 0 14 31 8 19 34 7 18 33 10 21 36 11 22 37 3 17 34 3 17 34 2 16 33 11 22 37 11 22 37 11 22 37 10 21 36 4 18 35 6 20 37 5 19 36 13 24 39 12 23 38 15 26 41 12 23 38 7 21 38 7 21 38 32 53 79 15 26 41 14 25 40 15 26 41 16 27 42 9 23 40 11 25 42 11 25 42 41 59 83 20 31 45 21 31 45 21 30 44 40 59 83 18 29 44 18 30 44 50 67 88 28 38 50 28 37 49 29 38 49 35 30 31 38 32 33 39 34 34 39 33 33 38 32 32 39 34 33 41 35 35 41 35 35 40 34 33 41 35 35 40 34 33 39 33 33 40 35 35 41 35 35 37 32 32 38 33 33 36 31 32 45 36 34 46 37 36 44 36 35 42 35 34 43 35 35 32 29 32 29 27 31 28 26 30 26 25 30 36 31 33 36 31 34 33 29 32 34 29 32 36 31 34 26 25 31 26 25 31 27 26 32 26 25 31 33 29 32 35 30 33 34 29 32 34 29 32 35 30 33 24 24 30 26 26 32 25 25 31 26 25 31 34 29 32 35 30 33 34 29 32 35 30 33 34 28 31 25 24 29 25 24 29 26 25 30 25 24 29 36 31 33 34 29 32 33 28 31 34 29 32 35 30 34 25 25 31 26 25 31 27 26 32 23 22 29 33 28 31 33 29 32 32 28 31 35 31 34 34 29 32 26 25 31 23 22 28 25 24 31 26 25 31 34 29 32 34 29 32 36 31 34 35 30 32 38 32 34 30 28 32 30 27 31 30 27 30 32 29 32 44 36 36 44 36 35 45 37 35 45 36 34 44 35 33 37 32 32 39 34 34 39 34 34 39 33 33 39 33 33 39 33 33 41 35 35 40 34 33 40 34 34 42 36 35 40 34 34 38 33 32 40 35 35 36 31 31 39 34 35 36 31 32 30 39 50 27 36 48 26 35 47 25 35 47 44 62 85 17 29 43 17 29 43 23 32 46 19 29 43 19 30 44 17 28 42 11 25 42 10 24 41 8 22 39 15 26 41 17 28 43 16 27 42 39 57 81 8 22 39 8 22 39 31 52 78 15 26 41 13 24 39 12 23 38 14 25 40 5 19 36 29 50 76 4 18 35 13 24 39 10 21 36 35 53 77 10 21 36 3 17 34 27 48 74 4 18 35 9 20 35 8 19 34 9 20 35 8 19 34 25 46 72 1 15 32 11 8 14 14 9 13 15 9 13 17 11 15
15 10 14 15 9 14 15 9 14 17 11 15 8 6 12 12 9 15 1 15 32 8 19 34 33 51 75 9 20 35 33 51 75 1 15 32 4 18 35 4 18 35 10 21 36 11 22 37 35 53 77 13 24 39 5 19 36 5 19 36 6 20 37 12 23 38 37 55 79 14 25 40 38 56 80 7 21 38 31 52 78 32 53 79 15 26 41 14 25 40 15 26 41 14 25 40 9 23 40 34 55 81 10 24 41 17 28 42 21 31 45 21 31 44 47 64 85 18 30 44 21 32 46 21 32 46 27 37 48 29 39 50 28 37 48 36 31 32 40 35 35 38 32 32 40 34 33 41 35 35 40 33 32 42 36 35 42 35 34 40 33 32 40 33 32 42 35 34 41 34 33 42 36 35 41 35 34 40 34 33 41 35 35 41 35 35 39 33 34 47 37 35 46 37 35 46 37 36 44 36 35 43 35 35 32 29 31 33 30 33 32 29 33 29 27 31 37 32 34 35 30 32 32 28 31 35 30 33 35 30 34 25 24 30 24 23 29 25 24 31 23 22 28 34 30 33 35 30 33 35 30 34 35 31 34 34 29 33 24 24 30 26 25 31 28 26 32 28 27 33 36 31 33 35 30 32 39 33 35 35 29 31 37 32 33 30 28 33 30 28 33 28 27 31 27 25 30 36 30 32 37 31 33 35 29 31 35 29 31 34 29 31 26 25 31 26 25 31 23 23 29 24 23 29 35 31 34 34 30 33 35 30 33 33 28 31 32 28 31 27 26 32 25 24 31 25 25 31 25 24 30 34 29 33 33 28 32 34 29 31 37 32 34 37 31 33 31 28 32 32 29 32 33 29 32 34 30 33 42 34 33 47 38 37 46 37 35 45 36 34 48 39 36 38 32 32 38 32 32 41 35 34 42 35 35 42 36 35 43 36 35 42 35 34 40 33 32 42 35 34 43 36 35 42 35 34 43 36 36 42 36 36 41 35 35 40 34 34 40 34 35 37 31 32 53 69 89 52 68 88 26 36 47 20 31 45 21 32 46 18 30 44 25 34 47 22 32 45 21 31 45 20 30 45 10 24 41 33 54 80 8 22 39 40 58 82 14 25 40 14 25 40 16 27 42 9 23 40 8 22 39 7 21 38 38 56 80 14 25 40 13 24 39 37 55 79 5 19 36 29 50 76 5 19 36 35 53 77 12 23 38 35 53 77 35 53 77 2 16 33 27 48 74 3 17 34 8 19 34 8 19 34 7 18 33 32 50 74 0 13 30 11 8 14 11 8 14 15 9 13 14 8 13 15 9 13
17 11 15 14 8 13 18 12 16 17 11 15 11 8 15 9 7 13 25 46 72 7 18 33 8 19 34 8 19 34 9 20 35 2 16 33 26 47 73 2 16 33 10 21 36 10 21 36 35 53 77 13 24 39 5 19 36 5 19 36 29 50 76 13 24 39 12 23 38 15 26 41 12 23 38 8 22 39 31 52 78 31 52 78 16 27 42 15 26 41 15 26 41 14 25 40 9 23 40 11 25 42 34 55 81 44 61 84 20 30 43 23 32 45 25 34 47 18 29 43 21 32 45 20 31 44 29 38 50 29 38 49 32 40 51 37 32 32 40 34 34 40 34 33 42 35 34 43 36 35 44 37 35 42 35 34 41 34 33 44 37 35 43 35 34 43 36 34 43 36 34 43 35 34 41 34 33 42 35 34 43 37 36 41 34 34 41 35 35 48 39 36 47 38 35 44 35 33 46 37 36 44 36 35 35 31 34 33 29 32 32 29 32 32 29 33 40 34 35 37 32 34 35 30 32 35 30 33 36 31 34 26 25 31 26 25 31 24 23 29 26 25 32 36 31 34 32 28 31 36 31 35 34 29 32 37 32 35 25 24 29 29 27 33 30 28 33 29 27 32 37 31 33 40 34 35 38 31 33 37 31 32 38 31 33 31 28 32 30 27 31 31 29 33 30 28 32 39 32 34 37 31 32 37 31 32 39 33 34 39 33 35 28 26 31 29 27 32 28 27 33 26 26 31 34 29 33 33 28 31 33 28 31 35 30 33 35 30 33 24 23 29 26 25 31 25 24 31 25 24 30 33 28 31 35 30 33 35 29 31 36 30 31 39 32 33 30 27 30 31 27 30 33 29 31 33 29 31 44 35 34 44 35 33 47 38 36 49 40 37 50 40 37 41 35 35 43 37 36 44 37 36 44 37 36 44 37 35 45 37 36 45 37 36 43 36 34 42 35 33 44 37 35 42 35 33 43 36 34 41 34 33 43 36 35 42 35 35 42 36 35 38 32 32 29 38 48 29 38 49 28 37 49 22 33 45 21 31 45 20 31 45 48 64 85 23 32 45 45 62 84 18 28 42 11 24 41 10 24 41 9 23 40 16 27 42 16 27 42 14 25 40 15 26 41 32 53 79 8 22 39 31 52 78 38 56 80 12 23 38 11 22 37 13 24 39 5 19 36 5 19 36 6 20 37 12 23 38 35 53 77 11 22 37 11 22 37 3 17 34 27 48 74 2 16 33 8 19 34 9 20 35 7 18 33 8 19 34 1 15 32 11 8 14 11 8 15 18 12 16 16 10 14 14 8 13
16 11 15 15 9 13 15 9 13 19 13 17 8 6 12 11 8 14 25 46 72 8 19 34 10 21 36 8 19 34 9 20 35 26 47 73 27 48 74 4 18 35 34 52 76 9 20 35 12 23 38 11 22 37 5 19 36 6 20 37 30 51 77 37 55 79 14 25 40 12 23 38 13 24 39 8 22 39 7 21 38 9 23 40 16 27 42 14 25 40 16 27 42 17 28 43 10 24 41 11 24 41 12 25 41 21 30 44 23 32 45 48 64 85 25 33 45 19 30 44 22 33 46 23 33 45 30 39 50 29 38 48 32 40 49 41 35 35 41 34 33 44 37 36 45 38 37 42 35 33 43 36 34 45 38 35 46 38 36 44 36 34 45 37 35 47 39 37 47 39 37 43 36 34 43 36 34 43 36 34 42 35 34 42 35 34 43 36 35 50 40 37 50 40 37 49 40 37 46 37 34 46 37 35 34 30 31 34 30 33 31 27 30 33 30 33 37 31 32 37 31 33 37 32 34 36 31 34 35 30 33 27 26 32 25 25 31 27 27 33 24 23 29 34 29 32 34 29 33 35 30 33 34 28 31 35 29 31 28 26 31 30 28 32 29 27 32 30 27 31 41 35 36 38 32 32 41 34 35 40 33 34 41 34 35 31 28 31 32 29 32 31 28 31 32 29 33 41 34 34 39 32 33 41 34 35 38 32 32 39 33 34 31 29 34 30 28 33 29 28 33 27 26 31 37 32 35 34 29 32 34 29 32 34 29 33 36 31 34 26 25 31 25 24 30 25 25 31 24 23 29 33 29 31 35 30 32 36 30 32 40 33 34 39 32 32 35 31 34 35 31 33 36 32 34 35 30 31 45 36 34 48 38 36 49 39 36 50 40 37 49 39 35 41 34 33 42 35 33 43 36 34 44 36 34 45 37 35 47 39 37 44 36 33 47 39 37 46 38 35 47 39 37 45 37 35 43 36 34 45 38 36 41 34 33 42 35 34 40 34 33 40 34 34 33 41 51 30 38 49 53 69 89 24 34 46 22 33 45 20 31 45 25 33 45 24 33 46 22 31 44 20 30 43 12 25 42 34 55 81 9 23 40 17 28 43 40 58 82 16 27 42 14 25 40 7 21 38 6 20 37 7 21 38 12 23 38 12 23 38 37 55 79 36 54 78 5 19 36 29 50 76 6 20 37 36 54 78 10 21 36 11 22 37 12 23 38 3 17 34 1 15 32 3 17 34 9 20 35 10 21 36 33 51 75 33 51 75 25 46 72 9 6 12 11 9 15 16 10 14 18 12 16 15 10 14
40 25 22 39 24 21 40 25 22 39 25 22 32 21 20 34 22 22 24 29 39 32 34 42 30 32 40 33 35 43 56 65 82 24 29 39 24 29 39 27 32 42 35 37 45 58 67 84 58 67 84 36 38 46 28 33 43 28 33 43 27 32 42 36 38 46 36 38 46 37 39 47 38 40 48 30 35 45 31 36 46 30 35 45 38 40 48 37 39 47 62 71 88 63 72 89 31 36 46 35 39 48 35 39 47 43 44 50 46 46 51 46 46 51 50 49 53 45 47 53 46 47 53 48 49 53 31 40 50 32 40 50 34 41 50 40 33 33 43 36 35 43 36 34 44 36 34 47 39 37 45 37 35 45 37 34 45 37 34 48 39 36 46 37 34 45 37 34 47 39 36 45 37 34 47 39 36 45 37 34 47 39 37 43 36 34 42 35 33 50 39 35 51 40 37 49 39 36 47 37 35 48 39 37 38 33 35 33 29 31 35 31 34 32 29 32 39 32 33 38 32 33 38 33 35 35 30 32 33 28 31 24 23 29 27 26 32 26 25 31 24 23 29 34 29 33 34 29 31 38 33 35 37 31 33 38 32 33 32 29 33 31 29 33 33 30 33 32 29 32 42 35 35 40 33 33 44 36 36 44 36 36 42 34 34 35 31 34 35 32 34 35 31 34 34 30 33 40 33 33 44 36 36 40 33 33 43 36 36 42 35 36 33 30 34 31 29 33 31 28 33 29 27 32 37 31 33 36 31 33 34 29 32 35 31 34 35 31 34 25 24 30 27 27 33 25 24 30 26 26 32 37 32 34 37 32 34 39 33 34 39 33 33 40 33 33 32 28 31 36 32 34 38 33 35 37 32 33 50 40 38 50 40 37 51 40 37 51 40 36 51 40 35 44 37 35 46 38 36 47 39 37 45 37 34 46 37 35 47 39 36 47 39 36 47 39 36 45 37 34 46 37 34 47 39 36 46 38 36 46 38 36 45 37 35 43 36 34 45 38 37 44 37 36 34 41 51 34 41 51 31 40 50 48 49 53 44 45 50 43 45 51 50 49 53 47 46 51 45 45 51 46 46 52 36 40 49 35 39 48 32 37 47 38 40 48 38 40 48 62 71 88 39 41 49 30 35 45 29 34 44 29 34 44 35 37 45 38 40 48 37 39 47 60 69 86 27 32 42 27 32 42 52 64 83 35 37 45 34 36 44 35 37 45 34 36 44 25 30 40 27 32 42 26 31 41 32 34 42 32 34 42 32 34 42 32 34 42 23 28 38 35 23 22 34 22 21 39 25 22 39 24 22 39 25 22
39 24 21 41 26 23 40 25 23 38 23 21 35 23 22 35 23 22 35 24 23 56 65 82 32 34 42 32 34 42 33 35 43 25 30 40 50 62 81 50 62 81 35 37 45 58 67 84 58 67 84 34 36 44 28 33 43 29 34 44 30 35 45 35 37 45 60 69 86 37 39 47 36 38 46 54 66 85 55 67 86 54 66 85 36 38 46 39 41 49 40 42 50 39 41 49 32 37 47 59 70 88 35 39 48 46 46 52 46 46 51 48 47 51 49 48 52 46 47 52 46 46 51 72 80 93 56 71 90 34 41 50 41 34 33 43 36 34 44 36 34 45 37 34 46 38 35 49 40 37 47 38 35 49 40 36 48 39 35 50 41 37 49 39 35 49 40 36 49 40 37 48 39 35 47 38 35 47 38 35 48 40 37 46 38 36 47 39 37 53 42 37 51 41 37 49 38 35 49 39 36 47 37 35 38 33 34 34 30 31 36 32 34 33 30 32 40 33 33 41 34 35 39 32 34 38 33 35 35 30 33 27 26 32 25 24 30 25 25 31 27 26 32 36 31 34 35 30 32 37 31 33 38 32 33 39 33 34 30 27 30 32 29 33 31 28 31 33 30 33 41 33 33 45 37 36 42 34 33 45 37 36 46 37 36 35 31 33 35 30 32 34 30 32 34 30 32 46 38 37 42 34 33 42 34 34 44 36 36 43 35 35 33 30 33 33 30 33 31 28 32 32 30 34 38 32 33 37 31 33 38 32 34 37 31 34 37 32 35 24 23 29 24 23 29 25 24 30 24 23 29 35 30 32 40 34 36 39 32 33 41 34 35 41 34 33 37 32 35 35 30 32 40 34 36 41 35 36 49 39 36 51 41 37 51 40 36 54 43 38 52 41 36 48 40 37 47 39 36 46 37 34 49 40 37 50 41 37 50 40 37 49 40 36 49 40 36 49 40 36 48 39 35 50 41 37 50 41 38 47 39 36 47 38 36 46 38 35 43 35 33 46 38 37 44 37 36 33 40 49 31 39 49 49 49 53 48 48 53 46 47 52 74 80 93 73 79 92 48 47 53 45 45 51 38 41 50 59 70 88 33 38 47 38 40 48 40 42 50 38 40 48 39 41 49 32 37 47 54 66 85 54 66 85 37 39 47 35 37 45 37 39 47 35 37 45 29 34 44 29 34 44 27 32 42 59 68 85 58 67 84 35 37 45 33 35 43 50 62 81 50 62 81 50 62 81 32 34 42 56 65 82 32 34 42 55 64 81 32 20 19 33 21 20 33 21 20 40 25 22 40 26 23 38 24 21
15 9 13 16 10 14 17 11 15 18 12 16 12 9 15 9 6 12 10 8 14 8 19 34 10 21 36 32 50 74 9 20 35 3 17 34 2 16 33 4 18 35 34 52 76 11 22 37 10 21 36 11 22 37 4 18 35 4 18 35 6 20 37 37 55 79 12 23 38 37 55 79 13 24 39 6 20 37 6 20 37 6 20 37 15 26 41 39 57 81 14 25 40 16 27 42 9 23 39 12 25 40 38 58 82 22 31 44 24 33 44 50 65 85 27 34 45 24 34 46 26 35 46 26 34 45 32 40 49 36 43 52 44 37 36 44 36 34 46 38 36 46 37 34 47 38 35 50 41 37 50 41 37 51 41 37 49 40 35 52 43 38 51 41 36 52 43 38 51 41 37 51 41 37 50 40 37 47 38 35 48 39 36 48 39 36 46 38 36 54 42 37 52 41 37 52 41 37 52 42 38 51 41 38 41 35 36 38 33 34 37 33 35 36 32 35 43 36 36 41 34 35 38 31 33 38 32 34 37 32 35 27 27 33 26 25 32 26 25 31 27 25 31 36 31 33 39 33 34 40 34 35 40 34 34 40 33 33 33 29 32 36 32 35 34 30 32 37 33 35 47 38 37 45 37 35 46 38 36 47 38 36 46 37 35 36 31 32 36 31 32 36 31 33 36 31 33 45 36 34 46 38 36 46 37 36 44 35 34 43 35 34 34 29 32 32 28 31 35 31 34 32 29 32 39 32 33 40 33 34 40 34 36 37 31 33 37 32 34 28 27 33 26 25 31 26 25 31 28 27 32 36 31 33 39 33 34 42 35 36 44 36 36 43 35 35 37 33 35 37 32 33 40 34 35 39 33 33 51 40 37 52 41 37 54 43 38 55 44 39 56 44 39 47 39 36 50 41 38 50 41 37 49 40 36 51 41 37 51 41 37 52 42 38 52 42 38 50 41 36 50 40 35 51 41 37 50 40 36 47 38 34 49 40 37 47 38 35 48 39 37 44 36 34 43 36 35 34 40 49 57 71 89 51 66 86 26 35 46 24 34 46 29 36 47 50 65 85 24 32 44 24 33 45 15 27 42 11 24 40 12 25 41 14 25 40 40 58 82 14 25 40 14 25 40 9 23 40 31 52 78 7 21 38 15 26 41 13 24 39 12 23 38 13 24 39 5 19 36 5 19 36 5 19 36 13 24 39 12 23 38 12 23 38 11 22 37 3 17 34 27 48 74 2 16 33 8 19 34 33 51 75 32 50 74 8 19 34 12 9 15 10 8 14 11 8 15 16 10 14 16 10 14 16 11 15
16 10 14 15 9 14 17 11 15 15 9 14 9 6 13 10 7 13 12 9 15 7 18 33 8 19 34 9 20 35 9 20 35 3 17 34 4 18 35 3 17 34 11 22 37 10 21 36 13 24 39 10 21 36 5 19 36 29 50 76 4 18 35 12 23 38 37 55 79 12 23 38 13 24 39 6 20 37 7 21 38 7 21 38 39 57 81 15 26 41 40 58 82 18 28 43 12 25 41 14 26 42 14 26 41 23 32 44 24 32 44 51 65 85 53 67 86 24 33 45 27 36 47 27 35 46 58 72 90 36 43 51 44 36 34 47 38 36 46 38 35 49 40 36 50 41 37 51 41 37 51 41 37 50 40 35 54 44 39 54 44 39 53 42 37 51 40 35 53 43 38 53 43 38 53 43 39 52 43 38 75 56 43 76 58 45 72 54 42 82 60 46 79 58 44 77 57 43 75 55 42 74 54 42 65 50 41 65 51 43 61 47 40 60 47 40 68 51 42 66 50 42 65 49 41 62 47 39 63 49 42 50 40 37 51 41 38 54 43 40 54 44 40 65 50 43 64 48 40 67 51 43 67 50 42 69 52 43 59 46 39 62 49 42 60 47 39 62 48 41 70 52 41 72 54 43 73 55 44 72 54 43 72 53 42 63 48 40 64 50 41 63 48 40 65 51 42 72 54 42 73 55 44 72 53 43 70 52 42 70 52 42 60 46 39 62 49 42 58 45 39 57 44 38 67 51 42 68 52 43 64 48 41 63 48 40 61 46 39 54 44 40 52 42 39 51 41 38 51 41 37 65 50 43 66 51 43 65 49 40 70 53 44 69 52 42 62 48 41 64 50 42 66 51 42 68 52 43 77 57 44 78 58 44 78 57 43 82 60 46 82 60 45 73 55 42 75 57 44 53 43 39 50 40 36 53 43 38 52 42 37 51 41 36 51 41 35 54 44 38 53 43 38 53 42 38 51 41 36 51 42 38 52 42 38 49 40 37 49 40 37 48 39 37 43 36 34 34 41 49 35 42 51 29 37 47 24 33 44 22 32 43 53 67 86 29 36 47 24 32 44 48 63 85 16 28 43 14 26 42 11 25 41 17 28 42 40 58 82 16 27 42 16 27 42 8 22 39 6 20 37 6 20 37 13 24 39 37 55 79 37 55 79 11 22 37 7 21 38 4 18 35 29 50 76 11 22 37 11 22 37 10 21 36 10 21 36 4 18 35 2 16 33 1 15 32 9 20 35 9 20 35 8 19 34 32 50 74 11 8 15 11 8 15 12 9 15 18 12 16 15 9 14 18 12 17
16 10 14 16 11 15 18 12 16 17 11 16 9 6 13 11 8 15 11 8 15 10 21 36 10 21 36 10 21 36 33 51 75 4 18 35 4 18 35 2 16 33 34 52 76 10 21 36 10 21 36 11 22 37 5 19 36 5 19 36 6 20 37 37 55 79 37 55 79 38 56 80 13 24 39 7 21 38 7 21 38 32 53 79 16 27 42 39 57 81 39 57 81 17 27 42 35 55 80 14 26 42 16 28 43 23 31 43 27 34 46 52 66 86 54 68 87 26 35 47 51 66 86 28 36 46 37 43 52 36 42 50 48 40 37 50 41 38 50 41 38 50 40 36 50 40 35 51 41 36 55 44 39 53 42 36 53 42 36 54 43 37 56 45 39 53 42 36 54 43 37 52 41 35 53 43 38 52 42 37 77 58 45 77 59 46 76 57 45 81 59 44 79 58 44 81 60 47 79 59 46 77 57 45 65 50 41 64 50 41 62 48 40 62 49 42 68 51 42 66 49 40 67 51 43 63 47 40 63 48 41 54 44 41 51 41 38 52 41 38 53 42 37 67 51 43 68 52 43 68 51 43 70 53 44 69 52 42 63 49 42 61 47 40 63 49 41 64 49 41 74 56 44 74 55 43 74 55 44 76 57 45 75 56 44 66 51 42 66 51 42 66 50 41 65 50 41 75 56 44 75 56 44 75 56 45 74 55 44 71 53 42 64 50 42 63 49 42 60 47 39 61 47 41 67 50 41 69 53 44 65 49 41 66 51 43 62 47 40 54 43 39 53 43 39 52 42 39 56 45 41 63 48 40 65 49 40 69 53 44 70 52 43 69 51 41 61 47 39 65 50 42 67 52 43 68 53 43 76 56 42 77 57 43 80 59 45 81 60 45 83 60 45 73 55 42 76 57 43 52 41 36 55 44 39 54 44 38 56 45 39 53 42 36 54 42 37 53 42 36 53 42 36 52 42 36 55 44 39 53 43 38 50 40 36 51 41 37 51 42 38 49 41 38 46 38 35 60 74 90 35 42 50 29 37 47 25 34 44 26 35 46 31 38 48 27 34 45 27 34 46 26 34 46 14 26 41 15 28 43 12 25 41 15 26 41 14 25 40 14 25 40 38 56 80 8 22 39 31 52 78 30 51 77 13 24 39 14 25 40 12 23 38 12 23 38 4 18 35 5 19 36 4 18 35 10 21 36 12 23 38 11 22 37 12 23 38 3 17 34 3 17 34 27 48 74 10 21 36 33 51 75 8 19 34 9 20 35 10 7 13 13 10 17 11 8 14 19 13 18 17 12 16 18 12 17
15 9 13 18 12 17 18 12 16 19 13 17 11 8 15 13 10 17 12 9 15 18 12 16 32 50 74 10 21 36 8 19 34 2 16 33 26 47 73 27 48 74 11 22 37 11 22 37 35 53 77 11 22 37 4 18 35 5 19 36 7 21 38 12 23 38 13 24 39 14 25 40 14 25 40 6 20 37 8 22 39 6 20 37 39 57 81 15 26 41 14 25 40 17 27 42 11 24 40 14 26 41 16 28 42 24 32 44 28 36 47 30 37 47 30 36 46 26 35 46 28 36 46 29 37 46 35 41 49 45 37 35 49 41 38 48 39 36 51 42 38 51 41 37 52 41 36 54 43 37 56 45 39 57 46 40 57 46 39 55 43 36 55 43 37 55 43 37 58 46 40 57 45 39 53 42 36 53 42 36 51 40 35 52 42 37 52 42 38 58 45 39 55 43 37 57 44 39 53 42 37 51 40 36 43 36 36 39 33 33 40 34 35 37 32 33 43 35 34 42 35 35 41 33 34 40 33 34 38 32 34 31 29 34 28 26 31 28 26 31 30 27 31 43 36 36 44 37 37 44 36 36 46 38 37 46 38 36 37 32 33 38 32 33 39 34 34 41 35 36 51 40 38 52 41 38 52 41 38 53 42 39 53 42 38 43 36 35 44 37 36 43 36 36 42 35 34 53 43 39 51 41 37 51 41 38 50 40 37 49 39 36 38 32 33 38 32 33 37 32 33 37 33 34 44 35 34 45 37 36 42 34 35 40 33 34 40 33 34 30 28 33 29 27 32 29 27 32 29 27 32 39 32 34 41 34 35 44 36 36 45 37 36 48 39 38 38 33 34 41 35 35 41 34 34 45 38 37 56 44 40 57 45 40 57 44 38 58 45 39 61 48 41 53 43 38 52 42 37 54 43 38 54 43 37 56 45 39 54 43 36 57 45 39 58 46 40 57 45 38 57 46 40 57 45 39 53 42 36 54 43 38 53 42 38 50 40 36 51 41 37 50 41 38 46 37 34 47 38 36 37 44 52 28 36 46 27 35 46 26 34 45 32 38 48 30 37 47 26 33 44 25 33 44 40 59 82 13 25 40 11 24 39 16 27 41 16 27 42 39 57 81 14 25 40 8 22 39 8 22 39 31 52 78 14 25 40 13 24 39 12 23 38 37 55 79 29 50 76 29 50 76 3 17 34 12 23 38 35 53 77 11 22 37 9 20 35 4 18 35 27 48 74 2 16 33 11 22 37 10 21 36 8 19 34 19 13 17 13 10 17 13 10 17 11 8 15 16 10 15 19 13 17 19 13 17
18 12 17 18 12 16 17 11 15 17 11 15 12 9 15 10 7 13 12 9 15 20 14 19 8 19 34 9 20 35 8 19 34 2 16 33 4 18 35 4 18 35 11 22 37 11 22 37 10 21 36 10 21 36 29 50 76 5 19 36 4 18 35 14 25 40 13 24 39 12 23 38 13 24 39 31 52 78 6 20 37 7 21 38 16 27 42 39 57 81 16 27 42 17 27 41 37 56 81 39 58 81 17 28 42 49 64 85 29 36 47 29 35 45 31 38 47 25 34 45 28 36 46 53 68 86 37 43 51 47 39 36 47 38 35 48 39 35 51 41 37 55 44 39 55 44 39 54 43 37 56 44 38 59 47 40 58 45 38 59 46 39 60 48 40 60 48 41 58 46 39 58 46 40 57 45 39 53 42 36 53 42 36 54 44 39 51 41 37 60 47 40 58 45 39 55 42 37 55 43 39 55 43 39 44 37 36 41 34 34 41 36 36 39 34 35 44 36 35 45 37 37 44 37 37 40 33 34 42 35 37 30 28 32 31 29 34 33 30 34 31 28 31 44 36 36 45 37 36 47 39 38 48 39 38 46 36 35 41 35 36 41 35 35 43 37 37 41 35 34 52 41 37 52 41 37 51 40 36 52 41 36 55 44 39 43 36 34 43 35 34 46 39 37 44 36 35 53 41 37 55 44 39 51 40 36 52 41 37 51 40 37 40 33 33 39 33 34 39 33 34 38 33 34 47 38 36 45 37 36 43 35 35 42 34 34 40 33 33 30 27 32 32 29 34 33 30 35 29 27 31 41 34 35 44 36 37 45 37 36 46 37 36 47 38 37 39 33 34 41 35 35 42 36 35 45 38 37 56 44 40 57 44 39 59 46 40 58 45 38 59 45 38 53 43 38 54 43 38 57 46 40 54 43 37 57 45 38 58 46 39 58 45 38 59 46 39 58 46 39 59 47 40 57 45 38 58 46 40 57 45 39 56 45 40 54 43 39 51 41 37 51 41 37 50 41 38 47 38 36 37 43 51 31 38 48 52 67 86 27 36 47 32 38 48 30 37 47 29 36 47 50 65 85 16 28 42 39 58 82 13 25 41 17 27 41 15 26 41 15 26 41 13 24 39 9 23 40 32 53 79 5 19 36 14 25 40 37 55 79 13 24 39 11 22 37 29 50 76 5 19 36 29 50 76 36 54 78 10 21 36 11 22 37 12 23 38 5 19 36 3 17 34 4 18 35 9 20 35 8 19 34 8 19 34 19 13 18 11 8 15 13 10 16 12 9 15 17 11 16 16 10 14 16 10 15
15 9 14 18 12 16 17 11 15 17 11 16 11 8 15 13 10 16 10 7 14 20 14 18 20 14 19 8 19 34 9 20 35 27 48 74 4 18 35 2 16 33 11 22 37 34 52 76 11 22 37 11 22 37 4 18 35 29 50 76 5 19 36 13 24 39 14 25 40 14 25 40 14 25 40 7 21 38 31 52 78 8 22 39 15 26 41 15 26 41 17 28 43 19 29 43 12 24 40 14 26 41 18 30 44 50 65 85 29 36 47 31 38 48 56 69 87 27 36 46 30 38 47 31 39 48 47 39 37 50 41 38 49 40 37 53 43 39 53 42 38 52 41 36 56 45 39 56 44 38 59 47 40 58 45 38 60 47 40 58 45 38 61 48 40 59 46 39 60 47 39 60 48 40 57 45 38 57 45 38 54 43 37 55 44 39 53 43 38 62 48 41 58 44 38 56 43 37 54 42 37 53 42 37 42 35 34 42 35 35 41 35 36 38 33 34 44 36 34 46 38 37 44 36 37 42 35 35 40 33 34 33 30 34 30 27 31 34 30 34 35 32 35 43 35 35 47 39 38 45 36 35 49 40 38 49 39 37 43 36 37 44 37 37 42 35 35 44 37 36 54 43 38 52 41 36 53 41 36 55 44 39 57 45 40 47 39 37 48 40 37 48 39 37 47 39 37 55 43 38 53 41 37 53 42 37 55 44 40 53 41 38 44 37 37 43 37 37 41 35 36 38 33 33 47 38 36 48 39 38 46 38 37 43 35 35 42 34 34 33 30 33 33 30 34 32 29 33 34 30 34 43 36 37 41 34 34 43 35 35 44 35 34 49 40 38 42 36 36 40 34 34 44 37 36 46 38 37 54 41 36 57 44 38 59 46 39 58 44 37 63 48 41 55 44 39 54 42 37 55 44 37 57 45 38 60 47 40 58 45 37 60 47 39 59 46 38 58 45 37 59 46 38 60 47 40 59 47 40 58 46 39 57 46 40 54 43 37 53 43 38 51 41 37 51 42 38 49 40 37 46 38 36 32 39 48 30 38 48 28 37 47 56 69 87 29 36 46 27 34 44 26 34 45 41 59 82 39 58 82 12 25 40 17 27 41 17 28 43 15 26 41 16 27 42 7 21 38 7 21 38 6 20 37 12 23 38 37 55 79 37 55 79 12 23 38 5 19 36 6 20 37 3 17 34 11 22 37 12 23 38 12 23 38 10 21 36 27 48 74 3 17 34 26 47 73 8 19 34 33 51 75 21 15 20 21 15 19 11 8 15 13 10 17 9 6 13 19 13 18 18 12 17 17 11 15
16 10 15 16 10 14 19 13 18 18 12 17 11 8 15 13 10 17 14 11 17 17 11 16 20 14 19 33 51 75 11 22 37 26 47 73 4 18 35 2 16 33 12 23 38 12 23 38 12 23 38 35 53 77 5 19 36 4 18 35 5 19 36 14 25 40 13 24 39 37 55 79 37 55 79 7 21 38 31 52 78 32 53 79 15 26 41 14 25 40 15 26 40 43 60 82 15 27 42 40 58 82 17 28 42 26 34 45 27 34 44 29 36 45 33 38 47 28 36 47 28 36 45 55 69 87 48 40 37 50 41 37 49 40 36 53 43 39 53 43 38 54 42 37 55 43 37 57 44 38 59 46 39 59 45 38 61 47 39 60 46 38 61 48 39 61 47 39 62 49 41 58 45 37 60 48 40 58 45 39 56 44 38 56 44 39 52 41 36 60 46 39 58 44 37 58 45 39 55 43 37 53 41 37 45 38 37 42 35 35 40 34 34 38 32 33 46 37 36 43 35 34 44 36 36 44 37 37 45 37 37 33 29 33 35 32 36 32 28 32 35 31 34 47 38 38 45 36 35 47 37 36 47 38 35 50 40 37 43 37 36 44 37 36 45 37 36 47 39 37 53 41 37 56 43 38 58 45 40 57 45 39 59 46 40 47 38 36 49 40 37 48 39 36 48 40 37 58 45 40 56 44 39 56 43 38 56 44 39 55 43 38 45 38 37 44 36 36 42 36 36 41 35 35 51 41 39 46 37 35 47 38 37 46 38 37 43 35 35 33 29 33 33 29 33 34 31 34 34 30 34 45 37 38 45 37 37 46 38 38 46 37 36 49 39 37 42 36 36 42 36 35 46 39 38 46 38 36 54 42 37 58 45 39 61 47 40 59 45 38 61 47 39 56 45 40 57 46 39 59 46 39 60 48 40 62 49 41 61 48 39 60 46 38 63 49 40 62 48 40 59 46 38 59 46 38 61 48 41 59 47 40 58 47 40 53 42 36 53 42 37 54 44 39 51 42 38 50 41 38 48 40 37 55 70 87 30 38 48 51 66 86 31 37 46 55 68 87 27 34 45 27 35 46 41 60 82 16 27 42 14 27 42 18 28 42 17 28 43 39 57 81 39 57 81 6 20 37 6 20 37 7 21 38 13 24 39 38 56 80 14 25 40 37 55 79 6 20 37 5 19 36 28 49 75 13 24 39 10 21 36 12 23 38 34 52 76 4 18 35 27 48 74 3 17 34 9 20 35 33 51 75 21 15 19 18 12 16 12 9 16 12 9 16 12 9 16 19 13 18 19 13 18 16 10 14
18 12 17 18 12 16 19 13 18 20 14 18 10 7 14 10 7 14 11 8 14 19 13 18 21 15 20 20 14 19 11 22 37 4 18 35 26 47 73 4 18 35 12 23 38 11 22 37 10 21 36 11 22 37 5 19 36 6 20 37 4 18 35 12 23 38 14 25 40 37 55 79 14 25 40 8 22 39 6 20 37 7 21 38 14 25 40 39 57 81 16 27 41 19 29 42 38 57 81 16 28 42 42 60 83 25 33 44 29 36 46 32 38 48 33 38 47 27 36 46 28 36 45 41 34 33 49 40 38 49 40 37 50 40 37 52 41 37 54 43 38 57 46 40 56 44 37 58 46 39 60 47 40 64 50 42 245 184 82 245 184 82 247 186 84 246 185 83 244 183 81 64 50 42 59 46 38 58 45 38 59 47 40 56 45 39 54 44 38 62 48 40 60 46 39 59 46 40 58 46 40 56 44 39 43 35 34 42 35 35 42 36 36 41 36 37 46 37 35 46 37 36 43 34 34 44 36 36 45 37 37 35 31 34 33 29 32 33 29 32 36 31 34 46 37 36 46 37 35 48 38 36 50 39 37 52 41 38 45 38 37 44 36 35 45 37 35 48 40 38 58 45 40 59 46 40 58 45 39 60 47 41 61 47 41 50 41 37 52 42 39 52 43 39 49 40 37 57 43 37 57 44 38 58 46 40 57 44 39 56 44 39 47 39 38 45 38 36 44 36 36 44 37 37 50 40 37 47 37 35 49 39 38 47 39 37 45 36 36 34 30 33 34 30 33 35 31 35 37 32 35 43 35 35 45 37 37 45 37 36 48 39 38 49 39 37 41 34 35 43 36 35 43 36 35 46 38 36 59 46 41 57 44 38 61 47 40 62 48 40 64 49 40 58 46 40 57 45 39 60 47 40 59 46 39 62 49 41 246 185 83 245 184 82 244 183 81 245 184 82 246 185 83 63 49 41 62 49 42 60 47 40 57 45 38 56 45 39 53 43 37 54 44 39 50 41 37 50 41 38 49 40 38 40 33 32 29 36 45 52 67 86 32 38 47 30 36 46 28 35 45 27 35 46 19 30 44 15 27 41 13 25 40 19 29 43 17 28 42 16 27 42 15 26 41 32 53 79 6 20 37 8 22 39 38 56 80 13 24 39 37 55 79 13 24 39 4 18 35 4 18 35 5 19 36 11 22 37 12 23 38 12 23 38 9 20 35 2 16 33 2 16 33 2 16 33 8 19 34 19 13 18 19 13 17 21 15 20 11 8 14 12 9 15 12 9 15 18 12 17 20 14 18 16 10 15
17 11 16 18 12 17 16 10 15 19 13 18 11 8 14 10 7 14 14 11 17 18 12 16 20 14 19 21 15 20 9 20 35 3 17 34 2 16 33 3 17 34 10 21 36 10 21 36 35 53 77 11 22 37 5 19 36 6 20 37 6 20 37 14 25 40 13 24 39 38 56 80 37 55 79 8 22 39 32 53 79 31 52 78 15 26 41 14 25 40 18 28 42 43 60 83 14 27 42 17 29 43 18 29 42 51 66 85 29 36 46 31 37 46 57 70 87 52 67 86 31 39 48 41 34 33 47 38 35 51 41 38 54 44 40 52 41 37 55 43 38 58 46 40 59 47 40 58 45 38 60 47 39 244 183 81 247 186 84 245 184 82 246 185 83 246 185 83 243 182 80 243 182 80 62 49 41 61 48 41 58 46 39 55 43 37 56 45 40 64 49 42 60 47 39 61 48 41 58 45 40 54 42 37 43 36 35 43 36 36 43 36 36 41 35 36 48 39 38 45 36 35 44 36 35 47 38 38 44 36 35 38 33 36 37 33 36 34 30 33 37 32 34 47 37 36 50 41 39 51 40 38 51 40 37 51 40 36 47 39 38 47 39 37 47 39 37 49 40 38 59 46 40 59 46 39 61 48 41 59 46 39 61 47 40 53 43 39 53 43 39 51 41 37 52 42 38 62 48 41 59 45 39 59 45 39 60 47 41 58 45 40 48 39 37 46 38 36 45 37 36 43 35 35 50 39 36 50 40 37 48 38 36 47 38 36 47 38 37 35 31 34 34 30 33 34 30 32 37 33 36 44 36 35 45 37 36 46 37 36 46 37 35 49 39 37 41 35 35 43 36 35 46 38 37 48 40 38 59 46 40 61 48 41 62 48 41 63 49 41 64 49 41 57 45 39 59 47 40 60 48 40 61 48 40 246 185 83 244 183 81 245 184 82 246 185 83 244 183 81 246 185 83 244 183 81 62 49 40 62 49 41 59 46 39 59 47 41 55 44 38 52 41 36 53 43 39 49 39 36 49 40 37 42 34 34 29 36 45 27 35 45 32 38 47 32 39 48 28 35 45 51 66 86 19 30 44 15 27 41 14 26 41 20 30 43 18 29 43 15 26 41 15 26 41 7 21 38 9 23 40 8 22 39 13 24 39 14 25 40 14 25 40 13 24 39 6 20 37 6 20 37 6 20 37 36 54 78 12 23 38 35 53 77 11 22 37 5 19 36 3 17 34 3 17 34 34 52 76 19 13 17 22 16 20 20 14 19 12 9 16 12 9 16 11 8 15 20 13 18 20 13 18 17 11 16
17 11 16 20 14 18 16 10 15 20 14 18 10 7 14 12 9 16 13 10 17 18 12 17 20 14 18 21 15 20 21 15 20 2 16 33 3 17 34 28 49 75 34 52 76 34 52 76 35 53 77 10 21 36 5 19 36 29 50 76 6 20 37 13 24 39 12 23 38 14 25 40 13 24 39 7 21 38 8 22 39 9 23 40 15 26 41 16 27 42 19 29 43 20 29 43 15 27 42 16 27 41 19 30 43 51 65 85 28 35 45 32 38 48 34 40 48 52 67 86 40 34 33 43 35 34 49 40 38 50 40 37 50 40 36 56 45 40 55 44 38 59 47 41 59 46 39 60 47 39 63 50 41 245 184 82 246 185 83 244 183 81 247 186 84 247 186 84 243 182 80 244 183 81 62 48 40 60 47 39 58 45 38 58 46 40 56 44 39 62 47 39 62 48 41 61 48 41 58 45 40 57 44 39 44 37 35 45 38 38 42 35 36 40 34 35 47 38 37 47 38 37 47 38 37 46 37 36 45 36 36 39 34 37 36 32 34 37 33 35 37 32 34 49 39 38 51 41 39 53 42 39 54 43 40 56 44 40 46 38 36 49 40 38 49 40 37 48 39 36 59 45 38 59 45 38 60 46 39 61 47 40 62 47 39 55 45 40 52 41 37 52 42 37 55 45 40 64 50 42 62 48 41 61 47 40 61 48 41 58 45 39 48 40 37 48 40 38 46 38 36 45 37 36 51 40 37 52 42 39 51 40 38 48 39 37 46 37 36 37 33 35 36 31 33 37 33 35 38 33 36 48 39 39 45 36 36 46 37 36 49 40 39 50 40 38 41 35 35 44 37 36 44 37 35 47 39 37 59 46 41 60 46 40 62 48 41 65 50 42 63 48 39 58 47 40 57 45 38 59 46 38 63 49 41 246 185 83 247 186 84 246 185 83 246 185 83 243 182 80 243 182 80 244 183 81 63 49 41 59 46 38 60 47 41 59 47 41 57 45 40 55 44 39 54 44 40 50 40 37 48 39 36 40 32 31 38 31 31 28 36 46 57 70 87 32 39 48 29 36 46 51 66 86 17 28 42 17 29 43 13 26 40 19 29 42 16 27 41 14 25 40 15 26 41 6 20 37 31 52 78 7 21 38 14 25 40 13 24 39 12 23 38 11 22 37 30 51 77 4 18 35 4 18 35 11 22 37 11 22 37 10 21 36 9 20 35 27 48 74 27 48 74 2 16 33 20 14 18 19 13 18 22 16 20 18 12 17 12 9 16 13 10 17 12 9 16 19 13 18 20 13 18 18 12 16
17 11 16 17 11 15 18 12 16 19 13 18 13 10 17 14 11 17 14 11 18 19 13 17 19 13 18 22 16 21 20 14 19 3 17 34 27 48 74 27 48 74 11 22 37 10 21 36 35 53 77 11 22 37 5 19 36 5 19 36 6 20 37 13 24 39 13 24 39 37 55 79 37 55 79 6 20 37 6 20 37 32 53 79 15 26 41 16 27 42 18 28 42 43 60 82 13 25 40 40 59 82 42 60 82 28 35 46 53 67 86 31 37 47 32 38 46 29 37 47 42 35 35 43 35 34 50 41 38 50 41 37 54 44 39 54 43 38 56 44 39 58 46 40 61 48 41 60 47 39 61 47 38 245 184 82 246 185 83 246 185 83 246 185 83 245 184 82 245 184 82 243 182 80 61 47 39 61 48 40 61 49 42 59 47 41 57 46 40 63 48 40 61 47 39 61 47 41 56 43 38 55 43 38 47 39 38 43 36 35 41 34 34 41 35 36 46 37 35 46 37 36 49 40 38 47 38 37 48 39 38 39 34 36 40 35 37 38 33 36 39 34 35 52 42 39 49 39 36 52 41 38 55 43 39 57 45 41 49 40 38 47 38 35 52 42 39 53 43 39 60 46 39 64 50 42 63 48 40 65 50 42 64 49 41 55 44 38 55 44 38 57 45 40 54 43 37 66 51 43 64 50 42 64 50 42 60 46 39 60 46 40 51 41 38 49 40 38 46 37 35 47 39 37 55 43 39 52 41 38 52 42 39 50 40 38 48 39 37 38 33 36 37 32 34 38 33 35 39 34 36 47 38 37 49 40 39 46 36 35 49 40 38 50 40 38 44 37 38 43 36 35 44 36 35 47 38 36 59 46 41 60 47 41 63 49 42 63 48 40 63 48 39 59 47 41 58 45 38 60 47 39 62 48 40 245 184 82 244 183 81 243 182 80 244 183 81 243 182 80 244 183 81 244 183 81 61 47 39 62 49 41 60 47 40 56 44 38 54 43 37 54 43 38 53 42 38 49 39 36 47 38 36 42 35 34 41 34 34 27 35 45 34 40 48 33 39 48 30 37 47 27 34 45 17 28 41 16 27 42 15 27 42 43 60 83 18 29 43 15 26 41 13 24 39 8 22 39 32 53 79 8 22 39 37 55 79 13 24 39 12 23 38 37 55 79 5 19 36 4 18 35 3 17 34 12 23 38 12 23 38 11 22 37 9 20 35 2 16 33 2 16 33 3 17 34 21 15 20 20 14 19 20 14 18 19 13 18 13 9 16 13 10 17 12 9 16 18 12 17 18 12 16 17 11 15
17 11 16 19 13 18 17 11 16 21 14 19 11 8 15 11 8 15 12 9 16 18 12 17 20 14 18 22 16 21 20 14 19 15 12 19 3 17 34 27 48 74 35 53 77 12 23 38 12 23 38 35 53 77 29 50 76 4 18 35 4 18 35 12 23 38 14 25 40 15 26 41 13 24 39 7 21 38 7 21 38 7 21 38 16 27 42 14 25 40 41 59 82 19 29 42 14 26 41 17 28 42 17 28 42 26 33 44 28 35 45 55 68 86 57 70 87 29 24 26 41 34 34 43 35 34 49 40 38 51 42 38 52 42 38 55 44 40 55 44 39 56 44 38 60 47 40 63 50 42 62 49 40 247 186 84 244 183 81 243 182 80 246 185 83 244 183 81 245 184 82 244 183 81 63 49 41 62 49 41 60 47 40 59 47 40 56 45 39 65 50 42 62 48 41 59 45 39 59 46 40 57 45 40 46 39 37 42 35 35 44 38 38 42 36 37 47 38 36 48 38 37 49 39 38 50 40 39 49 40 39 38 33 35 38 33 35 38 32 34 42 36 37 52 42 39 52 42 39 53 41 38 56 44 40 57 44 39 49 40 38 48 39 36 53 43 40 54 44 40 61 47 39 62 47 39 64 48 40 64 48 39 67 51 42 59 47 41 58 46 40 58 46 40 56 44 38 67 52 43 65 50 41 63 48 40 63 49 41 60 46 39 53 43 39 51 42 39 51 42 39 49 41 39 54 42 38 53 41 38 52 41 38 52 42 40 49 39 37 38 33 35 38 33 35 40 35 36 39 34 36 46 37 36 48 39 38 48 38 37 50 41 39 48 38 36 44 38 38 44 36 36 46 38 37 48 40 38 58 45 40 62 48 42 60 46 39 65 50 42 65 49 41 57 45 39 58 45 38 60 47 39 61 47 39 247 186 84 245 184 82 245 184 82 244 183 81 246 185 83 245 184 82 247 186 84 61 47 39 60 46 39 58 45 38 59 47 41 57 45 40 54 43 38 53 43 39 53 43 40 47 38 36 41 34 33 39 33 32 28 23 26 32 38 46 31 37 46 30 37 47 27 35 45 18 29 42 40 58 82 13 25 40 43 60 83 17 28 42 16 27 42 13 24 39 32 53 79 31 52 78 8 22 39 13 24 39 13 24 39 12 23 38 12 23 38 5 19 36 5 19 36 5 19 36 10 21 36 12 23 38 11 22 37 11 22 37 2 16 33 2 16 33 16 12 19 22 16 20 21 14 19 20 14 18 20 14 19 11 8 15 13 10 17 11 7 14 20 14 18 20 14 19 17 10 15
18 12 17 20 14 19 21 14 19 18 11 16 14 11 17 14 11 18 12 9 16 22 15 20 19 13 18 21 15 19 21 14 19 14 11 18 27 48 74 3 17 34 35 53 77 10 21 36 11 22 37 35 53 77 28 49 75 4 18 35 6 20 37 12 23 38 14 25 40 13 24 39 12 23 38 31 52 78 8 22 39 9 23 40 39 57 81 39 57 81 17 28 42 20 29 43 13 25 40 17 29 43 18 29 43 27 35 45 53 67 86 31 38 47 32 37 46 31 26 29 38 31 31 42 35 34 49 40 38 51 41 38 54 44 40 56 45 41 55 44 38 56 44 38 57 45 38 62 49 42 60 47 39 246 185 83 243 182 80 243 182 80 245 184 82 244 183 81 247 186 84 245 184 82 60 47 39 60 47 39 61 48 42 55 44 38 55 44 38 65 50 42 63 49 42 60 47 40 58 45 39 58 45 41 47 39 38 42 35 35 43 36 36 39 33 34 48 39 37 49 40 38 47 38 36 50 40 39 49 39 38 40 34 36 38 33 34 38 33 34 41 35 36 51 41 38 52 41 38 55 43 39 56 44 39 59 46 41 52 42 40 53 43 40 51 41 37 54 44 39 64 49 40 67 51 43 66 50 41 69 53 44 69 53 43 58 46 39 61 48 41 60 48 41 60 48 41 66 50 40 65 49 40 64 49 40 63 48 40 62 47 39 54 44 40 50 40 36 50 40 38 48 39 37 54 42 38 52 41 37 55 44 41 51 40 38 51 41 39 41 35 37 39 34 35 39 34 36 41 36 37 47 38 36 47 37 36 48 39 38 50 40 39 50 40 38 44 37 37 43 36 36 45 37 36 49 41 39 60 47 41 61 48 42 61 47 40 64 49 42 64 49 40 56 44 38 60 48 41 62 49 42 60 47 39 244 183 81 245 184 82 245 184 82 244 183 81 244 183 81 244 183 81 245 184 82 64 50 42 59 46 39 59 47 40 56 44 38 56 45 40 56 45 40 54 44 40 51 42 39 49 40 37 41 34 33 39 33 33 29 24 27 34 40 48 32 38 47 29 36 46 26 34 44 19 30 43 16 28 42 38 57 81 20 30 44 18 29 43 15 26 41 16 27 42 7 21 38 7 21 38 7 21 38 13 24 39 12 23 38 13 24 39 14 25 40 7 21 38 6 20 37 4 18 35 12 23 38 12 23 38 10 21 36 9 20 35 27 48 74 3 17 34 12 9 16 19 13 18 21 15 20 22 15 20 22 15 20 15 12 18 13 10 16 11 7 14 19 12 17 20 13 18 19 13 18
18 11 16 17 11 16 18 12 16 17 11 16 12 8 15 13 10 17 13 9 16 19 13 18 20 14 19 21 14 19 23 17 21 15 12 19 14 11 18 2 16 33 11 22 37 12 23 38 11 22 37 11 22 37 4 18 35 6 20 37 29 50 76 13 24 39 14 25 40 12 23 38 14 25 40 7 21 38 8 22 39 8 22 39 13 24 39 16 27 42 17 27 42 18 28 42 14 27 42 15 27 41 16 27 41 27 34 45 27 34 44 30 37 46 35 27 29 30 25 27 42 35 35 42 35 34 48 39 37 50 41 38 54 44 40 55 44 40 56 45 40 56 45 39 60 48 42 60 47 40 59 46 38 63 49 41 245 184 82 243 182 80 243 182 80 244 183 81 246 185 83 61 47 39 60 47 39 60 47 40 58 46 40 59 47 41 54 43 38 63 48 41 61 47 40 60 47 41 60 47 42 56 44 40 46 38 37 43 36 36 44 37 38 41 35 36 49 39 38 50 40 39 50 40 39 48 39 37 49 40 39 41 35 37 39 33 35 40 34 35 42 36 37 54 43 40 53 42 38 53 41 37 56 43 39 57 44 38 52 43 39 51 41 38 53 43 38 57 46 41 64 48 40 66 50 40 69 53 43 68 52 42 70 53 43 60 47 40 62 48 41 60 47 39 59 46 39 68 51 41 66 50 40 68 52 43 64 48 40 66 51 43 53 42 38 54 44 40 49 40 37 49 40 38 56 44 39 57 45 41 54 42 39 53 42 39 49 39 37 40 35 36 38 33 34 39 33 35 41 35 37 48 38 37 48 38 37 48 38 37 50 41 39 49 40 38 43 37 37 44 37 36 48 40 39 47 39 37 59 46 41 59 46 40 59 46 39 63 48 41 65 50 42 57 45 39 60 48 41 59 46 39 63 50 42 64 50 42 245 184 82 243 182 80 244 183 81 246 185 83 246 185 83 62 48 40 62 48 41 60 47 40 60 48 41 56 44 39 57 46 41 55 44 40 53 43 39 49 40 37 47 39 36 43 36 35 41 34 34 32 27 29 33 25 27 31 37 46 29 36 46 27 34 45 18 29 43 16 28 42 13 26 41 20 30 43 17 27 42 39 57 81 38 56 80 9 23 40 8 22 39 6 20 37 14 25 40 14 25 40 12 23 38 12 23 38 29 50 76 4 18 35 5 19 36 13 24 39 11 22 37 12 23 38 12 23 38 3 17 34 16 13 20 14 11 17 23 17 21 21 15 19 22 15 20 19 13 18 14 11 18 12 9 15 13 10 17 18 11 16 18 12 17 18 12 17
17 11 16 17 11 16 21 14 19 20 13 18 13 9 16 15 12 18 15 12 18 19 13 17 21 15 20 19 13 18 22 15 20 15 12 19 15 12 19 17 14 21 11 22 37 35 53 77 11 22 37 10 21 36 5 19 36 6 20 37 29 50 76 11 22 37 12 23 38 12 23 38 14 25 40 7 21 38 32 53 79 32 53 79 14 25 40 16 27 42 15 26 40 19 29 42 12 25 40 40 58 82 18 29 43 27 34 45 30 37 47 33 27 29 33 25 27 29 24 27 32 26 29 42 35 34 50 41 39 51 42 39 51 41 37 54 43 39 54 43 38 58 46 41 59 47 41 61 48 42 62 49 42 61 48 41 61 47 39 61 47 39 62 48 40 62 48 40 62 48 40 63 50 42 62 49 42 61 48 42 59 48 42 55 43 38 53 43 38 60 46 39 59 45 39 60 46 41 58 46 41 58 46 41 43 36 35 42 35 35 42 36 36 39 33 35 50 40 39 48 38 37 48 39 37 49 39 38 50 41 39 38 33 34 39 34 35 41 35 36 43 36 37 52 41 38 54 43 39 57 45 41 56 43 38 59 46 40 51 41 38 54 44 39 55 44 40 56 44 39 65 49 40 66 50 40 69 52 42 70 53 42 72 54 43 61 47 39 61 47 39 61 48 39 61 48 40 71 54 43 71 54 44 69 52 43 65 49 40 65 49 41 55 44 40 52 42 38 54 44 40 51 42 39 58 45 40 56 44 39 55 43 40 51 40 37 50 40 38 42 36 38 39 33 35 41 35 37 40 35 36 49 39 38 50 40 39 47 38 36 50 41 39 48 38 37 40 34 35 43 36 36 45 37 36 46 37 36 56 43 38 61 47 42 59 46 39 62 47 40 64 49 41 55 44 38 56 44 38 59 47 40 61 48 41 60 46 39 62 49 41 62 49 40 65 51 42 63 49 41 64 50 42 61 48 40 61 48 41 61 49 42 59 47 41 57 45 40 56 45 41 54 44 40 53 44 40 51 42 39 47 39 37 42 35 34 31 26 28 30 25 28 36 28 30 31 24 27 29 36 46 28 35 46 16 28 41 14 26 40 12 25 40 43 60 83 16 27 41 15 26 41 39 57 81 31 52 78 8 22 39 31 52 78 14 25 40 13 24 39 14 25 40 14 25 40 7 21 38 29 50 76 5 19 36 10 21 36 35 53 77 12 23 38 35 53 77 14 10 17 16 13 19 16 13 20 20 14 19 22 16 21 23 17 21 19 13 18 12 9 16 14 10 17 11 7 14 21 14 19 18 12 16 17 11 16
18 12 16 20 14 18 18 12 17 19 13 17 13 9 16 13 10 17 12 9 16 19 13 18 20 13 18 22 16 21 20 14 19 16 13 20 15 12 19 15 11 18 21 15 20 12 23 38 12 23 38 10 21 36 29 50 76 29 50 76 5 19 36 11 22 37 37 55 79 13 24 39 15 26 41 8 22 39 8 22 39 8 22 39 15 26 41 17 28 43 17 28 43 42 59 82 14 27 42 39 58 81 41 59 82 27 35 46 32 26 29 34 27 30 35 28 30 31 26 29 32 27 30 41 34 34 48 39 37 51 42 40 53 44 40 52 42 38 55 45 40 56 45 40 59 47 42 56 44 38 60 48 41 58 46 39 61 48 41 61 48 40 60 47 39 61 48 41 59 46 39 58 46 39 59 46 40 58 46 40 59 47 42 56 44 40 53 42 38 63 48 42 58 45 39 59 46 41 58 45 41 55 43 39 47 40 39 44 38 38 43 37 38 39 33 35 50 41 39 48 38 37 48 39 37 50 40 39 50 41 39 40 34 36 42 36 38 42 36 37 45 38 39 52 41 38 53 41 37 58 46 41 57 44 39 59 46 40 54 44 41 53 43 38 56 45 40 57 45 40 67 51 41 69 52 43 72 54 44 72 54 43 246 185 83 243 182 80 243 182 80 244 183 81 245 184 82 73 55 44 70 53 42 68 51 41 66 50 40 65 49 40 54 43 38 56 45 41 53 43 39 51 41 38 59 46 41 56 44 39 53 41 37 52 41 38 53 42 40 42 36 37 41 35 37 42 36 38 41 35 37 49 39 38 50 40 39 47 38 36 47 38 37 50 41 39 40 34 35 43 36 36 45 37 37 48 40 39 58 45 41 57 44 39 58 45 39 63 49 42 62 47 40 57 46 41 58 46 41 57 45 39 59 47 40 60 47 40 61 48 41 63 50 42 62 49 41 59 46 39 60 47 39 61 48 41 58 46 40 57 45 39 59 47 42 57 46 41 53 42 38 53 43 39 51 41 38 49 39 37 47 39 37 40 33 33 30 24 27 30 26 29 34 26 28 31 24 27 28 22 26 25 33 44 18 29 43 14 26 40 14 27 42 17 27 41 40 58 81 39 57 81 16 27 42 7 21 38 6 20 37 5 19 36 15 26 41 14 25 40 13 24 39 14 25 40 4 18 35 5 19 36 6 20 37 12 23 38 10 21 36 35 53 77 24 18 23 15 11 18 16 13 20 15 12 19 21 15 20 20 14 19 19 13 18 21 15 20 12 9 16 14 10 17 12 9 16 21 15 20 21 15 19 18 12 17
18 11 16 18 12 17 18 11 16 22 15 20 11 8 15 14 10 17 12 9 16 21 15 19 22 15 20 23 16 21 23 17 22 16 13 20 15 11 18 17 13 20 23 16 21 25 18 23 11 22 37 11 22 37 4 18 35 4 18 35 6 20 37 13 24 39 14 25 40 14 25 40 12 23 38 8 22 39 8 22 39 6 20 37 38 56 80 15 26 41 16 27 41 17 27 41 12 24 40 16 28 43 16 28 42 26 21 25 28 22 26 32 26 29 34 26 29 29 24 28 29 24 27 32 26 28 49 41 39 51 42 40 52 42 40 52 42 39 53 43 39 54 43 39 55 44 39 59 47 42 57 45 39 59 47 40 60 48 41 62 49 42 61 48 42 61 49 42 60 47 41 58 46 39 57 45 39 55 43 38 82 62 48 80 60 46 76 57 44 86 63 47 85 63 48 82 60 46 82 61 48 78 58 45 70 53 44 67 51 43 66 51 43 64 49 42 73 55 44 72 53 43 76 57 47 75 57 46 74 55 45 65 50 43 66 51 44 65 50 42 67 52 43 77 57 45 81 60 47 81 59 46 85 63 49 87 65 50 78 59 46 81 61 47 81 61 47 83 62 48 94 69 50 96 70 51 98 71 51 244 183 81 245 184 82 245 184 82 244 183 81 245 184 82 245 184 82 246 185 83 97 70 50 94 68 49 93 67 48 92 67 49 81 61 47 79 59 46 77 57 45 76 58 46 86 63 49 83 61 48 79 58 45 79 59 47 78 58 46 68 53 45 64 50 43 65 51 44 65 50 43 74 56 46 75 56 46 75 57 47 72 54 44 74 56 46 68 53 45 66 51 42 71 55 46 70 53 43 82 61 47 83 61 47 86 64 49 87 64 49 86 63 47 78 58 45 82 61 47 57 46 40 59 47 41 57 45 38 59 46 40 59 46 40 60 47 41 61 48 41 61 49 42 58 46 40 59 47 41 58 46 41 57 46 41 53 42 37 54 44 40 52 42 39 52 43 40 50 41 39 47 38 37 33 27 29 31 26 29 30 26 29 35 28 30 33 27 30 31 25 29 29 24 28 16 27 41 39 58 82 11 24 40 42 59 82 40 57 81 14 25 40 14 25 40 7 21 38 7 21 38 7 21 38 15 26 41 37 55 79 13 24 39 37 55 79 5 19 36 29 50 76 5 19 36 13 24 39 11 22 37 25 18 23 22 16 21 17 14 21 14 11 18 16 12 19 21 14 19 23 16 21 20 14 18 19 13 18 12 9 16 15 12 19 15 11 18 19 12 17 21 15 20 21 14 19
41 26 24 41 26 24 41 26 23 43 28 26 38 25 25 35 23 23 35 23 23 45 29 27 43 28 26 43 28 26 45 30 28 38 26 25 38 26 26 40 28 28 48 33 30 48 32 30 45 30 28 59 68 85 27 32 42 29 34 44 29 34 44 36 38 46 35 37 45 61 70 87 37 39 47 29 34 44 30 35 45 31 36 46 62 71 88 37 39 47 38 40 48 39 40 48 34 38 47 36 40 47 40 29 30 49 35 32 54 39 36 54 39 35 57 41 36 50 36 33 53 39 35 55 40 36 45 37 36 47 38 36 50 41 39 51 42 39 52 42 39 55 44 40 54 43 39 57 46 41 57 46 41 57 45 39 58 46 40 58 46 40 57 45 39 59 47 41 58 46 40 56 44 39 56 45 39 56 44 39 79 59 45 80 60 47 75 56 44 86 63 48 86 64 49 81 59 46 79 58 45 81 60 48 70 54 45 67 51 43 67 52 44 63 48 41 73 55 45 75 57 47 73 55 45 74 56 46 76 57 47 64 50 43 66 51 44 68 53 45 69 53 45 81 60 48 80 59 46 82 61 47 86 64 49 88 65 50 80 60 48 82 62 49 82 61 47 82 61 46 93 67 49 96 69 50 97 70 50 243 182 80 243 182 80 246 185 83 245 184 82 246 185 83 245 184 82 243 182 80 97 70 50 96 69 50 93 68 49 91 66 48 82 61 47 78 58 45 78 59 46 76 57 45 85 63 48 81 59 46 81 60 47 80 59 47 78 58 46 66 51 43 63 49 42 64 50 43 64 50 43 75 56 46 74 56 46 72 54 44 75 57 47 73 54 44 66 52 44 69 53 45 69 53 45 69 52 43 79 58 45 83 61 48 85 63 49 86 63 48 85 62 46 77 57 44 79 60 46 57 46 41 57 45 40 57 45 39 59 47 42 58 46 40 59 47 41 58 45 39 59 47 41 58 46 41 57 45 40 55 43 39 56 45 41 53 42 39 51 41 37 51 41 38 52 43 40 46 38 36 46 38 37 54 39 35 53 39 35 50 37 34 56 40 35 54 39 35 52 37 34 52 37 35 41 30 30 61 72 89 59 70 88 41 42 49 39 41 49 37 39 47 36 38 46 30 35 45 55 67 86 30 35 45 37 39 47 35 37 45 60 69 86 34 36 44 27 32 42 28 33 43 52 64 83 34 36 44 48 33 31 47 31 29 47 31 29 39 27 27 40 28 28 39 27 27 43 28 26 46 31 29 43 27 25 46 30 28 35 22 22 35 22 22 36 24 24 44 29 27 44 28 26 42 27 25
40 25 23 42 27 25 41 26 24 45 29 27 35 23 23 35 22 22 36 23 23 43 27 25 44 29 27 45 30 28 46 30 28 37 25 25 37 25 25 38 26 26 46 31 29 45 30 28 47 32 30 47 32 30 41 29 29 27 32 42 27 32 42 34 36 44 34 36 44 36 38 46 36 38 46 54 66 85 30 35 45 54 66 85 39 41 49 62 71 88 63 72 89 39 40 48 36 27 28 40 30 32 40 29 30 50 36 34 51 36 33 53 37 34 57 42 37 51 37 35 52 39 35 55 40 36 36 29 31 46 38 37 50 41 39 52 43 41 52 42 40 51 41 37 54 44 40 54 43 39 55 43 39 55 44 39 57 46 41 59 47 42 58 46 41 58 46 41 57 46 41 56 45 40 56 45 41 54 43 39 55 44 41 52 42 38 49 40 37 60 47 41 56 43 38 57 45 41 55 44 40 53 42 39 42 36 36 43 36 38 42 36 38 38 33 36 48 39 39 47 37 37 47 37 37 50 41 40 47 38 37 38 33 35 39 33 35 41 34 36 43 36 36 54 43 40 56 44 40 58 46 41 60 47 41 63 49 43 55 44 40 54 43 38 56 45 39 59 46 40 71 54 45 72 55 44 71 53 42 243 182 80 246 185 83 244 183 81 244 183 81 247 186 84 246 185 83 246 185 83 73 55 44 70 53 42 69 52 43 67 50 41 55 44 38 56 45 40 54 44 40 51 41 38 60 47 41 56 43 39 55 43 39 55 43 40 52 41 39 42 36 38 40 34 36 40 35 37 39 34 36 48 39 38 47 38 37 48 39 38 49 40 40 49 40 39 39 33 35 44 37 39 42 35 35 45 37 37 57 45 41 58 46 41 59 46 41 60 47 42 61 47 42 52 42 39 53 43 39 56 45 41 54 43 39 56 45 40 56 45 40 58 47 41 56 44 39 59 47 42 58 47 42 57 45 41 57 46 41 56 45 41 53 43 39 54 44 40 50 40 37 51 42 39 48 39 37 46 38 36 39 32 33 54 40 36 52 38 35 52 39 36 56 40 36 56 41 37 54 39 37 49 35 33 41 31 31 38 28 29 39 29 31 64 72 89 37 39 47 37 39 47 62 71 88 55 67 86 30 35 45 29 34 44 38 40 48 36 38 46 37 39 47 36 38 46 28 33 43 52 64 83 39 27 27 48 32 30 48 33 31 47 32 30 46 30 28 38 26 26 39 26 26 38 25 25 45 29 27 45 30 28 45 29 27 42 27 25 35 23 23 37 25 25 36 23 23 44 29 27 44 28 26 41 26 24
19 13 18 19 13 18 20 13 18 20 14 19 14 11 18 13 10 17 13 10 17 21 15 20 23 16 22 24 17 22 24 18 23 16 12 19 17 13 20 16 12 19 22 15 20 22 15 20 24 18 23 24 18 23 18 14 21 19 16 23 18 14 21 14 25 40 13 24 39 12 23 38 38 56 80 31 52 78 6 20 37 7 21 38 16 27 42 16 27 42 30 24 29 29 22 27 13 12 22 18 17 26 19 17 25 27 22 28 28 23 27 29 23 27 34 27 31 25 21 26 27 23 27 32 27 30 35 29 31 48 40 40 49 41 40 49 40 39 48 39 37 50 41 38 53 44 40 52 42 38 55 44 40 53 42 38 56 45 41 55 44 40 54 42 38 55 44 39 55 44 40 54 44 39 52 42 38 53 43 40 51 41 38 52 43 40 49 40 37 57 44 39 55 43 39 56 44 41 55 43 40 52 41 39 41 35 36 40 34 36 41 36 38 38 33 36 47 38 38 48 39 39 47 38 38 49 40 40 47 38 38 41 36 38 41 35 37 41 35 36 42 35 36 53 42 39 58 46 42 57 45 40 61 48 42 59 45 39 52 42 38 56 45 41 58 46 41 60 48 42 71 54 45 73 55 45 73 55 44 244 183 81 246 185 83 245 184 82 245 184 82 244 183 81 245 184 82 246 185 83 71 53 42 72 54 44 67 51 41 68 52 43 57 45 40 55 44 39 53 42 38 51 41 38 59 46 41 57 44 40 56 44 40 54 43 40 51 41 38 41 35 36 40 34 36 40 35 37 38 33 36 47 38 38 46 37 37 47 38 37 46 37 37 49 40 40 39 34 36 42 36 37 42 36 37 45 38 38 56 45 41 56 44 40 55 43 39 57 44 40 57 44 39 50 40 37 51 41 38 55 44 41 54 43 40 54 43 39 54 43 39 54 43 39 55 44 40 56 45 41 56 45 40 53 42 38 54 44 40 55 45 41 52 42 38 53 43 41 49 39 37 48 39 38 49 40 39 45 37 37 38 32 34 31 26 29 27 23 27 25 21 26 30 24 27 30 24 28 27 21 26 25 20 25 18 16 24 17 16 25 16 16 25 30 23 28 27 20 25 14 25 40 15 26 41 8 22 39 32 53 79 8 22 39 12 23 38 14 25 40 14 25 40 13 24 39 18 14 21 19 16 23 17 14 21 24 18 23 23 16 21 24 17 23 23 17 22 18 14 21 17 14 21 14 10 17 23 17 22 22 16 21 21 15 20 22 16 21 15 12 19 13 9 16 12 8 15 19 13 18 21 14 19 19 12 17
20 14 19 21 14 19 20 14 19 21 14 19 15 12 19 15 12 19 14 10 17 23 16 21 20 14 19 22 15 20 23 17 22 17 13 20 16 12 19 17 14 21 25 18 24 24 18 23 22 16 21 26 19 24 19 15 22 17 13 20 18 14 21 28 21 26 25 18 23 27 20 26 26 19 24 18 15 22 19 16 23 20 17 24 30 23 28 30 24 29 29 23 28 29 23 28 12 12 21 16 16 24 17 16 24 26 21 26 28 23 28 29 24 28 32 25 29 27 23 28 26 22 27 28 24 28 38 32 34 38 31 33 46 38 38 49 40 39 50 41 39 51 42 39 51 41 39 51 41 38 51 41 38 52 42 38 53 42 39 53 43 39 56 45 42 55 44 40 52 41 38 55 44 41 54 44 41 51 41 38 49 40 37 49 40 37 50 41 40 56 44 39 57 45 41 55 44 41 53 42 39 53 42 40 43 36 38 40 35 37 39 34 37 38 33 36 48 39 39 46 38 38 45 36 36 49 40 40 47 38 38 41 36 38 39 33 35 43 36 38 42 36 36 54 42 39 57 45 42 58 46 41 59 45 40 59 45 40 55 45 41 56 45 40 56 44 39 59 47 42 68 51 42 71 54 44 74 56 45 247 186 84 245 184 82 243 182 80 245 184 82 245 184 82 246 185 83 246 185 83 72 55 44 71 54 44 68 51 42 69 53 44 57 46 41 57 46 42 52 42 39 51 41 39 58 45 40 58 46 41 57 45 41 56 45 42 51 40 38 40 34 35 40 35 37 40 35 38 37 32 35 47 39 39 48 39 39 49 40 40 47 38 38 46 38 38 38 33 35 39 33 36 41 35 36 45 38 39 53 42 39 53 42 39 57 45 41 58 46 41 58 45 41 50 41 39 51 41 39 52 42 39 53 43 40 52 42 38 55 44 41 55 44 41 53 42 39 53 43 39 55 45 41 52 42 38 51 41 38 50 41 38 49 40 37 51 42 40 48 40 38 47 39 38 47 39 38 38 32 34 35 29 31 30 26 30 28 24 28 27 23 28 30 24 28 32 26 30 27 22 27 24 20 25 16 15 23 17 17 25 16 16 25 28 22 27 29 23 28 28 21 27 30 23 28 19 15 23 22 19 26 19 16 23 25 19 24 27 21 26 25 18 23 27 21 26 17 14 21 19 15 23 19 15 23 25 19 24 24 18 23 25 18 23 23 16 21 17 13 20 14 11 18 15 11 18 22 15 21 22 15 20 21 15 20 23 16 21 13 9 16 14 11 18 15 11 19 21 14 19 19 12 17 20 13 18
18 12 17 19 12 17 20 13 19 21 14 19 14 11 18 12 9 16 14 10 17 22 15 20 22 16 21 21 15 20 24 17 22 15 11 18 16 13 20 17 13 20 23 16 21 25 19 24 22 16 21 25 19 24 17 14 21 17 14 21 17 13 20 27 21 26 28 21 26 25 19 24 25 19 24 21 18 25 22 18 25 21 17 25 26 20 25 27 20 25 28 21 26 28 21 26 13 13 23 16 16 25 18 17 26 25 21 27 27 22 27 31 25 30 30 25 29 26 22 28 26 22 27 29 24 29 35 29 32 36 30 33 46 39 39 48 40 39 48 40 39 49 41 39 51 42 40 50 41 38 52 42 40 53 44 41 54 44 41 54 44 41 53 43 40 52 42 39 50 40 38 50 41 38 53 44 41 51 42 40 48 39 37 50 42 40 48 39 38 57 45 42 55 44 41 55 44 41 51 41 39 51 41 39 42 36 38 39 34 36 38 33 36 36 32 36 44 36 36 47 39 39 46 38 38 48 40 40 47 39 39 38 33 36 40 34 36 44 38 39 45 38 39 55 44 41 56 44 40 59 47 43 60 47 42 61 47 41 55 45 41 54 43 39 58 47 42 59 47 42 69 53 44 70 53 44 72 55 44 75 57 46 244 183 81 244 183 81 247 186 84 246 185 83 243 182 80 73 55 44 73 56 46 69 52 42 68 52 43 67 51 43 56 44 40 54 43 39 55 45 42 53 43 41 58 45 40 58 46 41 54 43 39 55 44 41 53 43 40 41 34 36 40 34 37 38 33 36 36 32 35 45 36 36 44 36 36 48 39 40 46 37 38 45 37 38 40 35 38 40 35 37 39 33 35 42 35 37 53 43 41 55 44 41 54 42 39 55 43 40 57 45 41 49 40 39 50 41 39 52 43 41 52 42 40 50 40 38 54 44 41 51 41 38 53 43 40 52 42 39 53 43 40 50 41 38 51 41 39 50 40 38 50 41 39 48 39 38 47 38 37 49 41 40 48 40 40 36 30 32 36 30 33 30 26 31 26 22 27 25 22 27 29 23 27 27 22 26 28 24 29 27 23 29 17 16 25 15 14 24 14 14 24 29 23 28 28 22 27 28 21 27 28 21 27 21 18 25 22 18 25 19 16 23 28 22 27 27 21 26 28 21 26 27 21 26 19 15 22 18 14 21 18 14 21 24 17 22 26 19 24 22 16 21 24 18 23 15 11 18 15 12 19 16 13 20 24 17 22 23 16 22 20 13 19 22 16 21 16 12 19 16 12 20 15 12 19 19 12 17 21 14 20 21 15 20
18 11 17 21 14 19 20 14 19 19 12 18 13 9 16 15 11 18 14 11 18 22 15 20 22 16 21 21 14 19 21 14 20 15 11 19 18 14 21 17 13 20 24 17 22 25 18 23 26 20 25 24 18 23 19 15 22 20 16 24 20 17 24 25 18 23 27 20 26 28 21 26 27 20 25 21 18 25 20 16 24 19 16 23 30 23 29 29 23 28 30 24 29 28 22 27 14 15 25 15 15 24 14 14 23 25 21 27 27 22 28 26 21 26 31 25 30 24 21 27 25 22 27 27 23 28 35 29 33 35 29 32 38 31 34 46 38 38 46 38 38 48 40 39 47 39 37 51 42 41 49 40 39 50 41 39 49 40 38 50 40 38 49 40 37 50 41 39 52 43 41 49 40 38 51 42 40 48 40 38 48 39 38 47 38 38 47 39 38 56 45 42 52 41 39 54 44 41 52 42 40 50 40 39 41 35 38 38 33 36 38 34 37 35 31 35 43 35 36 44 36 37 45 36 38 45 36 37 44 36 36 37 32 35 42 36 39 40 34 36 45 38 39 54 43 40 57 45 42 59 47 43 60 47 43 62 48 43 54 43 40 56 45 41 55 44 40 58 46 41 70 54 45 68 51 42 70 53 43 71 54 43 71 53 42 65 51 43 63 49 41 65 51 43 65 51 44 72 55 44 70 53 43 68 51 42 69 53 44 67 51 43 56 45 40 54 43 40 51 41 38 51 42 39 58 45 40 59 47 43 55 43 40 55 44 41 53 42 41 42 36 38 39 33 36 39 34 37 38 33 37 47 39 40 46 38 39 45 37 38 47 39 40 45 37 38 36 31 35 37 32 35 40 35 37 42 36 38 51 40 39 54 43 41 54 43 40 57 45 42 54 42 39 49 41 40 49 41 39 51 42 40 49 40 38 50 41 39 50 41 39 51 42 39 53 43 41 52 42 40 52 43 41 50 40 38 51 42 40 49 40 38 49 40 39 49 41 40 45 37 37 46 39 39 38 32 34 37 31 34 36 31 34 28 24 29 27 23 29 25 22 28 31 26 30 28 23 28 26 21 27 26 22 28 18 17 26 14 14 23 13 13 23 28 21 27 27 21 26 28 21 26 30 24 29 22 18 25 20 16 23 22 18 26 25 19 24 25 18 24 27 20 25 24 18 23 19 16 23 20 17 24 20 16 23 26 19 25 23 16 21 23 17 22 23 16 22 17 13 21 16 12 19 15 11 18 22 15 21 21 15 20 23 16 21 20 14 19 15 12 19 16 12 19 15 12 19 19 13 18 21 14 20 21 15 20
21 14 19 21 14 19 21 14 19 22 16 21 12 8 16 13 9 17 15 11 18 23 16 22 23 17 22 24 17 23 24 17 22 16 12 20 18 15 22 17 13 20 23 17 22 26 19 24 24 17 23 26 19 24 17 13 21 18 15 22 19 15 22 26 19 24 26 20 25 26 19 25 28 21 26 22 18 26 23 19 26 21 17 25 30 24 29 28 21 26 28 22 27 29 23 28 13 13 23 13 14 24 16 16 25 23 19 26 24 20 26 28 23 29 29 24 29 23 21 27 26 23 29 25 22 27 34 29 33 33 28 31 37 32 35 36 30 33 44 36 36 47 40 39 48 40 39 49 41 40 49 40 39 50 41 40 47 39 37 51 42 41 49 41 39 50 42 40 51 42 41 50 42 40 49 41 40 46 38 37 46 38 38 45 37 37 47 39 39 54 43 40 52 41 39 51 41 39 52 42 41 50 41 40 38 33 36 37 33 36 37 32 36 37 33 38 42 34 36 44 36 38 42 35 36 44 36 38 46 38 39 39 34 38 41 36 39 43 37 39 42 36 37 53 42 40 55 44 40 58 46 42 60 47 43 60 47 42 54 44 41 54 44 40 55 44 40 59 47 43 66 51 42 70 54 45 70 54 45 71 53 44 72 55 45 62 49 42 62 49 42 61 48 41 60 47 40 69 52 43 71 54 45 69 53 44 65 49 41 66 50 43 54 43 39 52 42 38 51 41 38 52 42 40 57 44 39 57 44 41 56 44 41 53 42 40 52 42 40 39 33 35 40 34 37 39 35 38 36 32 36 44 36 37 42 35 36 44 36 38 45 38 39 46 38 40 36 32 36 37 32 35 38 32 35 40 34 37 49 39 38 53 43 42 54 43 41 53 42 39 55 43 41 45 37 37 47 39 39 46 38 37 47 39 38 49 40 39 50 41 40 49 40 39 49 40 39 50 41 40 50 41 40 47 39 38 50 41 40 46 38 37 46 38 38 48 40 40 44 36 36 36 30 32 34 29 32 35 30 33 35 30 34 28 24 30 26 23 29 22 19 26 30 25 30 28 24 29 26 22 28 22 18 25 13 13 22 15 16 26 14 15 25 29 22 27 29 22 28 31 24 29 30 24 29 20 16 23 19 16 23 21 17 24 29 22 27 29 22 27 27 20 26 26 19 25 17 14 21 21 17 24 18 15 22 24 18 23 25 19 24 24 17 23 24 18 23 18 14 22 15 12 19 17 13 20 23 17 22 24 18 23 21 14 20 21 14 19 14 10 17 13 9 16 12 9 16 21 14 19 20 14 19 21 14 19
19 13 18 22 15 21 20 14 19 23 16 21 15 11 18 14 11 18 13 10 17 20 14 19 21 15 20 22 16 21 22 15 21 15 11 19 17 13 21 19 15 22 25 19 24 25 18 24 27 20 25 25 18 24 18 14 21 20 17 24 21 17 24 27 20 25 27 21 26 26 19 25 26 19 24 22 19 26 19 16 23 20 16 23 30 23 29 30 24 29 29 23 28 28 21 26 13 13 24 14 15 25 16 16 26 22 18 25 24 20 26 26 22 28 26 22 27 23 20 27 24 22 28 26 22 28 34 29 34 34 29 33 35 30 33 36 30 33 43 36 36 43 36 36 45 38 38 45 37 37 48 40 40 48 40 40 49 40 40 49 41 40 47 39 38 46 38 37 48 40 39 49 41 41 48 40 40 46 39 39 46 39 39 44 37 38 45 38 39 51 41 39 50 39 38 51 41 40 47 38 37 48 39 39 39 34 38 39 34 38 34 30 34 33 30 35 41 34 36 43 35 38 44 36 39 43 36 38 44 35 37 38 34 37 41 36 39 41 35 37 43 37 39 53 42 40 57 45 42 58 46 43 56 44 39 57 44 40 51 42 40 52 41 38 55 44 41 57 46 41 68 52 45 65 50 41 67 51 43 69 53 44 71 54 45 63 50 44 62 49 42 63 50 43 63 50 44 69 52 43 68 51 43 66 50 42 67 51 43 66 51 44 54 43 40 51 41 38 53 43 41 51 42 40 56 43 39 58 46 43 56 44 41 55 44 42 51 41 39 41 35 37 40 34 37 36 32 35 34 30 35 43 35 37 42 35 37 41 34 36 43 35 38 42 34 36 35 31 36 38 34 38 39 34 38 39 34 37 51 42 41 51 41 40 50 40 39 52 42 40 52 41 39 47 40 40 45 38 38 45 38 38 45 38 37 46 38 37 48 40 39 50 41 41 48 40 39 49 40 40 46 38 37 46 38 37 47 39 39 48 40 40 44 36 37 46 39 40 45 38 39 34 29 32 36 31 35 33 28 32 31 26 31 28 24 30 25 22 29 21 18 25 27 22 27 27 22 29 24 20 27 23 19 26 16 16 26 14 15 25 13 13 23 31 24 30 31 24 29 28 22 27 29 22 27 20 16 23 22 18 26 19 15 23 26 19 24 25 19 24 26 20 25 26 19 24 19 15 22 19 16 23 20 17 24 23 17 22 23 16 22 23 16 21 23 16 21 17 14 21 18 14 21 16 12 20 24 17 23 23 16 21 23 16 22 22 15 20 14 10 18 16 12 20 16 12 19 22 15 21 19 12 18 21 14 20
20 13 19 19 13 18 21 15 20 20 13 19 14 11 18 14 11 18 14 10 17 23 16 22 24 17 22 24 18 23 23 17 22 18 15 22 16 12 19 17 13 20 22 16 21 25 18 23 23 16 22 25 18 24 20 17 24 20 17 24 20 16 23 28 21 26 28 21 26 29 22 27 29 22 27 21 17 25 20 16 24 21 17 24 27 20 26 29 22 28 30 23 29 31 24 30 14 15 25 13 14 24 14 14 24 20 17 25 24 21 28 27 23 30 28 24 30 21 20 27 25 23 30 25 22 29 33 29 34 32 28 33 35 30 34 33 27 31 36 31 34 44 37 38 45 38 39 43 36 37 47 40 40 46 38 38 48 40 40 47 40 40 48 40 40 47 39 39 47 40 40 46 39 39 45 38 38 45 38 39 44 37 38 43 36 37 44 37 39 43 37 38 41 36 38 39 33 36 41 36 39 39 34 37 37 32 36 36 32 37 36 33 38 35 32 38 32 30 36 31 29 35 31 28 34 36 33 38 35 31 35 38 34 38 40 35 38 40 34 37 44 38 40 44 37 38 47 39 40 47 39 39 50 42 41 50 41 39 53 43 41 51 42 39 54 44 41 54 43 40 55 44 40 58 46 42 58 47 42 58 46 41 59 47 42 58 46 40 60 48 42 60 48 42 61 48 43 57 45 40 58 46 41 56 44 40 55 44 40 55 44 40 53 43 40 51 41 39 49 40 38 50 41 40 47 39 38 45 37 37 46 39 39 42 35 37 43 37 38 40 34 37 41 36 39 36 31 35 38 34 38 33 29 35 34 31 37 30 28 34 30 28 34 35 32 37 35 32 37 37 33 38 39 35 39 37 33 36 40 35 38 41 36 38 43 37 39 43 37 39 42 35 37 45 38 39 44 37 38 46 39 39 45 38 38 47 40 40 46 39 39 46 38 39 45 38 38 45 37 37 47 39 39 47 40 40 44 37 37 44 37 38 44 37 38 44 37 39 33 28 31 35 30 34 34 29 34 32 27 32 33 29 34 24 21 28 21 19 26 22 20 28 27 23 29 25 21 27 24 21 28 22 19 27 13 13 23 13 14 24 13 14 24 30 23 29 28 21 26 29 23 28 27 20 25 21 17 24 22 18 25 20 16 24 29 23 28 29 23 28 27 20 25 26 19 25 19 16 23 18 14 22 19 16 23 24 18 23 26 20 25 23 17 22 23 16 21 16 12 20 15 12 19 15 11 18 25 18 23 21 15 20 21 14 20 21 15 20 14 10 17 16 13 20 14 10 17 20 13 19 19 13 18 20 14 19
20 13 18 22 15 20 20 14 19 23 16 21 14 10 18 16 12 19 14 10 17 22 16 21 21 14 19 23 16 22 23 16 21 16 13 20 15 11 19 18 14 21 23 16 22 25 18 24 26 20 25 26 19 25 20 16 24 17 13 21 20 16 23 25 18 24 26 20 25 29 22 27 29 22 27 20 16 24 23 19 27 23 20 27 27 21 26 31 24 29 31 24 30 28 22 27 13 13 24 14 14 24 16 16 26 20 17 25 24 21 29 24 21 28 24 20 27 20 18 26 23 21 29 22 20 27 32 28 34 31 27 32 31 26 31 33 29 33 34 29 33 35 30 34 44 38 39 43 37 38 43 36 37 46 39 40 45 38 39 44 37 38 45 38 39 44 37 38 43 36 37 45 38 39 43 36 37 43 36 38 43 37 39 42 36 37 41 35 38 42 36 39 41 36 39 39 34 37 38 33 37 35 31 35 36 32 37 35 31 36 32 29 34 33 30 36 32 30 37 30 28 35 31 28 34 34 31 36 36 32 37 36 32 36 37 33 36 42 37 40 42 36 38 45 38 40 45 38 39 45 38 38 47 39 38 50 41 41 52 43 41 51 42 39 51 41 39 53 43 40 55 44 41 58 47 43 58 46 42 57 45 41 58 47 42 57 46 41 59 47 42 60 48 43 59 47 43 56 44 40 55 44 39 55 44 40 56 46 42 54 44 41 53 43 40 50 40 38 49 40 39 48 40 39 45 37 37 47 40 40 46 39 40 43 37 39 43 37 39 41 36 39 37 32 36 39 34 38 36 32 37 34 31 36 30 28 34 29 27 34 32 30 36 31 29 35 33 29 35 37 33 38 37 33 37 37 32 36 37 32 36 39 34 37 41 36 39 41 36 38 42 36 38 42 36 38 42 36 38 42 36 37 42 35 36 46 39 40 46 39 40 43 36 37 45 38 39 45 38 39 45 38 39 44 37 38 44 37 39 43 36 38 45 38 40 34 29 33 32 27 32 33 28 33 34 29 34 30 26 31 29 26 32 22 20 27 20 18 26 21 20 28 27 23 30 23 19 26 23 20 27 19 17 25 13 14 24 15 15 26 14 14 24 29 22 27 28 21 26 28 21 26 27 21 26 23 19 27 22 18 26 20 17 24 29 22 28 28 22 27 25 19 24 27 20 26 20 16 24 18 14 22 19 15 22 27 20 25 26 19 25 26 20 25 24 17 22 18 15 22 18 14 21 15 12 19 22 15 20 22 15 20 24 18 23 23 16 21 15 11 19 15 11 19 16 12 19 20 13 19 21 15 20 22 15 21
19 13 18 19 13 18 22 15 21 20 13 19 15 11 18 13 9 17 15 12 19 24 18 23 23 17 22 25 18 24 23 17 22 18 14 22 15 11 19 18 15 22 26 19 24 24 18 23 25 18 24 24 18 23 19 15 22 21 17 25 19 15 23 25 18 24 27 20 25 26 20 25 27 20 26 20 16 24 20 16 24 21 18 25 30 23 28 30 23 29 28 22 27 29 23 28 12 13 23 13 14 24 13 13 23 20 17 25 22 19 27 23 20 27 24 20 27 18 16 25 19 18 26 23 21 29 28 25 31 31 27 33 30 26 32 30 26 31 32 28 33 34 29 34 41 35 37 41 35 37 42 36 38 42 36 38 42 36 38 43 36 38 44 37 39 41 35 37 43 37 39 44 37 39 41 35 37 43 37 39 43 37 39 43 37 40 42 37 40 39 34 37 40 35 39 36 31 35 35 31 35 36 32 37 36 33 38 34 31 37 31 28 34 30 28 35 30 28 36 30 28 36 30 28 34 35 32 38 33 30 35 36 32 36 37 32 36 38 33 36 42 37 39 44 38 40 45 39 40 47 39 40 46 38 39 49 41 40 50 42 41 49 40 38 50 40 39 53 43 41 55 45 42 56 46 43 54 43 39 56 45 42 57 46 42 56 44 40 57 45 41 57 46 42 58 47 43 54 43 39 54 43 39 53 43 39 52 42 39 51 41 38 52 42 40 50 41 39 51 43 42 47 39 38 48 40 40 45 38 38 46 39 40 44 37 39 42 36 39 38 33 36 37 33 36 37 33 37 35 31 36 33 30 36 32 29 36 30 28 35 30 28 35 31 28 35 34 31 38 32 29 35 33 30 35 34 31 35 35 31 36 38 34 38 38 33 37 41 36 39 41 36 38 40 34 37 43 37 39 42 36 38 43 37 39 44 38 40 44 38 39 42 35 37 45 38 40 45 38 40 42 35 37 44 37 39 43 37 39 43 37 40 42 37 39 32 27 32 32 27 32 31 27 32 32 28 34 31 28 34 26 23 30 24 22 30 21 19 27 18 17 26 25 21 28 23 20 27 22 19 27 21 18 26 13 13 24 15 15 25 12 13 23 29 22 27 29 23 28 29 22 28 27 20 26 21 17 24 23 19 27 20 16 24 28 21 26 27 20 26 28 22 27 27 20 26 19 15 22 19 16 23 20 16 23 26 20 25 24 17 23 23 17 22 26 19 25 15 12 19 17 14 21 15 11 18 22 16 21 22 15 20 25 18 23 23 16 22 15 12 19 13 9 17 13 9 17 21 15 20 21 15 20 19 12 18
19 12 18 22 15 20 22 15 20 21 15 20 14 10 18 14 11 18 15 11 19 24 17 22 23 16 22 24 17 23 25 18 24 18 14 21 18 14 21 19 15 23 23 17 22 27 20 25 25 19 24 25 19 24 19 16 23 21 17 25 20 17 24 27 20 25 29 22 28 29 22 27 26 19 25 23 19 26 22 19 26 21 17 25 28 21 26 30 23 29 30 23 28 30 24 29 14 14 24 15 15 26 14 14 24 20 18 26 24 21 29 24 21 29 23 19 27 19 19 28 18 17 26 22 21 29 28 25 32 28 25 32 27 24 30 30 26 32 30 26 31 32 28 33 33 29 34 39 34 37 39 33 36 42 36 39 42 36 38 43 37 40 40 34 36 42 36 39 40 34 37 42 36 39 40 34 37 39 33 36 39 34 37 38 33 36 38 33 37 38 34 38 38 34 38 36 32 37 35 31 36 36 33 38 32 29 35 33 30 36 30 27 34 32 30 37 29 27 34 31 29 37 31 28 35 33 31 37 33 30 35 35 31 36 39 34 38 39 34 38 39 34 37 41 35 38 44 38 39 43 36 37 48 40 41 49 41 41 48 40 39 47 39 38 48 39 38 51 41 39 53 43 41 54 44 41 56 46 43 54 44 41 56 45 42 55 44 41 53 43 39 55 44 41 56 45 42 56 46 43 53 43 40 52 42 40 52 42 40 52 43 41 50 41 40 49 41 40 49 41 40 48 40 41 46 38 39 43 36 38 43 36 38 40 34 37 42 36 39 39 34 38 37 32 36 37 33 38 33 30 36 32 29 35 32 30 36 29 28 35 29 28 35 32 30 37 30 27 34 33 30 36 34 31 37 34 31 36 36 33 38 36 32 36 38 33 38 38 33 37 41 36 39 40 35 38 42 37 40 40 34 37 40 34 37 40 35 37 42 36 38 41 35 37 41 35 37 40 34 36 41 35 38 43 37 39 40 34 37 40 34 37 32 28 33 30 26 32 29 25 31 32 28 34 28 24 31 28 25 32 29 26 33 21 20 28 19 18 27 20 19 28 22 19 26 21 18 26 23 20 28 22 19 28 13 14 24 13 13 24 14 15 25 30 23 28 29 22 27 30 23 28 28 21 27 23 19 27 20 16 24 20 17 24 28 21 26 27 21 26 27 20 26 27 20 26 20 16 23 20 17 24 18 14 22 27 20 25 25 18 23 25 18 24 23 16 22 18 15 22 16 12 19 19 15 22 25 18 23 24 17 22 23 16 22 23 16 22 15 12 19 15 11 18 17 13 20 22 15 20 22 16 21 22 16 21
20 13 18 21 14 20 21 15 20 21 15 20 13 10 17 14 10 17 16 12 20 22 16 21 24 18 23 22 15 20 24 18 23 17 13 20 19 15 23 19 16 23 25 19 24 25 18 23 24 17 22 27 20 25 18 14 22 19 15 23 20 16 24 29 22 27 28 21 27 28 21 27 29 22 28 23 20 27 23 19 27 23 19 26 29 22 28 32 25 30 32 25 30 30 23 29 15 15 26 15 15 26 12 13 23 20 18 26 22 19 27 23 20 29 23 20 29 46 28 17 48 29 18 51 31 20 50 30 19 55 35 23 54 34 21 55 35 22 55 35 22 57 36 22 58 37 23 56 35 21 55 34 20 58 36 22 58 36 22 58 37 23 58 37 22 59 38 24 59 37 23 58 37 23 59 38 24 56 35 21 56 35 21 55 34 21 56 36 23 56 36 23 52 32 19 52 33 20 53 33 21 52 33 22 49 30 19 49 30 19 49 31 21 47 29 19 46 28 18 47 29 19 50 32 22 51 32 21 53 33 22 52 33 20 55 35 22 56 35 22 59 37 23 58 37 22 60 37 22 60 37 21 62 39 22 64 41 24 67 43 25 66 41 24 66 41 23 70 45 26 70 44 25 68 42 23 72 46 26 72 46 27 73 47 27 72 46 26 70 44 24 73 47 27 72 46 26 70 44 24 72 46 27 70 45 25 70 45 26 69 44 25 69 44 26 65 40 22 65 41 23 63 39 23 61 38 22 62 40 24 61 39 23 60 38 24 56 35 21 56 35 22 56 36 23 54 34 22 51 32 20 50 32 21 48 30 20 49 31 21 46 28 18 48 30 20 50 32 22 50 31 21 50 31 20 50 31 19 52 33 21 54 34 22 56 36 23 53 33 20 56 36 22 57 36 23 58 37 24 57 36 22 57 36 22 57 36 22 59 38 24 58 37 22 57 36 21 60 38 24 60 38 24 59 37 23 59 38 24 55 34 20 57 36 22 57 36 22 56 35 22 55 34 21 55 35 22 54 34 22 51 32 20 51 32 20 50 31 20 48 30 19 22 20 28 23 20 29 21 18 27 21 18 26 16 16 27 15 16 26 12 12 23 31 24 29 29 22 27 30 23 28 30 23 28 24 20 28 23 19 26 21 17 25 27 20 26 28 21 27 29 22 28 28 21 27 19 16 23 19 16 23 20 16 24 28 21 26 27 20 26 26 19 24 25 18 24 16 13 20 18 15 22 16 12 19 23 16 21 24 18 23 23 17 22 22 16 21 16 12 20 15 11 19 13 9 17 22 15 20 23 16 22 21 14 20
20 13 19 19 12 18 20 13 18 22 15 21 14 11 18 16 12 20 15 12 19 21 15 20 24 17 23 22 15 21 25 18 24 18 14 21 18 14 22 18 14 21 26 19 24 24 17 23 24 18 23 28 21 27 21 17 25 19 15 23 19 15 23 29 22 28 26 19 25 27 21 26 27 20 25 20 17 24 22 19 26 21 17 25 30 23 29 32 25 30 31 24 30 31 25 30 15 16 26 12 13 23 16 16 26 20 18 26 21 18 27 22 19 27 22 20 28 45 27 17 48 30 19 51 32 22 50 31 20 53 34 22 51 31 19 53 33 20 55 35 22 55 35 22 56 36 23 56 35 22 55 34 21 57 37 23 56 35 22 56 35 21 57 36 22 58 37 23 57 36 23 56 35 22 57 37 23 55 34 21 53 33 20 53 32 20 54 34 22 53 33 21 54 34 23 52 33 21 51 32 21 50 31 21 50 31 21 48 30 20 50 32 22 49 31 21 49 31 21 49 31 21 46 28 18 48 29 19 51 32 21 52 33 21 55 35 23 54 34 21 56 35 22 56 35 20 60 38 23 58 36 21 61 39 23 62 38 22 63 39 22 67 43 25 67 42 25 68 44 26 66 41 23 69 44 25 69 44 25 70 45 25 70 44 25 70 44 25 68 42 23 69 43 24 68 43 23 70 44 25 67 41 22 67 42 23 67 42 24 67 43 25 66 42 24 64 40 23 64 41 24 64 40 24 63 40 24 60 37 22 58 36 21 59 37 23 57 36 23 56 36 23 55 35 23 53 33 21 50 31 19 49 31 20 49 31 21 48 30 20 47 29 19 49 31 21 50 32 22 50 32 22 50 31 21 52 33 22 52 33 22 53 33 22 54 34 22 54 34 22 55 35 22 55 35 22 54 34 21 57 36 23 56 35 22 57 36 23 56 35 22 57 36 22 57 36 22 56 35 21 57 36 22 55 34 21 57 37 23 57 36 23 53 33 20 56 36 23 55 35 23 54 34 22 51 32 20 54 34 23 51 32 20 49 30 19 46 28 17 45 27 17 22 19 28 20 18 26 23 21 29 20 17 26 13 13 23 16 16 26 15 15 25 32 25 31 30 24 29 31 25 30 30 23 28 21 17 24 23 19 27 20 16 24 30 23 29 27 20 26 29 22 27 26 19 25 18 14 22 19 15 23 17 14 21 27 20 26 27 21 26 24 17 22 26 19 24 16 12 20 16 12 20 18 14 22 22 15 21 25 18 23 24 17 23 25 18 23 17 13 20 16 12 20 17 13 20 22 15 21 23 16 21 23 16 22
19 12 18 22 15 20 21 15 20 24 17 22 14 10 17 15 11 19 15 11 18 24 18 23 25 18 24 23 17 22 25 18 24 18 14 22 18 15 22 17 13 21 27 20 25 26 19 24 25 18 24 24 18 23 20 16 24 19 15 22 22 18 26 26 20 25 26 20 25 26 20 25 30 23 28 20 16 24 22 18 26 21 17 25 30 23 28 30 23 28 31 24 30 30 23 28 13 14 24 15 15 26 14 15 25 23 20 29 21 18 27 23 20 29 23 20 29 46 28 18 45 27 17 47 29 19 51 32 22 51 32 21 51 32 20 52 33 22 53 33 22 55 35 23 55 35 23 52 32 20 55 34 22 54 34 21 56 36 23 53 33 20 54 34 21 55 35 22 56 36 23 54 34 21 55 35 22 54 34 22 55 35 23 54 34 22 51 32 20 50 31 19 52 33 22 51 32 21 49 30 20 49 31 20 49 31 21 49 31 21 48 30 20 46 28 18 49 31 21 47 29 19 48 30 20 50 32 22 48 30 19 53 34 23 53 34 22 55 35 22 54 33 20 57 36 23 58 36 22 58 36 21 59 37 22 60 38 22 62 39 23 65 41 25 65 41 24 66 42 25 67 42 24 65 40 22 67 42 24 69 44 26 68 43 25 66 41 22 68 43 24 69 44 25 68 42 24 66 41 23 68 43 25 67 43 25 66 42 24 67 43 26 66 42 25 62 39 22 61 38 22 63 40 24 60 37 22 59 37 22 58 37 23 55 34 20 55 34 21 53 33 21 51 31 19 53 34 23 51 32 21 49 31 21 46 28 18 48 30 20 49 31 21 50 32 22 48 30 20 47 29 19 47 29 19 47 28 18 48 30 19 52 33 22 49 30 19 53 34 22 52 32 20 52 32 20 54 34 22 55 35 23 52 32 20 56 35 23 54 33 21 56 36 23 55 35 22 56 36 23 54 34 21 54 34 21 55 35 22 53 33 20 53 33 21 54 34 22 50 31 19 53 33 22 50 31 20 52 33 22 50 32 21 49 31 20 48 30 20 46 28 18 22 20 28 22 19 27 22 19 27 21 18 26 13 13 24 13 13 24 15 15 26 32 25 31 31 25 30 31 24 30 31 25 30 21 18 25 20 16 24 21 18 25 30 23 29 27 20 26 27 20 25 28 21 26 20 16 23 18 14 22 21 17 25 27 20 25 28 21 26 25 19 24 25 18 24 16 13 20 20 16 23 15 12 19 25 18 23 25 18 24 23 16 22 22 15 21 14 10 18 14 10 18 14 10 17 22 15 21 21 14 19 23 16 21
41 26 26 41 26 27 38 23 23 41 26 27 34 22 25 32 20 23 34 22 25 41 26 26 40 25 25 41 26 26 43 28 29 37 25 28 35 23 26 35 23 25 44 29 30 46 31 31 44 29 29 46 31 32 37 25 28 36 24 27 37 26 28 46 32 32 45 30 30 45 30 31 47 32 33 40 28 31 40 28 31 42 30 33 48 33 34 47 32 33 48 33 34 48 33 34 31 23 29 33 25 31 31 23 29 38 27 31 41 30 34 40 29 33 41 31 34 45 27 17 48 30 20 46 28 18 49 31 21 47 29 19 48 29 19 52 33 22 52 33 22 51 31 20 53 34 22 53 33 22 51 31 19 51 32 20 52 32 20 55 35 23 52 32 20 55 35 23 53 34 21 54 34 22 53 33 21 52 33 21 51 32 20 49 30 19 50 31 20 52 33 22 51 33 22 49 31 21 46 28 18 50 32 22 46 28 18 47 29 19 47 29 19 48 30 20 50 32 22 48 30 20 49 31 21 47 29 19 48 30 19 51 32 21 50 31 19 51 32 19 53 33 20 55 34 21 56 35 21 57 36 21 59 37 22 61 39 24 62 39 24 64 41 25 61 38 21 62 39 22 65 41 24 64 40 23 64 40 22 64 40 22 68 44 26 65 40 22 67 43 25 66 41 23 66 41 23 64 40 22 66 42 24 64 40 23 66 42 25 64 41 24 63 40 23 64 41 25 60 37 22 58 36 21 60 38 24 56 34 20 56 35 21 54 33 20 53 33 20 54 34 22 52 33 21 52 33 22 49 31 20 47 29 19 47 29 19 46 28 18 49 31 21 48 30 20 48 30 20 49 31 21 47 29 19 48 30 20 47 29 19 47 28 18 51 32 22 50 31 20 50 31 20 53 34 23 51 32 20 50 31 19 51 31 19 54 34 22 52 32 20 51 31 19 53 33 21 53 33 21 53 33 21 52 32 20 53 33 21 52 32 21 50 31 19 51 32 21 52 33 21 48 29 19 48 29 19 49 30 20 46 28 18 47 29 19 45 27 17 46 28 18 41 31 34 39 28 32 40 29 33 38 27 31 31 23 29 31 23 28 33 25 30 50 35 36 50 35 36 49 34 35 48 33 34 42 30 33 38 26 29 38 26 29 45 30 30 46 31 31 44 29 30 46 32 32 40 28 30 36 24 27 39 27 30 45 30 30 43 28 29 43 29 29 43 28 29 36 24 26 36 25 27 34 22 24 44 29 30 42 27 27 41 27 27 41 26 27 33 21 24 34 22 25 35 23 26 39 25 25 40 25 26 37 23 23
37 22 23 40 25 26 38 23 24 40 25 26 33 21 24 34 23 25 36 24 26 43 28 29 42 27 28 42 27 28 41 26 27 35 23 26 36 24 27 38 26 29 42 27 28 45 30 30 46 31 31 45 30 31 37 25 28 37 25 27 38 26 29 47 32 33 45 30 31 46 31 32 45 30 31 38 27 29 41 29 32 40 28 31 49 34 35 47 32 33 50 35 36 50 35 35 31 24 29 32 24 30 35 27 32 42 31 35 42 31 35 40 29 33 39 29 32 48 30 20 47 29 19 47 29 19 49 31 21 46 28 18 50 32 22 48 30 19 50 32 22 51 32 22 52 33 22 49 30 19 50 31 20 51 32 21 50 30 19 53 34 23 53 34 23 53 33 22 51 31 20 52 33 22 49 30 19 52 33 22 50 31 21 49 30 20 50 32 21 50 32 22 49 31 21 50 32 22 50 32 22 49 31 21 48 30 20 49 31 21 48 30 20 47 29 19 50 32 22 49 31 21 49 31 21 50 32 22 49 31 21 48 30 19 52 33 22 52 33 21 53 33 21 55 35 22 55 34 21 57 36 23 57 36 22 57 35 21 60 38 23 62 40 24 61 38 22 63 40 24 63 39 23 62 39 22 66 42 25 65 41 24 63 39 22 66 43 25 65 41 24 64 40 23 63 39 22 64 40 23 64 41 24 63 40 23 64 40 24 62 39 23 60 38 22 62 40 24 60 38 23 58 36 22 58 37 23 55 34 20 54 33 20 55 35 22 52 32 20 54 34 22 51 32 20 49 30 20 49 31 21 47 29 19 50 32 22 48 30 20 48 30 20 49 31 21 48 30 20 48 30 20 48 30 20 49 31 21 47 29 19 48 30 20 49 31 21 47 28 18 50 31 21 49 30 20 49 30 20 50 31 20 50 31 20 49 30 19 49 30 19 52 33 21 51 31 20 52 33 22 52 33 21 51 31 20 51 32 21 52 33 22 50 31 20 49 31 20 47 29 18 49 31 21 47 29 19 46 28 18 49 31 21 47 29 19 46 28 18 48 30 20 40 29 32 42 31 35 39 28 32 42 31 35 33 25 30 34 26 31 34 26 31 48 33 34 48 33 33 48 33 33 47 32 33 40 28 31 40 28 30 40 28 31 47 32 33 47 32 33 45 30 31 47 32 33 38 26 29 37 25 28 38 26 28 46 31 32 44 29 30 42 27 28 44 29 29 35 23 25 37 25 28 36 24 27 41 26 26 42 27 28 42 27 27 41 26 27 34 23 25 33 21 24 35 24 26 40 25 25 40 25 26 40 26 26
38 23 23 40 25 25 39 24 25 40 25 26 34 22 24 34 22 25 33 21 24 41 27 27 41 26 27 40 25 26 42 27 28 35 23 26 38 26 29 37 25 28 45 30 30 45 30 30 44 29 30 44 29 29 39 27 29 37 25 28 40 28 30 45 30 30 47 32 32 48 33 33 45 31 31 40 28 31 42 30 32 41 29 31 49 35 35 48 34 34 47 32 32 48 34 34 34 26 32 32 24 29 33 25 31 41 30 34 39 28 32 40 29 32 41 30 33 45 27 17 47 29 19 49 31 21 48 30 20 47 29 19 47 29 19 48 30 20 46 28 18 49 31 21 47 29 18 47 29 19 47 29 18 51 33 22 49 31 20 51 32 22 50 32 21 49 31 20 49 31 20 48 30 19 48 30 19 50 31 21 50 32 22 47 29 19 48 30 20 49 31 21 47 29 19 48 30 20 48 30 20 49 31 21 46 28 18 50 32 22 50 32 22 49 31 21 49 31 21 47 29 19 48 30 20 49 31 21 47 29 19 49 31 21 48 29 19 52 33 22 52 33 21 52 32 20 56 35 23 55 35 21 57 36 22 58 37 23 58 36 22 59 37 22 60 38 22 60 38 22 63 40 24 63 40 24 64 41 24 63 39 23 63 40 23 63 40 23 63 40 24 62 39 23 63 39 23 62 39 23 62 39 23 64 41 25 61 39 23 60 38 22 60 38 22 60 38 23 59 37 23 59 37 23 56 35 21 54 33 20 53 33 20 52 32 20 51 31 20 49 30 19 48 30 19 50 32 22 47 29 19 48 30 20 47 29 19 46 28 18 47 29 19 48 30 20 48 30 20 47 29 19 49 31 21 49 31 21 49 31 21 47 29 19 49 31 21 49 31 21 48 30 20 49 31 21 48 29 19 48 30 19 49 31 20 49 30 19 50 32 21 50 31 21 49 30 19 49 30 20 49 30 19 48 30 19 50 31 21 51 32 22 47 28 18 46 28 18 48 30 20 48 30 20 49 31 21 49 31 21 48 30 20 48 30 20 47 29 19 48 30 20 43 32 36 40 29 33 43 32 35 42 31 34 32 24 30 32 24 29 34 26 32 51 36 36 49 34 35 50 35 36 47 33 33 39 28 30 39 27 30 38 26 29 45 30 31 46 31 32 48 33 34 47 32 32 39 27 30 36 25 27 37 25 28 44 29 29 44 29 30 46 31 31 42 27 28 34 23 25 37 25 27 34 22 25 41 26 27 42 27 27 41 26 27 43 29 29 32 20 23 33 21 23 34 23 25 40 25 25 39 24 25 40 26 26
34 22 24 35 23 25 35 23 25 32 20 23 34 22 24 33 21 24 34 22 25 35 23 25 36 24 27 35 23 26 36 24 26 38 26 28 37 25 28 38 26 29 35 23 26 38 26 29 37 25 28 37 25 27 40 28 31 40 28 31 38 26 29 40 28 31 39 27 29 39 27 30 41 29 31 42 30 33 42 30 32 42 30 33 41 29 31 42 30 33 41 29 32 43 31 34 31 23 29 34 26 32 31 23 29 35 27 33 33 25 31 35 27 32 35 27 33 45 27 17 46 28 18 46 28 18 49 31 21 50 32 22 49 31 21 50 32 22 49 31 21 49 31 21 49 31 21 47 29 19 49 31 21 50 32 22 47 29 19 47 29 19 48 30 20 50 32 22 47 29 19 48 30 20 49 31 21 48 30 20 48 30 20 47 29 19 47 29 19 47 29 19 49 31 21 47 29 19 49 31 21 49 31 21 48 30 20 49 31 21 49 31 21 49 31 21 47 29 19 48 30 20 49 31 21 47 29 19 47 29 19 46 28 18 49 31 20 51 32 22 52 33 22 52 32 20 53 33 21 54 34 21 55 35 22 56 35 21 59 37 24 59 38 24 58 36 22 60 38 23 59 37 22 60 37 22 60 38 22 60 37 22 62 39 24 62 39 24 63 40 25 59 37 21 60 37 22 61 39 23 61 39 23 59 36 21 61 39 24 59 37 22 60 38 24 58 36 22 55 34 21 56 35 22 56 35 22 53 33 20 52 32 20 52 33 21 51 32 21 51 32 21 50 32 21 50 32 22 47 29 19 48 30 20 47 29 19 47 29 19 49 31 21 50 32 22 49 31 21 49 31 21 48 30 20 48 30 20 49 31 21 49 31 21 48 30 20 47 29 19 47 29 19 48 30 20 48 30 20 49 31 21 47 29 19 50 32 22 48 30 20 49 31 21 47 29 19 47 29 19 50 32 22 49 31 21 49 31 21 48 30 20 48 30 20 48 30 20 48 30 20 49 31 21 47 29 19 47 29 19 49 31 21 49 31 21 49 31 21 49 31 21 33 25 30 33 26 31 34 26 32 33 25 31 34 26 32 34 26 32 32 24 30 44 32 34 43 31 34 42 31 33 43 31 34 40 28 31 42 30 32 40 28 30 38 26 29 41 29 31 39 27 30 40 28 30 39 27 29 39 27 30 40 28 31 40 28 30 39 27 29 37 25 28 38 26 29 35 23 26 34 23 25 34 22 25 36 24 26 35 23 26 36 24 27 33 22 24 32 20 23 33 21 23 34 22 25 34 22 25 33 21 23 33 21 24
55 34 30 57 36 32 57 36 32 55 34 30 58 37 33 58 37 32 58 37 33 59 38 33 57 36 32 59 38 34 59 38 34 59 38 34 58 37 32 58 37 32 60 40 35 61 40 36 62 41 36 62 41 37 59 38 34 60 39 35 61 40 36 62 41 37 62 41 37 62 41 37 63 42 38 61 41 36 66 45 40 65 44 40 62 41 37 65 44 40 66 45 41 65 44 40 55 38 37 56 39 37 56 39 38 55 38 37 56 39 38 57 40 39 57 40 38 47 29 19 46 28 18 47 29 19 47 29 19 49 31 21 48 30 20 49 31 21 47 29 19 48 30 20 47 29 19 46 28 18 49 31 21 50 32 22 47 29 19 47 29 19 46 28 18 48 30 20 47 29 19 49 31 21 46 28 18 47 29 19 50 32 22 47 29 19 48 30 20 48 30 20 48 30 20 46 28 18 50 32 22 48 30 20 48 30 20 49 31 21 48 30 20 49 31 21 46 28 18 48 30 20 50 32 22 47 29 19 46 28 18 49 31 21 48 30 20 50 32 22 48 29 18 52 33 22 52 33 21 51 32 20 54 34 21 56 36 23 57 36 23 57 36 23 55 34 20 56 34 20 57 35 21 60 39 24 60 38 24 58 36 21 59 37 22 58 36 21 58 36 21 58 36 21 59 37 22 58 36 21 60 38 23 59 38 23 58 36 22 57 36 22 56 34 21 58 37 24 54 33 20 55 35 22 54 34 22 54 34 22 50 31 19 50 31 20 50 31 21 48 30 19 47 29 19 48 30 20 48 30 20 46 28 18 49 31 21 47 29 19 47 29 19 48 30 20 49 31 21 49 31 21 50 32 22 49 31 21 47 29 19 48 30 20 46 28 18 48 30 20 50 32 22 50 32 22 47 29 19 46 28 18 46 28 18 47 29 19 47 29 19 48 30 20 50 32 22 48 30 20 47 29 19 47 29 19 46 28 18 47 29 19 47 29 19 49 31 21 48 30 20 47 29 19 48 30 20 48 30 20 47 29 19 48 30 20 47 29 19 46 28 18 56 39 38 58 41 39 58 41 39 56 39 38 57 40 39 55 38 37 55 38 37 66 45 41 65 45 40 64 43 39 64 43 39 66 45 41 63 42 37 65 44 40 62 41 37 63 42 38 64 43 38 61 40 36 61 40 36 61 40 36 60 39 34 63 42 37 61 40 36 61 40 36 59 38 34 58 37 33 59 38 34 58 37 33 58 37 33 57 36 32 57 36 31 57 36 32 59 38 33 55 34 30 56 35 30 58 37 33 57 36 32 55 34 30
48 31 28 45 28 26 45 28 25 45 28 25 47 30 28 46 29 26 46 29 27 50 33 31 50 33 31 50 33 31 48 31 29 50 33 31 48 31 29 50 33 31 51 34 32 49 32 29 50 33 30 51 34 31 53 36 34 51 34 32 50 33 31 54 37 35 54 37 35 51 34 32 52 35 33 52 35 33 54 37 35 53 36 34 56 39 37 56 39 37 55 38 35 56 39 37 45 32 33 48 35 36 45 32 33 45 32 33 47 34 34 48 35 36 47 34 35 48 30 20 45 27 17 46 28 18 46 28 18 49 31 21 46 28 18 48 30 20 48 30 20 48 30 20 49 31 21 47 29 19 47 29 19 46 28 18 50 32 22 48 30 20 46 28 18 50 32 22 47 29 19 46 28 18 47 29 19 49 31 21 47 29 19 49 31 21 49 31 21 50 32 22 49 31 21 49 31 21 48 30 20 47 29 19 48 30 20 48 30 20 49 31 21 47 29 19 48 30 20 48 30 20 47 29 19 47 29 19 47 29 19 48 30 20 48 30 20 47 29 19 50 32 22 49 31 20 52 33 22 52 32 21 50 31 19 52 32 20 54 34 22 56 36 23 54 33 20 57 36 22 57 36 22 56 35 21 59 38 24 57 35 21 58 37 22 57 35 21 58 36 22 59 38 23 58 37 22 59 38 24 57 35 21 56 35 21 57 36 22 55 34 21 56 35 22 53 33 20 53 32 20 51 31 19 53 33 22 51 32 20 49 30 19 48 29 19 47 29 19 48 30 20 47 29 19 50 32 22 49 31 21 49 31 21 49 31 21 49 31 21 46 28 18 50 32 22 48 30 20 49 31 21 49 31 21 48 30 20 47 29 19 49 31 21 48 30 20 48 30 20 50 32 22 50 32 22 48 30 20 46 28 18 47 29 19 47 29 19 46 28 18 49 31 21 50 32 22 50 32 22 49 31 21 50 32 22 50 32 22 48 30 20 48 30 20 49 31 21 50 32 22 48 30 20 47 29 19 48 30 20 46 28 18 47 29 19 48 30 20 45 27 17 47 34 34 48 35 36 49 36 37 45 32 33 47 34 34 46 33 34 44 31 32 54 37 34 55 38 36 56 39 37 54 37 35 55 38 36 54 37 35 54 37 35 53 36 34 52 35 33 52 35 32 52 35 33 53 36 33 51 34 32 52 35 32 50 33 30 52 35 32 51 34 32 50 33 31 48 31 29 50 33 31 50 33 30 51 34 31 50 33 30 48 31 29 47 30 28 48 31 29 47 30 28 46 29 27 45 28 26 47 30 28 48 31 29
28 19 23 26 17 21 30 21 25 29 19 23 30 21 25 30 21 25 28 19 23 31 22 26 30 21 25 31 22 26 30 21 25 33 24 28 33 24 28 32 23 27 31 22 26 32 23 27 32 23 26 33 24 28 32 23 26 34 25 29 34 25 29 36 27 30 35 26 29 35 26 30 37 28 32 36 27 31 37 28 32 37 28 32 36 27 31 38 29 33 37 28 32 37 28 31 28 23 30 29 24 31 27 22 29 28 23 30 31 26 33 29 24 31 31 26 33 46 28 18 47 29 19 47 29 19 49 31 21 47 29 19 50 32 22 48 30 20 47 29 19 49 31 21 49 31 21 46 28 18 50 32 22 49 31 21 49 31 21 46 28 18 49 31 21 49 31 21 49 31 21 47 29 19 47 29 19 46 28 18 50 32 22 49 31 21 50 32 22 47 29 19 48 30 20 47 29 19 49 31 21 48 30 20 50 32 22 49 31 21 48 30 20 47 29 19 47 29 19 49 31 21 48 30 20 47 29 19 49 31 21 47 29 19 47 29 19 49 31 21 49 31 21 47 29 19 50 31 21 52 33 22 49 30 19 52 33 21 53 33 21 53 33 21 53 33 21 55 35 22 54 33 21 56 35 22 56 35 22 57 36 23 58 37 23 57 36 23 57 36 23 56 35 21 56 35 21 55 34 20 57 37 23 56 35 22 57 36 23 53 33 20 53 33 20 54 34 22 52 33 21 51 31 20 50 31 20 49 30 19 47 29 19 49 31 21 47 29 19 47 29 19 47 29 19 47 29 19 47 29 19 47 29 19 48 30 20 49 31 21 48 30 20 50 32 22 50 32 22 47 29 19 48 30 20 47 29 19 47 29 19 48 30 20 47 29 19 48 30 20 49 31 21 49 31 21 50 32 22 49 31 21 48 30 20 47 29 19 47 29 19 49 31 21 46 28 18 49 31 21 46 28 18 50 32 22 47 29 19 49 31 21 46 28 18 47 29 19 47 29 19 46 28 18 49 31 21 48 30 20 49 31 21 49 31 21 49 31 21 45 27 17 30 25 32 31 26 33 30 25 32 28 23 29 29 24 31 28 23 30 26 21 28 39 30 34 37 28 32 38 29 32 36 27 31 36 27 30 35 26 30 35 26 30 36 27 30 34 25 29 35 26 30 35 26 30 35 26 30 34 25 29 34 25 28 35 26 29 34 25 29 34 25 28 32 23 27 34 25 28 32 23 27 31 22 26 30 21 25 30 21 24 29 20 24 29 20 24 29 20 24 31 22 26 30 21 24 31 22 25 30 21 24 30 21 25
37 24 26 38 25 27 39 25 27 41 28 30 39 26 28 40 27 29 40 27 29 40 27 29 43 29 31 41 28 30 42 29 31 42 29 31 41 28 30 42 29 31 41 28 30 43 30 32 41 28 30 42 28 30 42 29 31 45 32 33 44 30 32 46 33 35 47 33 35 45 32 34 47 34 36 44 31 33 48 35 36 46 33 35 46 33 35 47 34 36 47 34 36 46 33 35 39 30 35 39 30 35 39 30 34 40 31 36 39 30 35 41 32 37 41 32 37 47 29 19 45 27 17 47 29 19 49 31 21 49 31 21 50 32 22 47 29 19 50 32 22 49 31 21 47 29 19 49 31 21 49 31 21 48 30 20 49 31 21 47 29 19 48 30 20 46 28 18 48 30 20 49 31 21 46 28 18 47 29 19 48 30 20 48 30 20 47 29 19 47 29 19 47 29 19 48 30 20 48 30 20 47 29 19 48 30 20 48 30 20 47 29 19 48 30 20 48 30 20 49 31 21 49 31 21 47 29 19 49 31 21 47 29 19 48 30 20 46 28 18 49 31 21 47 29 19 46 28 18 48 30 20 50 32 21 51 32 21 50 31 20 52 33 21 53 33 21 54 34 22 53 33 21 53 33 21 54 34 21 56 36 23 54 34 21 55 35 22 55 34 21 54 33 20 56 35 23 55 35 22 52 32 20 53 32 20 52 32 20 52 33 21 53 34 22 51 32 21 53 33 22 50 31 20 49 30 19 50 32 22 50 32 22 47 29 19 47 29 19 47 29 19 47 29 19 50 32 22 47 29 19 47 29 19 46 28 18 49 31 21 47 29 19 49 31 21 47 29 19 47 29 19 48 30 20 48 30 20 49 31 21 47 29 19 48 30 20 49 31 21 50 32 22 49 31 21 47 29 19 47 29 19 47 29 19 49 31 21 47 29 19 48 30 20 50 32 22 47 29 19 49 31 21 46 28 18 47 29 19 47 29 19 48 30 20 47 29 19 47 29 19 47 29 19 48 30 20 49 31 21 46 28 18 48 30 20 46 28 18 45 27 17 38 29 34 39 30 35 40 31 36 37 28 33 40 31 36 39 30 35 38 29 33 47 34 36 49 36 38 45 32 34 48 35 37 47 34 36 48 35 36 47 34 36 46 33 34 47 34 36 44 31 33 44 31 32 45 32 34 45 32 34 42 29 31 42 29 31 42 29 31 42 29 31 44 31 33 41 28 29 41 28 30 42 29 31 42 29 31 42 29 31 40 27 29 39 26 28 42 29 31 41 28 29 38 25 27 40 27 29 40 27 29 37 24 26
40 27 29 38 24 26 37 24 26 39 26 28 39 26 27 38 25 27 39 26 27 40 27 29 41 28 30 43 30 32 41 28 30 43 30 32 42 29 30 43 30 31 42 29 31 44 31 33 41 28 30 44 31 33 43 30 32 44 31 33 44 31 33 46 33 35 44 31 33 46 33 34 47 34 36 45 32 34 46 33 35 46 32 34 48 35 37 48 34 36 47 34 36 48 35 37 37 27 32 40 31 36 39 30 34 39 30 35 39 29 34 39 30 35 40 31 36 46 28 18 48 30 20 47 29 19 46 28 18 47 29 19 47 29 19 46 28 18 48 30 20 49 31 21 49 31 21 49 31 21 48 30 20 49 31 21 46 28 18 49 31 21 49 31 21 47 29 19 47 29 19 46 28 18 49 31 21 47 29 19 50 32 22 48 30 20 50 32 22 50 32 22 50 32 22 49 31 21 48 30 20 46 28 18 50 32 22 47 29 19 47 29 19 48 30 20 46 28 18 47 29 19 48 30 20 49 31 21 48 30 20 48 30 20 50 32 22 47 29 19 49 31 21 46 28 18 47 29 19 48 30 20 47 29 19 48 30 20 48 30 19 51 32 21 51 32 21 52 33 22 53 34 23 52 32 21 51 32 20 53 33 21 51 31 19 52 32 20 52 32 20 52 32 20 52 33 21 52 33 21 53 34 22 54 35 23 53 34 23 52 33 21 50 31 20 50 31 20 51 33 22 48 30 19 48 30 20 47 29 19 48 30 20 46 28 18 47 29 19 47 29 19 49 31 21 47 29 19 47 29 19 47 29 19 49 31 21 47 29 19 47 29 19 48 30 20 46 28 18 48 30 20 50 32 22 47 29 19 47 29 19 46 28 18 50 32 22 46 28 18 49 31 21 50 32 22 47 29 19 46 28 18 47 29 19 50 32 22 47 29 19 47 29 19 50 32 22 47 29 19 47 29 19 48 30 20 48 30 20 50 32 22 48 30 20 47 29 19 49 31 21 49 31 21 49 31 21 47 29 19 49 31 21 46 28 18 45 27 17 48 30 20 41 32 37 41 32 37 39 30 35 38 29 34 38 29 34 39 29 34 40 31 36 49 36 38 47 34 36 46 33 35 48 35 37 48 35 37 47 34 36 44 31 33 47 34 36 46 33 35 45 32 33 46 33 34 43 30 32 45 32 34 45 32 34 43 30 32 44 31 33 43 30 32 44 31 33 40 27 29 43 30 32 41 28 30 40 27 29 43 30 32 42 29 31 40 27 29 41 28 30 39 26 28 38 25 27 40 27 29 37 24 26 38 25 27
40 27 29 37 24 26 38 25 27 40 27 29 38 24 26 39 26 28 39 26 28 40 27 29 40 27 29 43 30 32 42 29 31 41 28 30 42 29 31 43 30 32 41 28 30 41 28 30 44 31 33 43 30 32 45 32 34 42 29 31 44 31 33 46 33 35 45 32 34 47 34 36 46 33 35 46 33 35 46 32 34 46 33 35 48 35 37 49 36 38 48 35 37 49 36 38 38 29 34 38 29 34 39 30 35 40 31 36 38 29 34 41 31 36 39 29 34 45 27 17 47 29 19 48 30 20 48 30 20 49 31 21 48 30 20 47 29 19 48 30 20 49 31 21 47 29 19 48 30 20 49 31 21 49 31 21 46 28 18 47 29 19 47 29 19 49 31 21 48 30 20 49 31 21 46 28 18 49 31 21 48 30 20 46 28 18 47 29 19 49 31 21 48 30 20 48 30 20 46 28 18 47 29 19 47 29 19 46 28 18 48 30 20 49 31 21 46 28 18 46 28 18 48 30 20 47 29 19 49 31 21 46 28 18 46 28 18 49 31 21 49 31 21 49 31 21 48 30 20 46 28 18 48 30 20 47 29 19 50 32 22 50 32 21 49 31 21 50 32 21 48 29 18 49 30 19 50 31 20 52 33 22 52 33 21 51 32 20 52 33 22 51 32 20 50 31 20 51 32 21 50 31 20 51 32 21 49 30 20 50 31 21 49 30 20 47 29 19 49 31 21 49 31 21 47 29 19 48 30 20 47 29 19 50 32 22 50 32 22 49 31 21 48 30 20 49 31 21 49 31 21 48 30 20 49 31 21 48 30 20 48 30 20 47 29 19 46 28 18 49 31 21 46 28 18 47 29 19 46 28 18 48 30 20 46 28 18 49 31 21 48 30 20 49 31 21 49 31 21 48 30 20 49 31 21 48 30 20 48 30 20 47 29 19 48 30 20 47 29 19 49 31 21 46 28 18 46 28 18 48 30 20 46 28 18 49 31 21 49 31 21 47 29 19 46 28 18 46 28 18 46 28 18 46 28 18 47 29 19 48 30 20 40 31 36 39 30 35 41 32 37 39 30 35 37 28 33 38 28 33 39 30 35 48 34 36 49 36 38 48 35 37 48 35 37 49 36 37 46 33 35 47 34 35 46 33 35 45 32 34 46 33 35 47 34 35 44 31 33 44 31 33 45 31 33 45 32 34 42 29 31 45 32 34 45 31 33 42 29 31 44 31 32 42 29 30 41 27 29 42 29 30 42 29 31 41 28 30 41 28 29 42 29 31 41 28 30 38 25 27 40 27 29 39 26 28
40 26 28 40 27 29 39 25 27 40 27 29 41 28 30 41 27 29 39 26 28 40 27 29 39 26 28 40 27 29 42 28 30 43 29 31 43 30 32 41 28 29 45 31 33 42 29 31 45 32 34 46 32 34 45 32 34 45 32 34 43 30 32 45 32 33 47 34 36 46 33 35 48 34 36 47 34 36 48 34 36 46 33 35 48 35 37 48 35 37 48 34 36 50 37 38 37 27 32 39 30 35 39 30 35 39 30 35 38 29 34 41 32 37 41 32 37 46 28 18 46 28 18 47 29 19 48 30 20 47 29 19 49 31 21 48 30 20 49 31 21 46 28 18 46 28 18 48 30 20 47 29 19 46 28 18 48 30 20 49 31 21 47 29 19 48 30 20 47 29 19 48 30 20 48 30 20 47 29 19 46 28 18 47 29 19 47 29 19 47 29 19 47 29 19 46 28 18 45 27 17 46 28 18 47 29 19 47 29 19 48 30 20 47 29 19 49 31 21 46 28 18 48 30 20 46 28 18 47 29 19 47 29 19 47 29 19 48 30 20 48 30 20 47 29 19 49 31 21 48 30 20 47 29 19 46 28 18 49 31 21 49 31 21 45 27 17 49 31 21 46 27 17 46 28 18 50 31 21 48 30 19 47 29 18 51 32 21 47 29 18 47 29 18 50 32 21 49 30 19 47 29 18 47 29 19 48 30 19 48 30 20 45 27 17 45 27 17 48 30 20 49 31 21 47 29 19 46 28 18 46 28 18 45 27 17 47 29 19 49 31 21 46 28 18 47 29 19 46 28 18 47 29 19 46 28 18 47 29 19 47 29 19 45 27 17 46 28 18 46 28 18 48 30 20 47 29 19 49 31 21 46 28 18 45 27 17 46 28 18 46 28 18 48 30 20 47 29 19 48 30 20 48 30 20 46 28 18 46 28 18 46 28 18 46 28 18 46 28 18 46 28 18 47 29 19 47 29 19 48 30 20 49 31 21 49 31 21 47 29 19 48 30 20 47 29 19 49 31 21 49 31 21 49 31 21 48 30 20 46 28 18 39 29 34 40 31 36 39 30 35 40 30 35 40 31 36 40 31 36 37 28 33 46 33 35 47 33 35 47 33 35 47 33 35 46 33 35 46 33 35 48 35 37 45 32 34 46 33 35 45 32 33 46 33 35 43 30 32 45 32 34 43 30 32 46 33 35 42 29 31 41 28 30 42 29 31 42 29 31 43 30 32 42 29 31 41 27 29 41 28 30 40 27 29 42 29 31 42 29 31 38 25 27 38 25 27 41 28 30 37 24 26 37 24 26
37 24 26 37 24 26 38 25 27 41 27 29 41 28 30 42 29 31 41 28 30 42 28 30 39 26 28 40 27 29 40 27 29 43 30 32 43 29 31 41 28 30 44 31 33 44 30 32 45 32 34 44 31 33 44 31 33 43 30 32 45 32 34 47 33 35 45 32 33 45 32 34 47 34 36 46 33 35 46 32 34 47 34 36 49 35 37 47 33 35 49 36 38 48 35 37 39 30 35 39 30 35 39 30 35 38 29 34 40 30 35 39 30 35 40 31 36 47 29 19 49 31 21 47 29 19 46 28 18 48 30 20 46 28 18 45 27 17 48 30 20 47 29 19 49 31 21 47 29 19 45 27 17 46 28 18 46 28 18 48 30 20 46 28 18 46 28 18 47 29 19 46 28 18 47 29 19 47 29 19 46 28 18 47 29 19 48 30 20 48 30 20 45 27 17 45 27 17 48 30 20 46 28 18 46 28 18 49 31 21 46 28 18 45 27 17 45 27 17 46 28 18 47 29 19 46 28 18 47 29 19 46 28 18 47 29 19 46 28 18 48 30 20 46 28 18 46 28 18 46 28 18 47 29 19 45 27 17 47 29 19 45 27 17 47 29 19 48 30 20 47 29 19 48 30 20 48 30 20 46 28 18 48 30 20 48 30 20 47 29 19 46 28 18 45 27 17 48 30 20 48 30 20 46 28 18 47 29 19 46 28 18 47 29 19 48 30 20 48 30 20 46 28 18 47 29 19 46 28 18 46 28 18 46 28 18 47 29 19 47 29 19 48 30 20 49 31 21 46 28 18 48 30 20 46 28 18 47 29 19 46 28 18 45 27 17 48 30 20 45 27 17 48 30 20 47 29 19 47 29 19 46 28 18 45 27 17 46 28 18 47 29 19 47 29 19 48 30 20 47 29 19 47 29 19 47 29 19 48 30 20 48 30 20 46 28 18 48 30 20 46 28 18 46 28 18 47 29 19 45 27 17 45 27 17 45 27 17 47 29 19 47 29 19 48 30 20 46 28 18 46 28 18 47 29 19 45 27 17 48 30 20 41 32 37 42 33 38 39 30 35 40 31 36 39 30 35 40 31 36 40 31 36 47 34 36 47 34 36 49 36 38 46 33 35 47 33 35 47 34 36 45 32 34 47 33 35 48 35 37 47 34 36 44 30 32 44 31 33 44 31 33 43 30 32 45 32 34 45 32 34 42 28 30 45 31 33 45 31 33 42 29 31 43 29 31 43 29 31 43 30 32 40 27 29 42 29 31 40 27 29 38 25 27 39 26 28 39 26 28 40 27 29 38 25 27
41 27 29 39 26 28 40 27 29 41 28 30 42 28 31 40 27 29 39 26 28 42 29 31 40 27 29 42 29 31 42 29 31 43 30 32 45 31 33 44 30 32 44 31 33 42 29 31 44 31 33 45 32 34 43 30 32 43 30 32 46 33 35 47 34 36 45 31 33 45 32 34 45 32 34 45 32 34 47 34 36 49 35 37 49 36 38 48 35 37 48 35 37 50 37 39 39 30 35 40 31 36 41 32 37 39 30 35 42 32 37 42 33 38 40 31 36 48 30 20 44 26 16 47 29 19 45 27 17 44 26 16 46 28 18 47 29 19 47 29 19 45 27 17 47 29 19 48 30 20 45 27 17 45 27 17 47 29 19 47 29 19 46 28 18 48 30 20 45 27 17 45 27 17 48 30 20 45 27 17 47 29 19 47 29 19 45 27 17 45 27 17 48 30 20 48 30 20 47 29 19 47 29 19 47 29 19 46 28 18 45 27 17 48 30 20 46 28 18 46 28 18 46 28 18 46 28 18 46 28 18 47 29 19 45 27 17 44 26 16 45 27 17 46 28 18 44 26 16 45 27 17 47 29 19 44 26 16 48 30 20 47 29 19 45 27 17 47 29 19 46 28 18 46 28 18 44 26 16 46 28 18 45 27 17 48 30 20 44 26 16 48 30 20 45 27 17 46 28 18 47 29 19 45 27 17 47 29 19 47 29 19 47 29 19 47 29 19 45 27 17 45 27 17 45 27 17 48 30 20 45 27 17 47 29 19 47 29 19 48 30 20 45 27 17 44 26 16 47 29 19 45 27 17 48 30 20 47 29 19 47 29 19 46 28 18 45 27 17 47 29 19 45 27 17 47 29 19 46 28 18 45 27 17 46 28 18 45 27 17 45 27 17 44 26 16 45 27 17 47 29 19 47 29 19 45 27 17 47 29 19 48 30 20 46 28 18 45 27 17 47 29 19 48 30 20 47 29 19 48 30 20 46 28 18 48 30 20 44 26 16 48 30 20 47 29 19 47 29 19 46 28 18 45 27 17 46 28 18 46 28 18 41 32 37 40 31 36 40 30 35 40 31 36 38 29 34 39 30 35 38 28 33 48 34 36 47 34 36 48 35 37 49 35 37 48 35 37 48 35 37 46 33 35 45 32 34 48 35 37 46 33 35 44 31 33 46 33 35 46 32 34 43 29 31 45 32 34 43 30 32 43 30 32 45 31 33 42 29 31 41 28 30 43 29 31 42 29 31 43 29 31 43 29 31 40 27 29 40 27 29 42 29 31 40 27 29 39 26 28 38 25 27 39 26 28
29 19 23 29 19 23 29 20 24 31 22 26 30 21 25 29 20 24 33 23 27 32 22 26 31 21 26 31 22 26 34 24 28 34 25 29 33 24 28 34 25 29 34 25 29 34 25 29 35 25 29 34 25 29 35 26 30 36 27 31 34 25 29 36 27 31 34 25 29 37 27 31 34 25 29 38 29 33 39 30 34 39 30 34 39 30 34 40 30 34 40 31 35 37 28 32 28 23 30 27 22 29 30 25 32 32 27 34 29 24 31 29 23 30 31 26 33 44 26 16 47 29 19 47 29 19 47 29 19 44 26 16 46 28 18 45 27 17 44 26 16 48 30 20 44 26 16 44 26 16 46 28 18 44 26 16 45 27 17 45 27 17 47 29 19 47 29 19 46 28 18 45 27 17 45 27 17 44 26 16 46 28 18 46 28 18 46 28 18 46 28 18 47 29 19 45 27 17 47 29 19 44 26 16 44 26 16 45 27 17 46 28 18 44 26 16 44 26 16 46 28 18 48 30 20 46 28 18 47 29 19 47 29 19 45 27 17 45 27 17 47 29 19 45 27 17 48 30 20 45 27 17 45 27 17 46 28 18 47 29 19 45 27 17 46 28 18 47 29 19 44 26 16 46 28 18 46 28 18 46 28 18 46 28 18 45 27 17 45 27 17 47 29 19 47 29 19 45 27 17 44 26 16 44 26 16 46 28 18 46 28 18 45 27 17 46 28 18 44 26 16 45 27 17 44 26 16 47 29 19 45 27 17 47 29 19 45 27 17 44 26 16 47 29 19 44 26 16 44 26 16 45 27 17 46 28 18 46 28 18 45 27 17 47 29 19 45 27 17 47 29 19 46 28 18 47 29 19 45 27 17 46 28 18 47 29 19 45 27 17 47 29 19 46 28 18 45 27 17 47 29 19 46 28 18 44 26 16 44 26 16 47 29 19 48 30 20 47 29 19 47 29 19 47 29 19 46 28 18 47 29 19 46 28 18 47 29 19 46 28 18 45 27 17 44 26 16 44 26 16 45 27 17 47 29 19 46 28 18 46 28 18 29 24 31 28 23 30 29 23 30 28 23 30 31 26 33 30 25 32 27 22 29 37 28 32 40 31 35 36 27 31 36 26 31 39 30 34 36 26 30 38 28 32 37 28 32 37 28 32 34 25 29 37 28 32 34 24 28 36 27 31 33 23 28 35 25 29 34 25 29 34 24 28 32 23 27 33 23 27 34 25 29 31 22 26 34 25 29 31 21 25 29 20 24 33 23 27 30 21 25 30 21 25 29 20 24 30 20 24 32 22 26 29 20 24
27 18 22 31 22 26 28 19 23 32 22 26 30 21 25 30 20 25 30 20 24 32 23 27 33 24 28 34 24 29 34 25 29 31 22 26 32 23 27 32 23 27 33 24 28 33 23 27 36 26 30 35 26 30 36 27 31 36 26 30 36 27 31 36 26 30 34 25 29 37 28 32 36 26 30 38 29 33 36 27 31 38 29 33 36 27 31 39 30 34 38 28 32 37 28 32 30 25 32 29 24 31 32 26 33 29 24 31 31 26 33 29 24 31 30 25 32 29 24 31 31 25 33 29 23 30 30 24 31 30 24 31 30 25 32 31 26 33 31 26 33 28 23 30 29 24 31 28 23 30 29 24 31 30 24 31 29 24 31 32 27 34 28 23 30 31 26 33 31 25 33 29 24 31 31 25 33 31 26 33 29 24 31 31 26 33 29 23 31 30 25 32 30 25 32 31 26 33 31 25 33 30 25 32 29 23 30 31 25 33 30 25 32 32 27 34 30 24 32 29 23 30 30 24 32 28 23 30 31 26 33 30 24 31 31 25 32 30 25 32 29 23 30 28 23 30 31 25 33 31 26 33 30 24 31 28 23 30 32 26 34 30 24 31 32 26 34 31 26 33 31 26 33 31 25 32 31 26 33 31 25 32 31 26 33 30 24 32 29 23 30 32 27 34 30 25 32 30 25 32 31 26 33 29 24 31 30 24 31 29 23 31 31 26 33 28 23 30 29 24 31 28 23 30 31 26 33 31 26 33 28 23 30 31 26 33 31 26 33 30 25 32 30 24 32 31 26 33 31 26 33 31 25 33 32 26 33 31 26 33 31 26 33 30 24 31 29 24 31 29 24 31 29 24 31 29 24 31 32 26 33 29 24 31 29 23 30 28 23 30 32 27 34 31 26 33 30 24 31 32 26 34 28 23 30 29 24 31 28 23 30 30 25 32 29 24 31 28 23 30 31 26 33 31 26 33 28 23 30 29 24 31 30 24 31 30 25 32 31 25 33 31 25 32 28 23 30 31 26 33 29 24 31 31 26 33 28 23 30 29 24 31 29 23 30 31 26 33 31 26 33 28 23 30 29 23 30 31 26 33 29 24 31 39 30 34 39 30 34 39 30 34 38 29 33 37 28 32 39 29 33 36 27 31 37 28 32 34 25 29 35 26 30 34 25 29 35 26 30 37 27 32 35 26 30 35 26 30 35 26 30 32 23 27 33 23 28 34 24 28 33 24 28 32 23 27 32 22 27 32 23 27 30 21 25 32 23 27 31 22 26 31 21 25 32 22 26 32 22 27 31 22 26 28 19 23
40 27 29 38 24 26 39 26 28 40 27 29 40 27 29 42 28 31 41 28 30 42 29 31 43 30 32 43 30 32 42 29 31 43 29 31 41 28 30 44 30 32 43 29 31 42 29 31 46 33 35 46 32 34 45 32 34 46 33 35 45 32 34 47 33 35 45 32 34 45 32 34 45 32 34 48 35 37 47 34 36 49 36 38 48 35 37 47 34 36 50 37 39 49 36 38 37 28 33 40 31 36 40 31 36 39 30 35 40 30 36 40 31 36 39 30 35 41 32 37 39 30 35 38 28 33 39 30 35 38 29 34 41 31 37 41 31 37 41 32 37 39 30 35 39 30 35 41 32 37 40 31 36 40 31 36 39 30 35 40 30 35 39 29 35 41 31 36 39 30 35 38 28 33 38 29 34 38 29 34 40 31 36 39 29 34 41 32 37 41 32 37 41 32 37 41 32 37 39 30 35 39 30 35 39 30 35 40 31 36 41 32 37 39 30 35 38 29 34 41 32 37 38 29 34 38 29 34 41 31 37 40 31 36 38 29 34 40 30 36 40 31 36 38 29 34 40 31 36 38 29 34 41 32 37 38 29 34 41 31 37 39 30 35 39 29 34 39 30 35 38 29 34 40 31 36 41 32 37 41 32 37 38 28 33 39 30 35 39 30 35 38 28 34 41 32 37 39 30 35 41 32 37 39 29 34 40 31 36 39 29 34 38 28 33 40 31 36 40 31 36 41 31 36 38 28 33 39 30 35 41 32 37 40 30 35 38 28 34 41 31 36 39 29 34 39 30 35 40 31 36 41 31 37 38 29 34 40 31 36 39 29 34 38 29 34 40 30 35 38 29 34 39 30 35 38 29 34 40 30 35 41 32 37 39 30 35 39 30 35 41 32 37 41 32 37 41 32 37 38 29 34 42 32 37 38 29 34 39 30 35 40 31 36 40 31 36 38 28 33 40 31 36 40 30 35 41 31 36 38 28 34 40 31 36 41 31 37 40 31 36 41 32 37 39 30 35 41 32 37 39 29 35 41 31 37 38 29 34 38 28 34 40 30 35 40 31 36 40 31 36 38 28 34 41 32 37 40 31 36 41 31 37 49 36 38 48 35 37 48 35 37 49 35 37 47 34 36 47 33 35 49 36 38 48 35 37 46 33 35 46 33 35 46 32 34 47 34 36 46 33 35 44 31 33 44 30 32 43 30 32 42 29 31 44 30 32 44 30 32 42 29 31 41 28 30 43 30 32 41 28 30 44 30 32 40 27 29 42 29 31 40 27 29 39 26 28 41 28 30 40 27 29 40 27 29
41 27 29 38 25 27 41 28 30 42 29 31 41 28 30 41 28 30 41 28 30 41 28 30 43 29 32 41 28 30 41 28 30 43 29 32 43 30 32 45 32 34 43 30 32 44 30 33 44 30 33 46 33 35 45 32 34 47 33 36 48 34 36 46 33 35 48 35 37 47 33 35 48 35 37 47 34 36 49 35 37 46 33 35 46 33 35 50 37 39 48 35 37 48 35 37 40 31 36 40 31 36 40 31 36 40 30 35 38 28 34 37 28 33 40 31 36 41 31 37 40 31 36 39 29 34 40 30 35 41 31 36 39 29 35 39 29 35 40 30 36 39 30 35 40 31 36 41 32 37 37 28 33 41 32 37 39 30 35 41 32 37 38 29 34 39 29 35 40 31 36 40 31 36 38 29 34 39 30 35 40 31 36 41 32 37 38 29 34 38 29 34 39 29 34 38 28 34 41 31 36 39 29 35 38 29 34 39 29 34 39 30 35 38 29 34 41 31 36 39 30 35 40 31 36 41 32 37 38 29 34 41 32 37 38 28 34 40 31 36 38 28 33 39 30 35 39 30 35 40 30 36 41 32 37 39 30 35 38 29 34 41 31 37 41 32 37 41 32 37 38 29 34 39 30 35 38 29 34 38 28 34 41 31 36 39 29 34 41 32 37 37 28 33 40 31 36 39 29 35 38 29 34 39 30 35 39 30 35 40 31 36 39 29 34 39 30 35 37 28 33 39 30 35 40 31 36 40 30 36 39 30 35 41 32 37 38 28 33 38 28 34 40 31 36 41 31 36 41 32 37 38 28 33 38 28 34 39 30 35 41 31 36 40 31 36 41 31 36 39 29 35 39 30 35 37 28 33 40 31 36 41 32 37 38 28 33 40 31 36 40 30 35 40 30 35 40 31 36 41 32 37 41 31 37 40 31 36 40 31 36 41 32 37 41 31 37 38 29 34 41 32 37 38 28 34 37 28 33 40 31 36 41 31 37 41 31 36 38 29 34 39 30 35 39 30 35 40 30 36 39 30 35 38 28 33 40 31 36 41 31 37 41 32 37 38 29 34 39 29 35 37 28 33 39 30 35 39 29 35 38 28 33 50 37 39 51 37 39 48 34 36 46 33 35 47 34 36 49 35 37 46 32 35 47 34 36 48 35 37 48 34 37 46 33 35 46 33 35 44 31 33 45 31 34 44 30 32 44 30 33 46 32 35 44 31 33 42 29 31 44 31 33 41 28 30 44 31 33 42 29 31 43 30 32 43 30 32 40 26 29 40 26 28 40 27 29 39 26 28 40 26 28 39 26 28
38 25 27 41 27 29 42 28 31 41 27 29 41 28 30 42 29 31 43 30 32 41 28 30 42 28 30 41 28 30 44 31 33 43 30 32 43 30 32 42 29 31 44 31 33 45 31 33 44 30 32 46 32 35 44 31 33 46 33 35 47 33 36 47 34 36 47 33 36 48 34 36 46 33 35 47 33 35 47 34 36 49 36 38 48 34 36 50 36 39 47 34 36 50 37 39 39 29 35 40 31 36 38 29 34 38 29 34 38 29 34 40 31 36 41 32 37 40 31 36 39 30 35 40 30 35 40 31 36 39 29 35 40 31 36 39 29 34 38 29 34 38 28 33 38 29 34 39 30 35 39 29 34 39 29 34 41 31 36 37 28 33 41 31 37 39 30 35 38 28 33 40 31 36 40 31 36 41 31 36 38 28 33 39 30 35 38 28 33 38 28 34 39 30 35 37 28 33 38 29 34 40 31 36 39 29 34 39 29 35 38 28 33 40 31 36 40 30 35 41 32 37 40 30 36 38 28 33 40 31 36 38 29 34 41 32 37 41 32 37 38 28 34 38 28 33 37 28 33 40 31 36 41 31 37 41 31 36 39 29 35 40 31 36 40 31 36 40 31 36 38 28 34 39 30 35 40 31 36 40 31 36 38 29 34 38 28 34 37 28 33 40 30 36 39 30 35 40 30 36 38 28 33 41 31 37 38 29 34 38 28 34 37 28 33 38 28 33 38 29 34 39 29 35 37 28 33 38 29 34 37 28 33 41 31 36 38 28 34 37 28 33 39 29 35 38 29 34 37 28 33 40 31 36 39 30 35 38 28 34 37 28 33 41 32 37 40 30 36 39 29 35 39 30 35 39 30 35 39 30 35 38 28 34 39 30 35 40 31 36 37 28 33 38 28 34 37 28 33 39 30 35 37 28 33 40 31 36 39 30 35 39 29 34 38 29 34 40 30 36 38 28 34 39 30 35 38 29 34 40 31 36 39 29 34 38 29 34 40 30 36 39 29 35 39 30 35 39 29 34 40 31 36 40 31 36 38 29 34 41 31 36 40 31 36 37 28 33 40 30 36 37 28 33 40 30 35 41 31 37 40 30 36 49 36 38 50 37 39 48 35 37 48 34 37 47 34 36 47 34 36 49 36 38 47 34 36 47 34 36 46 32 35 46 33 35 47 33 35 45 32 34 43 30 32 44 31 33 43 30 32 46 33 35 46 32 34 45 32 34 45 31 34 44 31 33 43 29 31 43 30 32 41 28 30 43 29 32 42 28 31 41 28 30 40 27 29 42 29 31 39 25 28 40 27 29
39 26 28 42 28 31 41 28 30 41 27 29 42 28 31 39 26 28 42 29 31 41 28 30 43 29 31 42 29 31 44 30 33 44 31 33 42 29 31 42 29 31 42 29 31 46 32 35 43 30 32 44 30 32 46 33 35 44 31 33 47 34 36 45 32 34 48 35 37 48 35 37 49 36 38 47 34 36 50 36 38 47 33 36 47 33 36 48 35 37 49 36 38 49 35 38 40 31 36 38 29 34 38 28 34 40 30 36 40 30 36 38 29 34 40 31 36 38 28 34 38 29 34 38 29 34 37 27 33 37 27 32 40 30 35 37 27 32 38 28 34 39 29 35 39 30 35 39 29 35 39 29 35 39 30 35 37 28 33 37 28 33 37 27 33 38 28 33 38 28 34 40 31 36 37 28 33 41 31 36 41 31 36 38 28 34 39 29 34 40 31 36 39 30 35 39 29 35 39 30 35 37 28 33 37 28 33 37 27 33 40 31 36 39 30 35 40 31 36 38 29 34 40 30 36 39 30 35 38 29 34 40 31 36 39 30 35 39 29 35 40 31 36 40 31 36 40 31 36 39 30 35 38 28 33 39 30 35 37 27 33 38 29 34 37 28 33 39 30 35 40 30 36 38 28 34 39 30 35 40 31 36 37 27 32 38 29 34 40 30 36 39 30 35 37 27 33 39 30 35 38 29 34 40 31 36 39 30 35 37 28 33 40 31 36 38 29 34 39 30 35 39 29 35 40 31 36 40 31 36 39 30 35 38 28 34 37 28 33 38 28 34 40 30 35 38 28 34 38 28 34 38 29 34 40 31 36 39 29 34 38 28 34 37 28 33 39 30 35 40 30 36 38 28 34 38 29 34 38 28 34 37 27 32 37 27 33 40 31 36 40 31 36 39 29 34 39 30 35 39 29 34 39 30 35 37 28 33 37 28 33 37 28 33 37 28 33 39 30 35 38 28 33 37 27 32 40 30 36 37 28 33 40 30 35 40 30 36 39 29 34 39 30 35 40 31 36 37 27 33 40 31 36 39 30 35 38 28 34 38 29 34 38 29 34 37 28 33 40 31 36 38 29 34 40 30 35 39 30 35 39 30 35 49 35 37 48 34 36 48 35 37 49 36 38 50 37 39 46 33 35 46 33 35 48 34 37 45 31 34 45 32 34 46 32 34 46 32 35 47 33 36 47 33 36 45 31 34 45 32 34 45 31 34 44 30 33 42 29 31 42 28 30 45 32 34 42 29 31 43 30 32 41 28 30 40 27 29 40 27 29 43 30 32 41 28 30 40 27 29 40 26 29 40 26 29
38 25 27 39 26 28 42 29 31 41 28 30 40 27 29 42 28 30 43 30 32 44 30 32 42 29 31 41 28 30 44 30 33 43 29 31 45 31 34 46 32 35 43 30 32 43 29 31 43 30 32 44 31 33 45 31 34 46 33 35 44 31 33 48 34 37 45 32 34 48 34 37 46 33 35 47 33 36 46 33 35 47 34 36 49 36 38 49 36 38 48 35 37 47 34 36 40 31 36 36 27 32 37 28 33 39 30 35 38 29 34 38 28 33 37 28 33 39 29 35 40 31 36 40 30 36 38 28 34 38 28 34 39 30 35 37 27 32 40 30 36 38 29 34 39 30 35 38 28 33 39 30 35 39 29 35 37 27 33 39 30 35 38 29 34 39 29 35 38 28 34 39 29 35 39 29 34 40 30 35 38 29 34 38 29 34 38 29 34 39 30 35 38 28 33 37 28 33 37 28 33 40 31 36 37 28 33 39 30 35 40 30 36 39 30 35 38 29 34 36 27 32 38 29 34 39 30 35 38 29 34 38 28 34 38 29 34 38 29 34 37 28 33 39 30 35 39 30 35 40 30 36 38 28 34 38 28 33 38 28 34 39 29 34 37 27 32 38 28 34 40 30 35 37 28 33 40 31 36 37 27 32 39 29 35 40 30 36 37 27 33 37 28 33 36 27 32 38 29 34 37 27 33 39 29 35 40 31 36 40 30 36 39 29 34 37 27 33 38 28 33 40 31 36 39 29 34 38 28 33 38 29 34 39 30 35 40 31 36 38 29 34 36 27 32 37 28 33 40 31 36 38 28 34 37 28 33 38 29 34 40 31 36 37 28 33 38 29 34 39 30 35 40 31 36 38 29 34 38 29 34 38 29 34 38 28 34 38 29 34 39 29 34 37 28 33 40 30 35 39 29 35 39 30 35 40 30 35 39 29 34 39 29 35 39 30 35 39 30 35 39 29 35 40 30 36 39 30 35 39 29 34 39 30 35 38 28 33 40 31 36 37 27 32 39 30 35 38 28 34 37 28 33 37 27 32 40 31 36 37 28 33 40 30 36 40 30 35 37 27 33 36 27 32 40 30 36 37 27 33 39 29 34 48 35 37 49 36 38 47 34 36 48 35 37 49 36 38 48 34 37 46 33 35 48 34 37 46 33 35 47 33 36 45 32 34 45 32 34 45 31 34 44 30 32 46 33 35 45 32 34 44 31 33 45 32 34 43 30 32 42 28 31 44 31 33 41 28 30 43 30 32 41 28 30 42 28 31 42 28 31 41 28 30 40 27 29 41 28 30 39 25 27 42 29 31
41 27 30 42 29 31 41 28 30 42 29 31 42 28 30 40 26 29 41 28 30 41 28 30 44 30 32 42 28 31 44 31 33 43 30 32 43 29 32 46 32 35 44 31 33 45 32 34 44 31 33 45 32 34 47 34 36 46 33 35 46 32 35 47 34 36 48 35 37 48 34 37 46 33 35 49 35 38 47 34 36 48 34 37 50 36 39 48 34 37 48 35 37 46 33 35 39 30 35 38 28 34 38 29 34 37 27 33 38 29 34 37 27 32 40 30 35 39 29 35 39 29 34 39 29 35 37 27 32 37 28 33 37 27 33 38 28 33 40 30 36 37 27 33 39 30 35 40 30 36 36 27 32 39 30 35 40 30 36 38 29 34 36 27 32 39 29 35 37 27 33 40 30 36 38 28 34 37 27 33 36 27 32 38 29 34 39 30 35 39 29 35 38 29 34 36 27 32 37 28 33 38 28 33 37 28 33 37 27 33 37 28 33 39 30 35 39 29 35 38 28 33 37 27 33 37 27 33 38 29 34 40 30 36 37 28 33 36 27 32 38 28 34 40 30 35 37 28 33 38 29 34 38 28 34 39 30 35 39 29 34 37 27 32 37 28 33 37 28 33 37 28 33 36 27 32 39 29 35 37 28 33 38 29 34 40 30 36 37 27 32 40 30 35 37 28 33 37 27 33 39 30 35 37 28 33 37 28 33 37 27 33 36 27 32 38 28 34 38 29 34 37 27 33 37 28 33 39 29 35 37 28 33 38 28 34 39 30 35 38 29 34 39 29 35 39 30 35 39 29 34 36 27 32 37 28 33 38 28 34 38 29 34 36 27 32 38 29 34 38 29 34 39 29 35 37 28 33 40 30 36 36 27 32 38 29 34 37 28 33 38 29 34 39 29 35 40 30 36 36 27 32 39 30 35 37 27 33 40 30 35 38 29 34 37 28 33 37 27 32 40 30 36 37 28 33 36 27 32 38 28 34 39 29 34 36 27 32 37 27 33 37 28 33 38 29 34 37 27 33 39 30 35 36 27 32 37 27 33 36 27 32 36 27 32 36 27 32 39 30 35 37 27 33 39 30 35 36 27 32 37 28 33 47 34 36 47 34 36 50 36 39 47 33 35 49 36 38 48 35 37 47 33 36 48 34 37 48 35 37 46 33 35 47 33 36 46 33 35 47 33 36 45 31 34 46 33 35 45 32 34 43 30 32 46 33 35 46 32 35 43 29 32 43 29 32 42 28 31 44 30 33 43 30 32 43 29 32 43 29 31 40 26 29 43 30 32 42 29 31 43 29 31 39 25 28
29 19 24 29 20 24 31 21 25 29 20 24 33 23 28 32 23 27 33 24 28 31 21 26 34 24 29 34 25 29 34 24 29 35 26 30 33 23 28 35 26 30 34 25 29 34 25 29 37 27 32 34 24 28 35 26 30 34 25 29 35 26 30 38 29 33 37 27 32 38 28 33 39 30 34 36 26 31 37 27 32 38 28 33 38 28 33 37 27 31 38 28 33 38 29 33 26 20 28 27 21 29 26 20 28 28 22 29 28 23 30 28 22 30 27 22 29 28 22 30 27 22 29 26 21 28 27 21 29 29 23 30 26 21 28 29 23 31 30 24 31 27 21 29 29 24 31 26 21 28 26 20 28 29 24 31 28 22 30 26 20 28 28 23 30 27 21 28 26 20 28 26 21 28 28 23 30 26 21 28 26 21 28 28 22 30 28 23 30 27 22 29 26 20 28 29 24 31 30 24 31 29 24 31 26 21 28 26 21 28 29 24 31 26 21 28 27 22 29 26 20 28 26 20 28 27 21 29 28 23 30 26 21 28 29 23 30 26 21 28 28 23 30 27 21 29 26 20 28 26 20 28 29 23 31 29 23 31 27 22 29 29 24 31 26 20 28 28 23 30 27 22 29 27 22 29 29 23 31 27 21 29 28 22 30 26 20 28 26 20 28 29 23 31 27 22 29 26 21 28 27 21 28 26 20 28 28 22 30 29 24 31 29 23 31 26 21 28 28 23 30 29 23 30 27 22 29 27 21 29 29 23 31 26 21 28 27 22 29 29 23 31 29 23 30 28 22 30 29 24 31 27 21 29 27 21 29 26 20 28 29 24 31 26 20 28 26 21 28 27 22 29 28 23 30 29 23 31 29 24 31 27 21 29 27 22 29 29 24 31 29 23 31 28 22 30 30 24 31 30 24 31 29 23 30 29 24 31 28 22 30 27 22 29 29 23 31 28 23 30 26 20 28 27 22 29 27 22 29 29 24 31 29 24 31 27 21 29 27 22 29 29 24 31 29 23 31 30 24 31 27 22 29 27 21 28 28 23 30 26 21 28 26 21 28 29 24 31 29 24 31 27 22 29 27 22 29 26 20 28 30 24 31 38 29 33 38 29 33 39 29 34 37 28 32 37 28 32 37 27 32 37 28 32 38 28 33 39 29 34 38 29 33 39 29 34 36 26 31 35 25 29 35 26 30 37 27 32 34 24 29 34 24 28 35 25 30 34 24 29 34 25 29 35 26 30 35 25 30 34 25 29 34 24 29 34 25 29 31 22 26 33 23 27 32 22 27 30 20 25 32 22 27 31 21 25
31 21 26 29 20 24 32 22 27 30 21 25 31 21 25 32 23 27 31 22 26 31 21 25 32 22 27 32 23 27 33 23 27 32 23 27 36 26 31 36 26 31 34 24 29 35 26 30 36 26 30 34 25 29 35 26 30 38 29 33 36 26 30 37 28 32 36 27 31 38 29 33 36 26 31 37 27 32 37 27 31 37 27 31 37 28 32 39 29 34 38 28 33 38 28 32 25 20 27 28 23 30 27 22 29 26 21 28 27 21 29 28 23 30 29 24 31 26 20 27 26 20 28 27 21 28 29 23 31 27 22 29 29 23 30 29 23 30 27 22 29 26 20 28 26 20 28 27 22 29 28 22 29 29 23 31 29 23 31 27 22 29 26 21 28 25 20 27 25 20 27 28 22 30 26 20 28 25 20 27 26 21 28 29 23 31 28 23 30 26 20 28 26 21 28 27 21 28 26 20 27 28 22 30 28 22 30 25 20 27 28 22 30 27 21 29 25 20 27 25 20 27 26 21 28 26 21 28 29 24 31 26 20 28 27 21 28 27 22 29 26 20 27 27 21 29 29 23 31 26 20 28 26 20 28 29 23 31 27 21 28 26 21 28 29 24 31 29 23 31 29 24 31 27 22 29 26 20 28 26 21 28 27 21 28 26 21 28 27 22 29 27 22 29 29 23 31 27 22 29 28 22 29 25 20 27 25 20 27 27 22 29 27 21 29 26 20 28 27 22 29 28 23 30 27 21 29 26 20 27 29 23 30 27 22 29 27 21 29 28 23 30 28 22 30 28 23 30 28 22 29 26 20 28 27 21 29 28 22 30 27 22 29 25 20 27 28 22 30 26 21 28 29 23 31 28 22 30 29 24 31 26 21 28 28 22 29 29 23 30 27 21 28 26 20 28 27 22 29 26 21 28 29 24 31 27 21 28 27 22 29 26 20 28 25 20 27 27 22 29 28 23 30 27 21 29 28 22 30 27 21 29 29 23 31 27 22 29 26 20 27 28 22 29 29 24 31 27 21 28 26 20 28 26 21 28 29 24 31 26 20 28 29 23 31 26 21 28 28 22 29 29 23 31 28 23 30 28 23 30 27 22 29 38 29 33 39 30 34 37 28 32 39 30 34 36 26 30 37 27 31 37 27 32 39 29 34 37 28 32 36 26 31 36 27 31 35 25 30 36 26 31 34 25 29 35 25 30 36 27 31 36 27 31 34 24 29 33 24 28 34 25 29 33 24 28 34 25 29 32 23 27 33 23 28 32 22 27 33 24 28 33 23 28 32 23 27 31 21 26 30 21 25 32 23 27
41 28 30 43 29 31 40 26 29 42 28 31 41 28 30 43 30 32 41 27 30 44 30 33 42 28 31 43 30 32 44 30 33 46 32 35 43 29 32 43 30 32 46 32 35 46 32 35 47 34 36 45 32 34 45 31 34 47 33 35 46 32 35 47 34 36 45 32 34 47 33 35 46 32 35 47 33 36 45 32 34 48 35 37 48 34 37 48 34 37 47 33 35 47 34 36 37 27 32 38 28 34 36 26 31 38 28 34 39 29 35 36 26 32 39 29 35 36 26 32 38 28 34 35 26 31 38 29 34 39 29 35 37 27 33 36 26 32 38 29 34 36 27 32 37 27 33 39 29 35 39 29 35 39 29 35 38 29 34 36 26 31 36 27 32 37 27 33 38 28 34 38 29 34 36 26 32 38 28 34 38 28 34 36 26 32 38 28 34 37 27 32 38 28 33 38 29 34 37 27 32 37 27 33 39 29 35 35 26 31 36 27 32 39 29 35 36 27 32 38 29 34 35 26 31 36 27 32 36 27 32 36 27 32 35 26 31 35 26 31 36 27 32 36 27 32 39 29 35 37 28 33 35 26 31 39 29 35 37 27 33 35 26 31 37 28 33 37 27 32 35 26 31 36 27 32 38 28 34 36 26 32 35 26 31 38 29 34 36 27 32 35 26 31 36 26 32 37 28 33 37 28 33 35 26 31 38 28 34 36 27 32 35 26 31 38 28 34 36 26 32 37 27 32 36 27 32 37 28 33 37 27 33 36 26 32 36 26 31 36 27 32 36 26 32 35 26 31 36 26 32 37 27 33 37 27 33 35 26 31 36 27 32 37 28 33 36 27 32 36 26 32 37 28 33 38 28 34 36 27 32 37 27 33 36 27 32 36 27 32 37 28 33 38 28 34 38 28 34 36 27 32 37 27 33 37 28 33 37 27 33 38 28 34 39 29 35 39 29 35 36 27 32 37 28 33 36 26 32 36 26 32 38 29 34 38 29 34 38 29 34 37 28 33 37 27 32 37 28 33 36 26 32 36 27 32 35 26 31 36 26 32 39 29 35 36 27 32 37 27 33 37 27 33 36 26 31 36 27 32 36 27 32 46 32 35 46 33 35 46 32 34 46 32 35 49 35 38 47 33 36 49 35 37 46 32 34 48 35 37 49 35 38 48 35 37 46 33 35 48 34 37 45 32 34 47 33 35 44 31 33 45 32 34 45 31 33 43 29 32 46 32 35 42 29 31 42 28 31 44 31 33 44 30 33 43 30 32 42 29 31 40 27 29 41 27 30 42 28 31 41 28 30 40 26 28
41 28 30 39 25 28 40 26 29 40 26 29 41 27 30 42 29 31 43 29 31 42 29 31 45 31 33 44 31 33 44 31 33 42 29 31 45 31 34 44 30 33 44 30 33 45 32 34 47 34 36 47 33 35 45 31 34 45 31 33 47 33 36 46 32 35 46 32 35 46 32 35 46 32 35 47 34 36 46 32 35 46 33 35 46 32 35 48 34 37 48 35 37 46 32 35 39 29 34 35 25 31 36 27 32 35 26 31 35 26 31 36 26 31 35 25 31 36 26 31 37 27 33 38 28 34 37 27 33 35 26 31 36 26 32 38 28 34 36 27 32 37 27 33 37 28 33 38 29 34 35 26 31 37 28 33 37 27 33 35 26 31 36 26 32 37 28 33 35 26 31 37 27 33 38 28 34 38 29 34 35 26 31 36 27 32 38 29 34 37 28 33 37 27 33 36 27 32 37 28 33 38 28 34 37 28 33 36 26 32 38 29 34 36 27 32 38 29 34 38 28 34 35 26 31 38 28 33 37 27 33 35 26 31 35 25 31 36 27 32 38 28 34 36 26 32 38 28 34 36 26 32 35 25 31 38 28 34 37 28 33 36 26 32 38 29 34 38 28 34 38 29 34 38 29 34 37 27 33 38 28 34 37 27 32 39 29 34 35 26 31 35 26 31 37 27 33 38 28 34 35 26 31 36 27 32 36 27 32 35 26 31 39 29 34 37 27 33 37 27 33 35 25 31 36 26 32 37 27 33 38 28 34 35 25 31 38 28 33 36 27 32 35 25 31 35 26 31 38 29 34 35 26 31 37 28 33 39 29 34 36 26 32 38 28 34 37 28 33 38 29 34 37 27 33 38 28 33 38 29 34 35 25 31 38 28 33 36 27 32 37 27 33 35 25 31 35 26 31 37 27 33 37 28 33 37 28 33 38 29 34 36 27 32 38 29 34 39 29 34 36 27 32 36 26 32 35 25 31 36 26 32 37 27 33 35 25 31 36 26 32 36 26 32 35 26 31 36 26 32 38 28 34 37 28 33 36 27 32 36 26 32 37 28 33 36 26 31 36 26 32 38 28 34 35 26 31 36 27 32 38 29 34 46 33 35 47 33 36 46 32 35 48 34 37 48 34 37 48 35 37 48 34 37 48 34 36 46 32 34 46 33 35 48 35 37 48 35 37 48 34 37 47 33 36 45 32 34 45 32 34 43 30 32 46 32 35 44 31 33 46 32 35 45 32 34 43 29 32 42 28 31 42 28 31 41 28 30 42 28 31 43 30 32 44 30 33 40 26 29 39 26 28 39 26 28
41 27 30 42 28 31 43 29 32 41 27 30 41 27 30 41 28 30 42 28 31 41 27 30 42 28 31 42 29 31 43 29 32 44 30 33 43 30 32 43 30 32 44 31 33 46 33 35 47 33 36 45 31 34 45 32 34 44 31 33 45 31 34 48 35 37 48 34 37 47 33 36 46 33 35 45 32 34 45 31 34 45 31 34 46 32 35 47 33 36 46 32 35 47 34 36 37 27 32 36 27 32 37 27 32 35 25 31 36 26 32 38 29 34 35 26 31 35 25 31 36 26 32 35 26 31 36 27 32 38 29 34 36 27 32 38 28 33 38 28 34 37 28 33 35 25 31 38 28 34 37 27 33 38 29 34 36 26 32 36 26 32 37 28 33 38 28 34 38 29 34 38 28 34 38 28 34 38 28 34 35 25 31 37 28 33 37 27 33 38 29 34 35 26 31 38 28 33 36 26 32 38 28 34 37 27 33 37 27 33 35 25 30 36 26 32 36 27 32 35 25 31 37 27 33 38 29 34 35 26 31 35 26 31 35 26 31 36 27 32 35 25 31 35 25 31 37 27 33 35 25 31 38 29 34 37 28 33 38 28 34 38 28 33 37 27 33 35 26 31 38 28 34 37 27 33 36 26 32 38 29 34 36 26 32 35 25 31 37 28 33 35 25 30 36 27 32 38 28 34 38 28 34 38 28 34 38 28 34 36 27 32 36 27 32 37 28 33 37 27 33 36 27 32 36 26 32 35 25 31 35 26 31 35 25 31 38 28 34 34 25 30 37 27 33 38 28 34 35 26 31 37 28 33 36 26 32 37 27 33 35 25 31 37 27 33 35 26 31 36 27 32 38 28 33 35 25 31 34 25 30 35 25 30 37 27 33 35 25 31 37 27 33 37 27 33 36 26 32 35 25 31 37 28 33 35 25 31 38 28 33 37 27 33 36 26 32 38 28 34 36 27 32 36 26 32 38 28 34 38 29 34 37 28 33 36 26 32 35 26 31 37 27 33 37 27 33 38 28 34 35 26 31 38 28 34 37 27 33 36 27 32 38 28 34 38 29 34 36 27 32 35 26 31 36 26 32 38 28 34 34 25 30 47 33 36 46 32 35 45 32 34 46 33 35 46 32 35 47 34 36 47 34 36 47 33 36 46 33 35 46 32 35 46 33 35 46 32 35 45 31 34 45 31 34 47 34 36 47 33 35 45 31 34 46 32 35 47 33 36 45 32 34 43 30 32 45 31 34 42 28 31 42 29 31 43 29 32 45 31 33 44 30 33 41 28 30 42 28 31 40 26 29 41 27 30
42 28 31 43 29 32 40 27 29 41 27 30 43 29 32 44 30 33 44 31 33 43 30 32 42 28 31 42 29 31 43 29 32 43 30 32 45 32 34 45 31 34 45 31 34 46 33 35 48 34 37 45 32 34 46 33 35 44 31 33 44 30 33 47 33 36 44 31 33 45 32 34 48 34 37 46 33 35 47 34 36 45 32 34 45 31 34 45 32 34 45 32 34 48 34 37 36 26 31 35 25 31 34 24 30 37 27 33 34 24 30 35 26 31 35 26 31 35 25 31 37 27 33 37 27 33 34 25 30 37 27 32 37 27 33 35 25 31 35 25 30 37 27 32 35 25 31 38 28 34 34 25 30 34 24 30 36 26 32 36 27 32 37 27 33 35 25 31 35 26 31 37 27 33 38 28 33 37 28 33 37 28 33 36 26 32 37 28 33 37 27 33 38 28 34 34 24 30 34 25 30 36 26 32 36 27 32 36 27 32 35 25 31 37 27 33 35 25 30 34 24 30 34 25 30 37 28 33 34 25 30 36 26 32 34 25 30 36 26 32 35 25 30 35 25 31 36 26 32 36 26 31 36 27 32 35 26 31 36 26 32 37 27 33 35 26 31 37 28 33 35 25 31 36 27 32 34 24 30 37 28 33 36 26 31 38 28 34 37 27 33 36 26 31 38 28 33 37 27 33 37 27 33 34 25 30 37 28 33 34 25 30 36 27 32 34 25 30 34 24 30 36 26 32 37 27 32 36 26 32 38 28 33 36 27 32 38 28 34 36 26 32 35 25 31 37 28 33 35 26 31 36 26 32 37 27 33 38 28 34 36 27 32 34 25 30 35 25 31 36 27 32 38 28 34 34 25 30 37 28 33 37 27 33 35 26 31 36 27 32 37 27 32 36 27 32 36 27 32 36 26 32 36 26 32 36 26 32 37 28 33 34 25 30 34 25 30 37 28 33 37 27 33 36 26 32 35 26 31 38 28 34 36 27 32 36 26 31 36 26 32 36 26 31 35 25 31 38 28 34 36 27 32 35 26 31 35 26 31 38 28 34 38 28 33 37 28 33 35 26 31 37 28 33 36 27 32 35 25 31 35 25 31 45 31 34 44 31 33 45 31 34 45 31 34 45 31 34 44 31 33 45 31 34 47 33 36 46 33 35 46 32 35 45 32 34 45 31 34 46 33 35 45 31 34 44 31 33 45 31 34 44 30 33 44 30 32 44 31 33 43 29 32 44 30 33 43 29 31 42 28 31 42 28 31 43 29 32 41 27 30 41 28 30 40 27 29 41 28 30 40 26 29 40 27 29
40 26 29 40 26 29 43 30 32 42 28 31 41 27 30 41 28 30 45 31 34 41 28 30 45 32 34 45 31 34 46 32 35 46 33 35 43 30 32 46 33 35 45 31 34 45 31 34 45 31 34 46 32 34 46 32 35 47 33 35 48 34 36 46 33 35 47 34 36 47 33 36 47 33 36 45 32 34 45 31 34 45 31 34 44 31 33 44 31 33 46 32 35 47 34 36 37 27 33 37 28 33 37 27 33 35 25 31 36 26 32 34 24 30 37 27 32 36 26 32 34 24 30 35 25 31 35 25 31 36 26 32 35 26 31 35 25 31 35 25 30 37 27 32 37 27 33 38 28 33 37 27 33 35 25 30 36 26 32 37 28 33 35 25 30 35 26 31 34 24 30 36 26 32 36 26 31 36 27 32 34 24 30 38 28 34 35 25 31 37 28 33 37 28 33 37 27 33 35 25 31 37 27 32 36 27 32 34 25 30 35 26 31 37 27 33 36 26 32 34 24 30 35 25 31 34 24 30 37 28 33 36 26 31 37 28 33 38 28 33 36 26 32 37 27 33 36 26 32 36 27 32 34 24 30 34 24 30 36 26 32 35 25 31 36 26 32 37 27 33 35 25 31 36 26 32 35 26 31 37 27 32 34 25 30 34 25 30 36 27 32 35 26 31 35 25 31 34 24 30 36 27 32 37 27 33 35 26 31 35 25 31 35 25 31 38 28 33 34 24 30 37 27 33 35 25 31 34 25 30 37 28 33 34 25 30 36 26 32 36 26 32 36 27 32 36 26 32 37 27 33 37 27 33 35 25 31 34 24 30 34 24 30 35 25 31 36 26 32 35 26 31 35 25 30 34 24 30 35 25 31 35 25 31 35 25 31 38 28 33 34 25 30 36 27 32 35 25 31 37 27 33 35 25 31 36 26 32 37 27 33 35 25 31 37 28 33 34 25 30 36 26 32 36 26 32 35 25 31 37 27 33 36 26 32 35 25 31 34 25 30 34 25 30 34 24 30 38 28 34 34 24 30 37 27 33 35 25 31 36 26 31 35 25 31 35 25 31 34 25 30 37 28 33 36 26 32 35 26 31 35 25 30 48 34 37 46 32 35 45 32 34 45 31 34 44 31 33 47 33 36 45 32 34 45 32 34 44 31 33 44 31 33 46 32 35 47 34 36 46 32 35 46 32 35 44 30 33 48 34 36 45 31 33 47 34 36 44 31 33 43 29 32 43 29 32 44 31 33 45 31 34 45 32 34 43 29 32 41 28 30 44 31 33 43 30 32 42 28 31 44 30 33 41 28 30
39 26 28 42 28 30 42 29 31 42 29 31 42 28 31 43 30 32 43 30 32 45 32 34 44 30 33 44 31 33 44 30 33 44 30 33 45 31 34 47 33 36 47 33 36 46 33 35 45 32 34 45 32 34 44 31 33 47 33 36 46 32 35 44 30 33 43 30 32 44 31 33 46 32 35 44 30 33 46 33 35 47 33 36 46 32 35 44 31 33 44 31 33 47 34 36 37 27 33 35 26 31 34 24 29 37 27 33 35 25 31 35 26 31 36 26 31 36 26 32 36 26 32 36 26 32 35 25 31 34 24 29 35 25 31 35 25 31 34 24 30 35 25 31 36 27 32 35 25 31 37 27 33 37 27 33 34 24 30 34 24 30 36 26 32 34 24 30 34 24 30 36 26 32 34 25 30 36 26 32 33 24 29 37 27 33 37 27 33 37 27 32 37 27 33 36 26 31 35 25 31 37 27 33 35 25 30 34 24 30 34 25 30 36 26 32 36 26 32 37 27 33 35 25 30 34 25 30 36 26 31 34 24 30 34 24 30 36 26 32 33 24 29 35 25 31 34 24 30 36 26 32 37 27 32 35 25 31 37 27 33 37 27 33 37 27 33 34 24 30 34 24 30 35 25 30 36 26 32 37 27 33 37 28 33 37 27 33 34 24 30 35 25 31 35 25 31 36 26 32 34 25 30 35 25 31 35 26 31 34 24 30 37 27 33 36 26 32 35 26 31 33 24 29 36 26 32 37 27 33 35 25 31 37 28 33 34 25 30 37 27 33 37 27 33 35 25 30 35 25 30 36 26 32 34 24 29 36 26 32 33 24 29 36 27 32 34 25 30 34 24 30 36 27 32 37 27 33 35 26 31 33 24 29 35 25 31 34 24 30 34 24 30 35 25 31 37 27 33 37 28 33 34 24 30 35 26 31 36 26 32 37 27 33 35 25 31 34 24 30 36 26 32 35 26 31 34 24 29 36 27 32 35 25 31 37 27 33 36 26 31 36 26 32 35 25 31 37 27 33 35 25 31 34 25 30 37 27 33 36 27 32 36 26 32 35 25 31 35 25 31 36 26 32 34 25 30 37 27 33 37 27 33 46 32 34 45 31 34 46 33 35 46 32 35 47 33 36 46 32 35 46 33 35 45 31 33 46 33 35 46 32 35 46 33 35 47 33 36 45 32 34 44 30 32 46 32 35 47 34 36 45 32 34 47 34 36 43 30 32 45 31 34 43 30 32 45 31 34 42 29 31 45 31 33 43 29 31 44 31 33 45 31 34 41 27 30 42 29 31 40 27 29 40 27 29
31 21 26 30 20 25 33 24 28 34 24 29 33 24 28 35 25 30 33 23 28 35 25 30 34 24 29 34 25 29 36 27 31 33 23 28 35 25 30 35 25 30 34 25 29 36 26 31 37 27 32 37 27 32 36 26 30 34 24 29 35 25 30 35 25 30 33 23 28 34 24 28 35 26 30 34 24 29 34 25 29 36 26 31 36 27 31 34 24 29 35 25 29 37 27 32 25 19 27 27 21 29 24 18 26 26 21 28 24 18 25 24 19 26 24 18 26 24 18 26 24 18 26 24 18 25 26 21 28 25 19 27 23 17 25 25 20 27 27 21 29 27 21 29 26 20 27 24 18 26 26 20 28 24 18 26 24 19 26 26 20 28 24 18 26 27 21 29 24 18 26 25 19 27 27 21 29 25 19 27 25 19 27 25 19 27 26 20 28 24 18 26 23 17 25 24 18 26 24 19 26 23 18 25 23 17 25 26 20 27 27 21 29 23 18 25 25 19 27 26 20 28 27 21 29 23 17 25 24 19 26 24 19 26 27 21 29 27 21 28 23 18 25 25 19 27 26 20 28 24 18 26 24 19 26 26 21 28 25 19 27 25 19 27 26 20 28 24 19 26 23 17 25 27 21 29 27 21 29 25 19 27 24 18 26 27 21 29 24 18 26 25 19 27 24 18 26 24 19 26 26 20 28 26 20 28 24 18 26 24 19 26 24 19 26 24 18 26 26 21 28 26 20 28 24 18 26 25 20 27 25 19 27 26 20 28 23 18 25 26 20 28 27 21 29 26 20 28 27 21 29 27 21 28 23 17 25 24 19 26 24 18 26 25 19 27 25 19 27 23 17 25 27 21 28 27 21 29 24 18 26 24 18 26 27 21 29 25 19 27 25 19 26 26 21 28 26 20 28 27 21 29 25 19 27 25 19 27 24 18 26 25 20 27 24 19 26 27 21 29 24 18 26 26 20 28 26 20 28 27 21 29 23 18 25 26 20 28 27 21 29 23 18 25 26 21 28 25 19 27 25 19 27 25 19 27 26 20 28 26 21 28 26 20 28 27 21 29 23 17 25 25 19 27 26 20 28 26 20 28 24 18 26 34 25 29 35 25 30 36 27 31 35 25 30 36 26 31 35 25 29 36 27 31 35 26 30 33 24 28 34 25 29 35 26 30 36 26 31 35 25 30 33 23 28 36 26 31 35 25 30 36 27 31 36 26 31 36 27 31 35 26 30 36 27 31 35 25 30 32 23 27 35 25 30 32 22 27 35 25 30 32 22 27 33 23 28 31 21 26 33 23 28 30 20 25
30 20 24 31 22 26 31 21 26 33 24 28 32 22 27 32 22 27 34 24 29 32 23 27 33 23 28 33 23 28 33 23 28 36 26 30 35 26 30 35 25 30 34 25 29 36 26 31 36 27 31 33 24 28 36 27 31 36 26 31 35 26 30 35 26 30 35 25 30 34 24 29 36 26 31 36 26 31 34 24 29 34 24 29 34 25 29 35 25 30 35 26 30 36 26 31 24 18 26 23 17 25 24 18 26 23 18 25 24 18 26 24 18 26 24 18 26 25 19 27 25 19 27 23 18 25 26 20 28 26 20 28 24 19 26 25 19 27 24 18 26 23 17 25 27 21 29 25 19 27 25 19 27 25 19 27 25 19 27 26 20 28 23 17 25 23 17 25 25 19 27 23 17 25 24 18 26 24 18 26 25 19 27 27 21 29 24 18 26 26 20 28 24 18 26 24 18 26 26 20 28 25 19 27 23 17 25 24 18 26 27 21 29 25 19 27 26 20 28 26 20 28 26 20 28 24 18 26 24 18 26 26 20 28 26 20 28 24 18 26 27 21 29 24 18 26 27 21 29 24 18 26 24 18 26 26 20 28 24 18 26 25 20 27 24 19 26 26 20 28 25 20 27 23 17 25 24 19 26 23 18 25 25 19 27 26 20 28 26 20 28 24 18 26 26 20 27 24 18 26 27 21 29 24 18 26 23 17 25 26 20 28 23 17 25 25 20 27 26 20 28 26 21 28 25 19 27 27 21 29 27 21 29 23 17 25 25 19 27 23 17 25 24 18 26 27 21 28 24 19 26 24 18 26 26 20 28 24 18 26 26 20 27 24 19 26 24 18 26 26 20 28 23 17 25 25 19 26 25 19 27 25 19 27 23 17 25 26 20 28 26 20 28 26 21 28 23 17 25 26 20 28 23 17 25 23 18 25 26 20 28 26 20 28 23 18 25 25 19 27 24 19 26 26 20 28 25 19 27 25 19 27 24 18 26 24 19 26 26 20 28 24 18 26 24 18 25 24 18 26 26 20 28 25 20 27 24 18 26 23 17 25 25 19 27 23 17 25 24 18 26 26 20 28 24 18 26 25 19 27 25 19 27 35 25 30 36 26 31 36 26 31 33 24 28 33 23 28 33 23 28 34 24 29 34 25 29 37 27 32 36 26 31 34 24 29 35 25 30 35 25 30 35 25 30 36 26 31 36 26 31 34 24 29 33 23 28 36 27 31 33 24 28 34 24 28 35 25 30 35 25 30 34 24 29 32 22 27 33 23 28 32 22 27 31 21 26 34 24 29 34 24 29 33 23 28
40 26 29 44 30 33 41 27 30 43 30 32 42 28 31 44 30 33 43 29 32 42 28 31 45 32 34 44 30 33 43 29 32 46 33 35 45 31 34 45 31 34 43 30 32 44 30 33 46 32 35 43 29 32 44 30 33 44 30 32 43 29 32 42 29 31 46 32 35 43 29 32 45 31 34 46 32 35 43 29 32 46 32 35 45 31 34 43 29 32 45 31 34 45 31 34 34 24 30 34 24 30 34 24 30 33 23 29 33 24 29 35 25 31 34 24 30 36 26 32 34 24 30 36 26 32 34 25 30 36 26 32 36 27 32 35 26 31 34 24 30 33 24 29 35 25 31 34 25 30 35 25 31 35 25 31 34 24 30 36 26 32 33 23 29 33 23 29 33 23 29 36 27 32 35 25 31 36 26 32 33 23 29 36 27 32 35 25 31 32 23 28 36 26 32 33 23 29 35 26 31 33 23 29 35 25 31 35 25 31 35 26 31 35 26 31 34 24 30 36 26 32 36 27 32 35 25 31 33 23 29 36 26 32 35 25 30 35 25 31 33 23 28 35 25 31 34 24 29 34 24 30 36 26 32 35 25 31 35 25 31 36 26 32 33 23 29 35 25 30 35 25 31 34 25 30 34 24 30 36 26 32 35 26 31 35 25 31 33 23 28 35 25 31 33 23 29 34 24 30 35 25 31 35 25 31 34 24 30 36 26 32 36 26 32 36 26 32 33 23 29 35 25 31 35 26 31 36 26 32 35 25 31 36 26 32 35 25 31 33 23 29 34 24 30 34 24 30 33 24 29 36 26 32 33 24 29 36 26 32 33 23 28 33 23 29 36 26 32 35 25 31 34 24 30 35 25 31 33 23 29 33 23 29 35 26 31 35 25 31 35 25 31 36 27 32 34 24 30 34 24 30 34 24 30 33 23 29 35 26 31 34 24 30 36 26 32 33 23 29 33 23 29 34 24 30 35 25 31 33 23 29 36 26 32 34 24 30 35 25 31 33 23 29 34 25 30 35 25 31 35 26 31 35 25 31 34 24 30 36 27 32 34 25 30 34 24 30 33 23 29 33 23 29 34 24 30 32 23 28 35 25 31 43 29 32 46 32 35 45 31 34 44 30 33 45 31 34 45 32 34 42 29 31 45 32 34 45 31 34 45 31 34 44 30 33 46 32 35 44 30 33 45 31 34 43 29 32 43 29 32 44 31 33 46 32 35 43 29 31 43 29 32 45 32 34 45 31 34 46 33 35 46 32 35 44 31 33 43 29 32 43 29 32 44 30 33 43 29 32 42 29 31 41 27 30
40 27 29 41 27 30 44 30 33 43 29 32 42 29 31 42 28 31 44 30 33 45 31 34 46 32 35 43 29 32 42 28 31 44 30 33 42 28 31 43 29 32 43 30 32 42 28 31 44 30 33 44 30 33 46 32 35 43 29 32 44 30 33 45 31 34 43 29 32 42 29 31 45 31 34 45 31 34 42 29 31 42 28 31 43 29 32 46 32 35 45 31 34 46 32 34 35 25 31 34 25 30 34 24 30 35 25 31 33 23 29 35 25 31 36 26 32 33 23 29 35 25 31 36 26 32 33 23 29 33 24 29 33 23 29 33 24 29 34 24 30 35 25 31 35 26 31 34 24 30 33 23 29 36 26 32 35 25 31 33 23 29 34 24 30 34 24 30 33 23 29 33 23 29 33 23 29 34 24 30 34 24 30 34 24 30 35 25 31 32 22 28 32 22 28 35 25 31 35 25 31 33 23 29 36 26 32 34 25 30 34 24 30 36 26 32 36 26 32 35 25 31 34 24 30 35 25 31 35 25 31 34 25 30 34 24 30 34 24 30 33 23 29 35 25 31 33 23 29 35 25 31 35 25 31 35 25 31 33 23 29 35 25 31 35 25 31 35 25 31 35 25 31 33 24 29 33 23 29 35 25 31 34 25 30 34 24 30 35 25 31 36 26 32 34 24 29 35 25 31 33 23 29 35 25 31 35 26 31 32 23 28 36 26 32 33 23 29 33 23 29 33 23 28 34 24 29 33 23 29 35 25 31 34 24 30 35 25 31 33 23 29 35 26 31 33 23 29 35 25 31 34 24 30 34 25 30 34 24 30 34 24 30 35 25 31 34 24 30 35 25 31 33 24 29 35 25 31 36 26 32 35 26 31 33 23 29 35 25 31 34 25 30 34 25 30 36 26 32 32 23 28 35 25 31 34 24 30 35 25 30 36 26 32 35 25 31 33 23 29 34 24 30 35 25 31 33 23 29 32 22 28 34 24 30 33 23 29 33 23 29 32 22 28 36 26 32 36 26 32 34 24 30 35 26 31 35 25 31 35 25 31 32 23 28 35 25 31 35 26 31 34 24 30 35 25 31 33 23 29 32 23 28 42 28 31 44 30 33 44 30 33 44 30 33 44 30 33 44 30 33 45 32 34 45 31 34 46 32 35 46 32 35 43 29 32 44 30 33 43 29 32 46 32 35 46 32 35 43 30 32 46 32 35 45 31 33 42 28 31 45 31 34 45 32 34 45 31 34 44 30 33 44 30 33 45 31 34 43 29 32 44 30 33 45 31 34 43 29 32 42 28 31 41 27 30
40 27 29 44 30 32 43 29 32 44 30 33 42 28 31 42 29 31 45 31 34 42 29 31 43 30 32 46 32 35 46 32 34 42 28 31 44 31 33 43 30 32 45 31 34 42 29 31 44 30 33 44 31 33 44 30 33 43 29 32 45 31 34 42 28 31 45 31 34 45 31 34 43 29 32 44 30 33 44 30 33 42 28 31 45 32 34 45 31 34 42 28 31 44 30 33 36 26 32 34 24 30 33 23 29 35 25 31 34 24 30 35 25 31 34 24 30 34 24 30 33 23 29 34 24 30 34 24 30 35 25 31 33 23 29 33 24 29 34 24 29 32 22 28 36 26 32 32 22 28 34 24 30 32 23 28 35 25 31 35 25 31 32 22 28 35 25 31 33 23 29 32 22 28 35 26 31 35 25 31 34 24 29 34 24 30 36 26 32 32 22 28 33 23 29 36 26 32 32 22 28 35 25 31 33 23 29 33 23 29 36 26 32 32 22 28 33 23 29 32 22 28 33 23 29 33 23 29 35 25 31 34 24 30 33 24 29 35 25 31 36 26 32 35 26 31 33 24 29 35 25 31 35 25 31 35 25 31 35 25 31 33 23 29 34 25 30 34 24 30 33 23 29 32 22 28 36 26 32 33 24 29 32 22 28 33 23 29 34 24 30 36 26 32 35 25 31 32 22 28 32 22 28 32 22 28 35 25 31 32 22 28 34 24 30 33 23 29 32 22 28 34 24 30 33 23 29 32 22 28 35 25 31 36 26 32 33 23 29 32 22 28 35 25 31 36 26 32 32 22 28 34 24 30 32 22 28 33 23 29 34 24 30 35 25 31 32 22 28 33 24 29 35 25 31 33 23 29 32 23 28 33 24 29 33 23 29 34 24 30 34 24 30 33 23 29 35 25 31 35 25 31 36 26 32 33 23 29 33 23 29 32 22 28 35 25 31 33 23 29 33 23 29 35 25 31 36 26 32 34 24 30 33 23 28 36 26 32 32 23 28 35 25 31 32 22 28 33 23 29 36 26 32 32 22 28 33 23 29 33 23 29 33 23 29 34 24 30 35 25 31 36 26 32 35 25 31 32 22 28 35 25 31 42 28 31 45 31 34 45 32 34 43 29 32 44 30 33 43 29 32 44 30 33 43 29 32 45 31 34 43 29 32 44 30 33 43 29 32 42 29 31 45 32 34 43 29 32 45 31 34 45 31 34 46 32 35 42 28 31 45 31 34 44 30 33 44 30 33 44 30 33 42 29 31 45 31 34 44 30 33 43 29 32 45 31 34 45 31 34 41 27 30 40 26 29
40 26 29 43 29 32 41 27 30 45 31 34 41 28 30 44 31 33 44 30 33 45 31 34 43 29 32 42 28 31 43 29 32 43 29 32 44 30 33 45 31 34 45 31 34 44 30 33 43 29 32 42 28 31 43 29 32 42 28 31 44 30 33 43 29 32 42 28 31 42 29 31 43 29 32 43 30 32 45 31 33 44 30 33 44 30 33 44 30 33 44 30 33 42 29 31 32 22 28 35 25 31 35 25 31 32 22 28 35 25 31 32 22 28 35 25 31 34 24 30 33 23 29 34 24 30 33 23 29 32 22 28 35 25 31 32 22 28 32 23 28 32 23 28 35 25 31 34 24 30 32 22 28 34 24 30 33 23 29 35 25 31 34 24 30 33 23 29 32 22 28 34 24 30 33 23 29 32 22 28 32 22 28 32 22 28 33 23 29 32 22 28 33 23 29 32 22 28 32 22 28 35 25 31 32 22 27 32 22 28 35 25 31 32 22 28 35 25 31 35 25 31 34 24 30 35 25 31 32 22 28 33 23 29 34 24 30 33 23 29 32 22 28 35 25 31 33 23 29 33 23 29 33 23 29 32 22 28 32 23 28 32 22 28 34 24 30 33 23 29 35 25 31 34 24 30 32 22 28 32 22 28 34 24 30 32 22 28 35 25 31 34 24 30 35 25 31 33 23 29 35 25 31 32 22 28 32 22 28 35 25 30 33 23 29 35 25 31 34 24 30 34 24 30 35 25 31 32 22 28 35 25 31 32 23 28 32 22 28 32 22 28 32 22 28 34 24 30 32 22 28 35 25 31 35 25 31 33 23 29 33 23 29 34 24 30 32 22 28 35 25 31 32 22 28 33 23 29 33 23 29 32 22 28 35 25 31 33 23 29 33 23 29 34 25 30 34 24 30 35 25 31 33 23 29 32 22 28 33 23 29 35 25 31 35 25 31 35 25 31 33 23 29 35 25 31 32 22 28 33 24 29 34 25 30 33 23 29 32 23 28 34 24 30 32 22 28 33 23 29 35 25 31 33 23 29 35 25 31 32 22 28 34 24 30 33 23 29 32 22 28 35 25 31 32 22 28 32 22 28 33 23 29 45 31 34 44 30 33 45 31 34 43 29 32 45 31 33 44 30 33 44 30 33 44 30 33 45 31 34 43 29 32 44 30 33 45 31 34 43 29 32 42 29 31 44 30 32 44 30 33 42 28 31 44 30 33 42 28 30 44 30 33 43 29 32 43 29 32 45 31 34 45 31 34 42 28 31 43 29 32 45 31 34 45 31 34 41 27 30 43 29 32 44 30 33
43 29 32 43 29 32 43 30 32 43 29 32 43 29 32 43 29 32 43 29 31 44 30 33 44 30 33 44 30 33 42 28 31 42 28 31 42 28 31 42 28 31 42 28 31 43 29 32 45 31 34 43 30 32 41 27 30 42 28 31 41 27 30 43 29 32 44 30 33 42 28 31 42 28 31 44 30 33 44 30 33 45 31 34 41 27 30 41 27 30 44 30 33 43 29 32 34 24 30 32 22 28 33 23 29 35 25 31 33 23 29 35 25 31 32 22 28 34 24 30 34 24 30 33 23 29 32 22 28 33 23 29 32 22 28 33 23 29 32 22 28 34 24 30 32 22 28 35 25 31 34 24 30 35 25 31 34 24 30 31 21 27 35 25 31 32 22 28 33 23 28 34 24 30 34 24 30 33 23 29 34 24 30 32 22 28 32 22 28 35 25 31 35 25 31 32 22 28 32 22 28 35 25 31 33 23 29 34 24 30 31 21 27 34 24 30 35 25 31 34 24 30 33 23 29 32 22 28 32 23 28 32 22 28 33 23 29 34 24 30 34 24 30 35 25 31 35 25 31 35 25 31 35 25 31 33 23 29 33 23 29 34 24 30 32 22 28 32 22 28 35 25 31 35 25 31 32 22 28 32 22 28 32 22 28 32 22 28 32 22 28 33 23 29 32 22 28 33 23 29 35 25 31 33 23 29 34 25 30 32 23 28 34 24 30 32 22 28 32 22 28 33 23 29 33 23 29 32 22 28 35 25 31 33 23 29 33 23 29 33 23 29 32 22 28 33 23 29 32 22 28 33 23 29 33 23 29 33 23 29 35 25 31 34 24 30 31 22 27 33 23 29 33 23 29 32 22 28 33 23 29 33 23 29 35 25 31 31 21 27 31 21 27 35 25 31 34 24 30 33 23 29 33 23 29 33 23 29 35 25 31 32 22 28 32 22 28 34 24 29 33 23 29 34 24 30 35 25 31 33 23 29 32 22 28 33 23 29 34 24 30 33 23 29 31 21 27 32 22 28 32 22 28 33 23 28 32 22 28 33 23 29 35 25 31 31 21 27 33 23 29 33 23 29 34 24 30 33 23 29 33 23 29 45 31 34 44 30 33 42 28 31 42 28 31 44 30 33 41 28 30 43 29 32 45 31 34 44 30 33 42 28 31 42 29 31 44 30 33 43 29 32 42 29 31 45 31 34 45 31 34 42 28 31 45 31 34 45 31 34 42 28 31 43 29 32 42 28 31 43 29 32 44 30 33 41 27 30 44 30 33 41 27 30 44 30 33 44 31 33 44 30 33 43 29 32
40 26 29 44 30 33 42 28 31 41 27 30 43 29 32 42 28 31 43 29 32 44 31 33 43 29 32 45 31 34 42 28 31 44 30 33 41 27 30 44 30 33 44 30 33 44 30 33 44 30 33 42 28 31 45 31 34 43 29 32 43 29 32 41 27 30 45 31 34 43 29 32 41 27 30 42 28 31 43 29 32 42 28 31 42 28 31 45 31 34 44 30 33 41 27 30 31 22 27 33 23 29 32 22 28 33 23 29 32 22 28 34 24 30 33 23 29 34 24 30 35 25 31 33 23 29 34 24 30 34 24 30 33 23 29 32 22 28 31 21 27 31 21 27 34 24 30 31 21 27 34 24 30 33 23 29 33 23 29 31 21 27 32 22 28 31 21 27 31 21 27 35 25 31 34 24 30 34 24 30 31 21 27 33 23 29 33 23 29 35 25 31 31 21 27 33 23 29 34 24 30 31 21 27 32 22 28 34 24 30 35 25 31 31 21 27 32 22 28 33 23 29 34 24 30 31 21 27 32 22 28 32 22 28 34 25 30 33 23 29 34 24 30 34 24 30 32 22 28 34 24 30 32 22 28 34 24 30 32 22 28 32 22 28 33 23 29 31 21 27 31 21 27 34 24 30 31 21 27 34 24 30 33 23 29 32 22 28 32 22 28 32 22 28 33 23 29 31 21 27 32 23 28 35 25 31 32 22 28 33 23 29 31 21 27 32 22 28 34 24 30 34 24 30 33 23 29 34 24 30 31 21 27 32 22 28 33 23 29 32 22 28 31 21 27 33 23 29 34 25 30 32 22 28 32 22 28 32 22 28 34 24 30 34 24 30 32 22 28 33 23 29 32 22 28 33 23 29 34 24 30 32 22 28 31 21 27 33 23 29 34 24 30 32 22 28 32 22 28 32 22 28 31 21 27 34 24 30 32 22 28 33 23 29 31 22 27 32 22 28 33 23 29 34 24 30 33 23 29 31 21 27 32 22 28 34 24 30 32 22 28 34 24 30 34 24 30 32 22 28 32 22 28 33 23 29 31 21 27 34 24 30 32 22 28 33 23 29 32 22 28 32 22 28 34 24 30 33 23 29 35 25 31 41 27 30 44 30 33 44 30 33 43 29 32 42 28 31 42 28 31 43 29 32 43 29 32 43 29 32 45 31 34 44 30 33 43 29 32 45 31 34 42 28 31 44 31 33 43 29 32 44 30 33 42 28 31 41 27 30 44 30 33 41 27 30 42 28 31 45 31 34 42 28 31 41 27 30 42 28 31 45 31 34 43 29 32 41 28 30 44 30 33 42 28 31
